; generated by Slic3r 1.3.1-dev (Build (Unknown revision)) on 2020-07-16 at 16:57:12
; external perimeters extrusion width = 0.55mm (4.37mm^3/s)
; perimeters extrusion width = 0.70mm (11.44mm^3/s)
; infill extrusion width = 0.62mm (13.45mm^3/s)
; solid infill extrusion width = 0.70mm (3.81mm^3/s)
; top infill extrusion width = 0.70mm (2.86mm^3/s)
M107
M106
G92 E0
M104 S200 ; set temperature
G28 ; home all axes
G1 Z5 F5000 ; lift nozzle
; Filament gcode
M109 S200 ; set temperature and wait for it to be reached
G90 ; use absolute coordinates
M82 ; use absolute distances for extrusion
G92 E0
G1 Z0.300 F7800.000
G1 E-2.00000 F2400.00000
G92 E0
G1 X52.749 Y48.255 F7800.000
G1 E2.00000 F2400.00000
G1 F1800.000
G1 X53.043 Y48.180 E2.00692
G1 X53.304 Y48.202 E2.01286
G1 X53.524 Y48.276 E2.01813
G1 X53.737 Y48.415 E2.02392
G1 X53.888 Y48.601 E2.02937
G1 X53.989 Y48.827 E2.03499
G1 X54.175 Y49.476 E2.05033
G1 X54.548 Y50.431 E2.07363
G1 X55.045 Y49.002 E2.10803
G1 X55.186 Y48.702 E2.11556
G1 X55.348 Y48.465 E2.12207
G1 X55.525 Y48.297 E2.12764
G1 X55.732 Y48.196 E2.13287
G1 X55.959 Y48.183 E2.13804
G1 X56.179 Y48.262 E2.14335
G1 X56.372 Y48.412 E2.14890
G1 X56.521 Y48.612 E2.15457
G1 X56.615 Y48.852 E2.16043
G1 X56.633 Y49.083 E2.16569
G1 X56.560 Y49.388 E2.17283
G1 X56.272 Y50.044 E2.18913
G1 X56.059 Y50.690 E2.20457
G1 X55.107 Y53.351 E2.26882
G1 X54.724 Y54.336 E2.29285
G1 X54.451 Y54.939 E2.30790
G1 X54.329 Y55.145 E2.31333
G1 X54.144 Y55.382 E2.32017
G1 X53.848 Y55.620 E2.32881
G1 X53.564 Y55.760 E2.33600
G1 X53.334 Y55.840 E2.34154
G1 X53.027 Y55.909 E2.34870
G1 X52.763 Y55.921 E2.35470
G1 X52.530 Y55.874 E2.36011
G1 X52.358 Y55.788 E2.36447
G1 X52.149 Y55.571 E2.37133
G1 X52.036 Y55.335 E2.37728
G1 X51.994 Y55.160 E2.38138
G1 X51.984 Y54.991 E2.38523
G1 X52.030 Y54.765 E2.39047
G1 X52.159 Y54.576 E2.39567
G1 X52.352 Y54.451 E2.40089
G1 X52.836 Y54.311 E2.41234
G1 X52.980 Y54.247 E2.41594
G1 X53.163 Y54.093 E2.42138
G1 X53.292 Y53.878 E2.42706
G1 X53.509 Y53.310 E2.44088
G1 X53.695 Y52.923 E2.45066
G1 X53.748 Y52.724 E2.45533
G1 X53.711 Y52.536 E2.45969
G1 X53.438 Y51.914 E2.47512
G1 X52.844 Y50.309 E2.51403
G1 X52.543 Y49.576 E2.53204
G1 X52.448 Y49.245 E2.53987
G1 X52.414 Y48.864 E2.54857
G1 X52.475 Y48.567 E2.55546
G1 X52.569 Y48.406 E2.55969
G1 X52.691 Y48.304 E2.56332
G1 X52.771 Y47.952 F7800.000
G1 X51.873 Y48.619 F7800.000
G1 F1800.000
G1 X51.946 Y48.933 E2.57064
G1 X51.862 Y49.267 E2.57849
G1 X51.171 Y50.436 E2.60935
G1 X51.105 Y50.594 E2.61324
G1 X51.085 Y50.703 E2.61575
G1 X51.093 Y50.797 E2.61791
G1 X51.133 Y50.903 E2.62047
G1 X51.814 Y52.037 E2.65055
G1 X51.956 Y52.354 E2.65844
G1 X51.997 Y52.629 E2.66478
G1 X51.965 Y52.890 E2.67075
G1 X51.849 Y53.122 E2.67666
G1 X51.615 Y53.311 E2.68349
G1 X51.370 Y53.391 E2.68935
G1 X51.113 Y53.397 E2.69517
G1 X50.879 Y53.326 E2.70075
G1 X50.688 Y53.183 E2.70617
G1 X50.489 Y52.907 E2.71390
G1 X50.127 Y52.254 E2.73087
G1 X49.820 Y52.777 E2.74465
G1 X49.607 Y53.078 E2.75302
G1 X49.426 Y53.257 E2.75883
G1 X49.145 Y53.386 E2.76586
G1 X48.829 Y53.356 E2.77308
G1 X48.547 Y53.200 E2.78040
G1 X48.379 Y53.002 E2.78630
G1 X48.174 Y52.413 E2.80048
G1 X48.329 Y52.429 E2.80403
G1 X48.414 Y52.213 E2.80930
G1 X48.947 Y51.279 E2.83375
G1 X49.309 Y50.767 E2.84800
G1 X49.041 Y50.362 E2.85905
G1 X48.476 Y49.343 E2.88554
G1 X48.386 Y49.078 E2.89189
G1 X48.369 Y48.766 E2.89900
G1 X48.490 Y48.484 E2.90597
G1 X48.739 Y48.277 E2.91333
G1 X49.046 Y48.182 E2.92064
G1 X49.231 Y48.183 E2.92483
G1 X49.439 Y48.248 E2.92979
G1 X49.585 Y48.340 E2.93370
G1 X49.763 Y48.512 E2.93934
G1 X49.997 Y48.853 E2.94874
G1 X50.172 Y49.193 E2.95743
G1 X50.442 Y48.706 E2.97007
G1 X50.636 Y48.471 E2.97701
G1 X50.839 Y48.303 E2.98300
G1 X51.121 Y48.181 E2.98999
G1 X51.428 Y48.206 E2.99699
G1 X51.697 Y48.378 E3.00424
G1 X51.829 Y48.559 E3.00933
G1 X52.193 Y48.650 F7800.000
G1 X52.102 Y49.914 F7800.000
G1 F1800.000
G1 X52.345 Y50.504 E3.02384
G1 X52.941 Y52.115 E3.06289
G1 X53.202 Y52.711 E3.07767
G1 X53.016 Y53.099 E3.08746
G1 X52.808 Y53.643 E3.10070
G1 X52.731 Y53.772 E3.10412
G1 X52.048 Y53.981 E3.12036
G1 X51.927 Y53.748 E3.12633
G1 X52.276 Y53.466 E3.13653
G1 X52.485 Y53.047 E3.14718
G1 X52.538 Y52.623 E3.15691
G1 X52.475 Y52.202 E3.16658
G1 X52.289 Y51.788 E3.17688
G1 X51.636 Y50.701 E3.20570
G1 X52.064 Y49.978 E3.22480
G1 E1.22480 F2400.00000
G92 E0
G1 X56.310 Y51.579 F7800.000
G1 E2.00000 F2400.00000
G1 F1800.000
G1 X56.773 Y50.236 E2.03229
G1 X56.873 Y50.007 E2.03798
G1 X57.184 Y50.176 E2.04602
G1 X57.560 Y50.287 E2.05494
G1 X56.777 Y51.367 E2.08524
G1 X56.572 Y51.704 E2.09423
G1 X56.377 Y51.612 E2.09912
G1 E0.09912 F2400.00000
G92 E0
G1 X60.132 Y51.234 F7800.000
G1 E2.00000 F2400.00000
G1 F1800.000
G1 X60.789 Y50.311 E2.02575
G1 X61.063 Y49.892 E2.03713
G1 X61.218 Y49.543 E2.04581
G1 X61.296 Y49.124 E2.05551
G1 X61.270 Y48.643 E2.06646
G1 X61.498 Y48.563 E2.07196
G1 X61.834 Y49.039 E2.08520
G1 X62.288 Y49.785 E2.10505
G1 X62.339 Y49.987 E2.10980
G1 X62.330 Y50.084 E2.11200
G1 X62.284 Y50.222 E2.11532
G1 X62.024 Y50.665 E2.12699
G1 X61.616 Y51.283 E2.14383
G1 X61.175 Y51.881 E2.16072
G1 X61.025 Y51.672 E2.16657
G1 X60.758 Y51.470 E2.17420
G1 X60.202 Y51.260 E2.18769
G1 E0.18769 F2400.00000
G92 E0
G1 X55.595 Y47.667 F7800.000
G1 E2.00000 F2400.00000
G1 F1800.000
G1 X55.217 Y47.851 E2.00956
G1 X54.938 Y48.116 E2.01831
G1 X54.720 Y48.435 E2.02708
G1 X54.556 Y48.783 E2.03583
G1 X54.348 Y48.318 E2.04742
G1 X54.099 Y48.013 E2.05636
G1 X53.759 Y47.790 E2.06561
G1 X53.414 Y47.674 E2.07389
G1 X52.998 Y47.638 E2.08337
G1 X52.497 Y47.767 E2.09513
G1 X52.168 Y48.044 E2.10490
G1 X51.605 Y47.683 E2.12011
G1 X51.032 Y47.636 E2.13317
G1 X50.556 Y47.841 E2.14495
G1 X50.171 Y48.162 E2.15635
G1 X49.917 Y47.916 E2.16437
G1 X49.664 Y47.757 E2.17116
G1 X49.314 Y47.649 E2.17949
G1 X48.967 Y47.645 E2.18737
G1 X48.479 Y47.798 E2.19902
G1 X48.049 Y48.154 E2.21171
G1 X47.827 Y48.670 E2.22446
G1 X47.855 Y49.181 E2.23609
G1 X47.980 Y49.548 E2.24492
G1 X48.101 Y49.794 E2.25115
G1 X48.660 Y50.757 E2.27646
G1 X48.495 Y50.990 E2.28296
G1 X48.304 Y51.325 E2.29171
G1 X47.993 Y50.993 E2.30204
G1 X47.735 Y50.801 E2.30936
G1 X47.445 Y50.654 E2.31676
G1 X47.112 Y50.556 E2.32464
G1 X46.664 Y50.527 E2.33485
G1 X46.434 Y50.563 E2.34013
G1 X46.457 Y49.980 E2.35340
G1 X46.435 Y49.412 E2.36631
G1 X46.328 Y48.740 E2.38179
G1 X46.235 Y48.405 E2.38970
G1 X46.061 Y47.964 E2.40046
G1 X45.760 Y47.450 E2.41401
G1 X45.415 Y47.047 E2.42606
G1 X44.973 Y46.695 E2.43891
G1 X44.477 Y46.452 E2.45146
G1 X43.909 Y46.304 E2.46481
G1 X43.384 Y46.236 E2.47683
G1 X41.702 Y46.197 E2.51508
G1 X41.283 Y46.242 E2.52467
G1 X40.805 Y46.426 E2.53632
G1 X40.400 Y46.821 E2.54918
G1 X40.227 Y47.443 E2.56384
G1 X39.917 Y46.934 E2.57738
G1 X39.644 Y46.640 E2.58651
G1 X39.403 Y46.454 E2.59342
G1 X39.055 Y46.266 E2.60242
G1 X38.766 Y46.164 E2.60938
G1 X38.369 Y46.078 E2.61863
G1 X38.021 Y46.040 E2.62657
G1 X37.538 Y46.039 E2.63755
G1 X37.160 Y46.080 E2.64620
G1 X36.750 Y46.173 E2.65576
G1 X36.368 Y46.323 E2.66508
G1 X36.108 Y46.467 E2.67185
G1 X35.794 Y46.705 E2.68080
G1 X35.459 Y46.405 E2.69102
G1 X35.128 Y46.256 E2.69928
G1 X34.844 Y46.209 E2.70581
G1 X31.504 Y46.220 E2.78175
G1 X30.798 Y46.173 E2.79783
G1 X30.420 Y46.242 E2.80656
G1 X30.080 Y46.422 E2.81531
G1 X29.707 Y46.817 E2.82767
G1 X29.269 Y46.482 E2.84020
G1 X28.904 Y46.283 E2.84965
G1 X28.487 Y46.139 E2.85967
G1 X28.024 Y46.057 E2.87037
G1 X27.609 Y46.037 E2.87981
G1 X27.281 Y46.048 E2.88727
G1 X26.922 Y46.096 E2.89549
G1 X26.545 Y46.189 E2.90433
G1 X26.253 Y46.296 E2.91139
G1 X25.972 Y46.431 E2.91849
G1 X25.607 Y46.665 E2.92834
G1 X25.357 Y46.873 E2.93574
G1 X24.942 Y47.315 E2.94951
G1 X24.943 Y45.064 E3.00067
G1 X24.982 Y44.811 E3.00649
G1 X25.020 Y44.696 E3.00924
G1 X25.080 Y44.573 E3.01234
G1 X25.218 Y44.399 E3.01741
G1 X25.388 Y44.275 E3.02220
G1 X25.598 Y44.193 E3.02731
G1 X25.843 Y44.154 E3.03296
G1 X49.199 Y42.727 E3.56487
G1 X50.057 Y42.702 E3.58438
G1 X51.085 Y42.738 E3.60777
G1 X51.853 Y42.816 E3.62532
G1 X52.637 Y42.940 E3.64338
G1 X53.685 Y43.177 E3.66780
G1 X54.454 Y43.405 E3.68603
G1 X55.468 Y43.781 E3.71061
G1 X56.288 Y44.153 E3.73107
G1 X57.164 Y44.623 E3.75367
G1 X57.854 Y45.051 E3.77214
G1 X58.733 Y45.684 E3.79677
G1 X59.496 Y46.323 E3.81939
G1 X60.142 Y46.943 E3.83973
G1 X60.708 Y47.557 E3.85872
G1 X60.586 Y47.763 E3.86415
G1 X60.126 Y47.650 E3.87493
G1 X57.885 Y47.645 E3.92586
G1 X57.595 Y47.666 E3.93246
G1 X57.252 Y47.740 E3.94046
G1 X56.899 Y47.914 E3.94940
G1 X56.773 Y48.046 E3.95355
G1 X56.441 Y47.787 E3.96311
G1 X56.038 Y47.642 E3.97285
G1 X55.670 Y47.663 E3.98123
G1 E1.98123 F2400.00000
G92 E0
G1 X41.032 Y53.002 F7800.000
G1 E2.00000 F2400.00000
G1 F1800.000
G1 X40.910 Y52.802 E2.00534
G1 X40.837 Y52.556 E2.01116
G1 X40.812 Y52.270 E2.01770
G1 X40.830 Y51.663 E2.03149
G1 X40.834 Y48.053 E2.11356
G1 X40.791 Y47.415 E2.12809
G1 X40.877 Y47.104 E2.13544
G1 X41.100 Y46.886 E2.14252
G1 X41.410 Y46.767 E2.15006
G1 X41.724 Y46.734 E2.15726
G1 X43.343 Y46.770 E2.19408
G1 X43.806 Y46.831 E2.20468
G1 X44.290 Y46.957 E2.21606
G1 X44.685 Y47.150 E2.22604
G1 X45.041 Y47.434 E2.23640
G1 X45.322 Y47.762 E2.24621
G1 X45.578 Y48.199 E2.25773
G1 X45.726 Y48.575 E2.26692
G1 X45.804 Y48.854 E2.27350
G1 X45.901 Y49.465 E2.28755
G1 X45.921 Y49.980 E2.29927
G1 X45.907 Y50.342 E2.30752
G1 X45.813 Y50.989 E2.32236
G1 X45.639 Y51.546 E2.33563
G1 X46.230 Y51.178 E2.35146
G1 X46.456 Y51.102 E2.35687
G1 X46.688 Y51.066 E2.36221
G1 X47.018 Y51.087 E2.36973
G1 X47.247 Y51.154 E2.37514
G1 X47.452 Y51.258 E2.38038
G1 X47.635 Y51.394 E2.38557
G1 X47.793 Y51.563 E2.39081
G1 X47.918 Y51.756 E2.39605
G1 X48.010 Y51.974 E2.40142
G1 X48.088 Y52.405 E2.41137
G1 X48.173 Y52.413 E2.41333
G1 X47.865 Y53.066 E2.42975
G1 X47.719 Y53.254 E2.43515
G1 X47.542 Y53.412 E2.44055
G1 X47.252 Y53.573 E2.44808
G1 X47.024 Y53.640 E2.45348
G1 X46.797 Y53.665 E2.45869
G1 X46.567 Y53.650 E2.46392
G1 X46.345 Y53.595 E2.46912
G1 X46.131 Y53.500 E2.47444
G1 X45.913 Y53.345 E2.48053
G1 X45.711 Y53.124 E2.48733
G1 X45.592 Y52.922 E2.49266
G1 X45.513 Y52.706 E2.49787
G1 X45.471 Y52.480 E2.50310
G1 X45.471 Y51.947 E2.51523
G1 X45.075 Y52.418 E2.52923
G1 X44.686 Y52.743 E2.54074
G1 X44.372 Y52.919 E2.54893
G1 X43.931 Y53.068 E2.55952
G1 X43.381 Y53.157 E2.57217
G1 X42.852 Y53.184 E2.58422
G1 X42.036 Y53.176 E2.60277
G1 X41.588 Y53.218 E2.61299
G1 X41.362 Y53.200 E2.61815
G1 X41.200 Y53.139 E2.62208
G1 X41.091 Y53.050 E2.62529
G1 X40.801 Y53.046 F7800.000
G1 E0.62529 F2400.00000
G92 E0
G1 X36.373 Y51.441 F7800.000
G1 E2.00000 F2400.00000
G1 F1800.000
G1 X36.704 Y51.382 E2.00765
G1 X36.975 Y51.413 E2.01385
G1 X37.198 Y51.494 E2.01925
G1 X37.633 Y51.807 E2.03142
G1 X37.718 Y51.851 E2.03361
G1 X37.827 Y51.866 E2.03610
G1 X37.920 Y51.850 E2.03825
G1 X38.092 Y51.768 E2.04259
G1 X38.187 Y51.684 E2.04545
G1 X38.260 Y51.579 E2.04837
G1 X38.306 Y51.459 E2.05130
G1 X38.324 Y51.273 E2.05553
G1 X38.285 Y51.092 E2.05976
G1 X38.175 Y50.886 E2.06505
G1 X38.050 Y50.743 E2.06938
G1 X37.898 Y50.622 E2.07380
G1 X37.725 Y50.534 E2.07821
G1 X37.603 Y50.494 E2.08113
G1 X37.106 Y50.403 E2.09260
G1 X36.881 Y50.317 E2.09809
G1 X36.671 Y50.119 E2.10464
G1 X36.589 Y49.885 E2.11028
G1 X36.585 Y49.636 E2.11594
G1 X36.647 Y49.386 E2.12180
G1 X36.733 Y49.214 E2.12617
G1 X36.899 Y49.021 E2.13196
G1 X37.170 Y48.888 E2.13882
G1 X37.631 Y48.809 E2.14945
G1 X37.764 Y48.764 E2.15263
G1 X37.869 Y48.697 E2.15548
G1 X37.955 Y48.606 E2.15833
G1 X38.009 Y48.511 E2.16081
G1 X38.028 Y48.430 E2.16271
G1 X38.016 Y48.295 E2.16578
G1 X37.981 Y48.212 E2.16784
G1 X37.869 Y48.106 E2.17133
G1 X37.689 Y48.080 E2.17547
G1 X37.490 Y48.131 E2.18015
G1 X36.992 Y48.440 E2.19347
G1 X36.828 Y48.505 E2.19748
G1 X36.607 Y48.525 E2.20253
G1 X36.380 Y48.452 E2.20795
G1 X36.160 Y48.279 E2.21432
G1 X36.004 Y48.062 E2.22038
G1 X35.912 Y47.814 E2.22640
G1 X35.904 Y47.561 E2.23216
G1 X36.012 Y47.282 E2.23896
G1 X36.181 Y47.084 E2.24488
G1 X36.401 Y46.917 E2.25115
G1 X36.597 Y46.808 E2.25625
G1 X36.907 Y46.686 E2.26382
G1 X37.248 Y46.610 E2.27176
G1 X37.567 Y46.575 E2.27904
G1 X37.992 Y46.576 E2.28871
G1 X38.283 Y46.607 E2.29537
G1 X38.620 Y46.680 E2.30320
G1 X38.837 Y46.757 E2.30843
G1 X39.110 Y46.905 E2.31550
G1 X39.282 Y47.037 E2.32042
G1 X39.488 Y47.259 E2.32731
G1 X39.646 Y47.519 E2.33423
G1 X39.750 Y47.873 E2.34262
G1 X39.769 Y48.186 E2.34974
G1 X39.732 Y48.692 E2.36128
G1 X39.638 Y49.039 E2.36944
G1 X39.499 Y49.263 E2.37545
G1 X39.235 Y49.504 E2.38356
G1 X39.424 Y49.628 E2.38869
G1 X39.594 Y49.805 E2.39427
G1 X39.724 Y50.028 E2.40013
G1 X39.839 Y50.349 E2.40790
G1 X39.961 Y50.790 E2.41829
G1 X40.010 Y51.123 E2.42594
G1 X39.987 Y51.548 E2.43561
G1 X39.865 Y51.986 E2.44596
G1 X39.706 Y52.318 E2.45432
G1 X39.430 Y52.692 E2.46488
G1 X39.086 Y52.985 E2.47515
G1 X38.685 Y53.199 E2.48550
G1 X38.250 Y53.317 E2.49573
G1 X37.863 Y53.355 E2.50458
G1 X37.443 Y53.349 E2.51413
G1 X37.187 Y53.319 E2.51998
G1 X36.858 Y53.245 E2.52765
G1 X36.556 Y53.131 E2.53498
G1 X36.318 Y52.986 E2.54133
G1 X36.114 Y52.787 E2.54780
G1 X35.959 Y52.503 E2.55515
G1 X35.900 Y52.228 E2.56155
G1 X35.936 Y51.888 E2.56932
G1 X36.105 Y51.609 E2.57673
G1 X36.309 Y51.481 E2.58222
G1 X36.420 Y51.107 F7800.000
G1 E0.58222 F2400.00000
G92 E0
G1 X51.529 Y55.515 F7800.000
G1 E2.00000 F2400.00000
G1 F1800.000
G1 X51.703 Y55.880 E2.00919
G1 X52.037 Y56.226 E2.02012
G1 X52.354 Y56.385 E2.02819
G1 X52.721 Y56.459 E2.03671
G1 X53.098 Y56.442 E2.04529
G1 X53.481 Y56.356 E2.05420
G1 X53.771 Y56.256 E2.06118
G1 X54.138 Y56.074 E2.07049
G1 X54.528 Y55.760 E2.08188
G1 X54.772 Y55.447 E2.09089
G1 X54.926 Y55.187 E2.09777
G1 X55.218 Y54.544 E2.11382
G1 X55.609 Y53.538 E2.13835
G1 X56.120 Y52.110 E2.17283
G1 X56.403 Y52.181 E2.17946
G1 X56.350 Y52.527 E2.18741
G1 X56.414 Y52.966 E2.19750
G1 X56.581 Y53.364 E2.20732
G1 X56.952 Y53.752 E2.21952
G1 X57.341 Y53.904 E2.22901
G1 X57.629 Y53.940 E2.23560
G1 X58.245 Y53.910 E2.24962
G1 X58.895 Y53.912 E2.26439
G1 X58.969 Y54.129 E2.26961
G1 X58.427 Y54.548 E2.28518
G1 X57.935 Y54.895 E2.29886
G1 X57.438 Y55.213 E2.31229
G1 X56.817 Y55.573 E2.32859
G1 X56.014 Y55.979 E2.34905
G1 X55.155 Y56.345 E2.37029
G1 X54.274 Y56.653 E2.39150
G1 X53.375 Y56.902 E2.41270
G1 X52.457 Y57.093 E2.43401
G1 X51.616 Y57.212 E2.45332
G1 X50.749 Y57.282 E2.47310
G1 X49.828 Y57.297 E2.49403
G1 X49.177 Y57.272 E2.50886
G1 X25.848 Y55.846 E3.04015
G1 X25.552 Y55.795 E3.04699
G1 X25.357 Y55.709 E3.05183
G1 X25.197 Y55.579 E3.05652
G1 X25.069 Y55.405 E3.06142
G1 X24.978 Y55.176 E3.06704
G1 X24.940 Y54.866 E3.07414
G1 X24.941 Y52.620 E3.12519
G1 X25.318 Y53.020 E3.13768
G1 X25.669 Y53.311 E3.14806
G1 X26.167 Y53.597 E3.16110
G1 X26.475 Y53.718 E3.16863
G1 X26.812 Y53.812 E3.17659
G1 X27.140 Y53.867 E3.18414
G1 X27.634 Y53.893 E3.19538
G1 X28.103 Y53.862 E3.20607
G1 X28.530 Y53.779 E3.21596
G1 X28.922 Y53.639 E3.22543
G1 X29.190 Y53.499 E3.23229
G1 X29.513 Y53.268 E3.24133
G1 X29.809 Y52.961 E3.25103
G1 X30.086 Y52.506 E3.26313
G1 X30.241 Y51.970 E3.27582
G1 X30.054 Y51.369 E3.29012
G1 X29.665 Y50.963 E3.30290
G1 X29.180 Y50.744 E3.31500
G1 X28.760 Y50.695 E3.32461
G1 X28.381 Y50.759 E3.33335
G1 X28.113 Y50.880 E3.34003
G1 X27.894 Y51.044 E3.34625
G1 X27.762 Y51.200 E3.35089
G1 X27.651 Y51.222 E3.35345
G1 X27.502 Y51.223 E3.35684
G1 X27.387 Y51.199 E3.35952
G1 X27.243 Y51.136 E3.36308
G1 X27.155 Y51.068 E3.36562
G1 X27.074 Y50.960 E3.36869
G1 X27.013 Y50.826 E3.37203
G1 X26.954 Y50.616 E3.37699
G1 X26.915 Y50.341 E3.38331
G1 X26.898 Y49.926 E3.39275
G1 X26.919 Y49.551 E3.40130
G1 X26.960 Y49.287 E3.40737
G1 X27.074 Y48.972 E3.41498
G1 X27.218 Y48.805 E3.41998
G1 X27.397 Y48.725 E3.42446
G1 X27.562 Y48.707 E3.42822
G1 X28.260 Y49.101 E3.44645
G1 X28.627 Y49.218 E3.45521
G1 X29.031 Y49.239 E3.46439
G1 X29.453 Y49.110 E3.47442
G1 X29.783 Y48.857 E3.48388
G1 X29.986 Y48.592 E3.49147
G1 X30.446 Y48.833 E3.50328
G1 X30.811 Y48.885 E3.51165
G1 X31.466 Y48.817 E3.52662
G1 X31.447 Y49.128 E3.53370
G1 X31.464 Y51.911 E3.59698
G1 X31.420 Y52.628 E3.61331
G1 X31.506 Y53.001 E3.62201
G1 X31.699 Y53.329 E3.63067
G1 X32.120 Y53.635 E3.64249
G1 X32.667 Y53.758 E3.65523
