;FLAVOR:Marlin
;TIME:6676
;Filament used: 3.82216m
;Layer height: 0.2
;MINX:11.565
;MINY:23.442
;MINZ:0.2
;MAXX:78.233
;MAXY:61.616
;MAXZ:48
;Generated with Cura_SteamEngine 4.6.1
M106
M104 S200
M109 S200
; Ender 3 Custom Start G-code
G92 E0 ; Reset Extruder
G28 ; Home all axes
G1 Z2.0 F3000 ; Move Z Axis up little to prevent scratching of Heat Bed
G1 X0.1 Y20 Z0.3 F5000.0 ; Move to start position
G1 X0.1 Y200.0 Z0.3 F1500.0 E15 ; Draw the first line
G1 X0.4 Y200.0 Z0.3 F5000.0 ; Move to side a little
G1 X0.4 Y20 Z0.3 F1500.0 E30 ; Draw the second line
G92 E0 ; Reset Extruder
G1 Z2.0 F3000 ; Move Z Axis up little to prevent scratching of Heat Bed
G1 X5 Y20 Z0.3 F5000.0 ; Move over to prevent blob squish
G92 E0
G1 F2700 E-5
;LAYER_COUNT:240
;LAYER:0
M106
G0 F6000 X49.959 Y24.283 Z0.2
;TYPE:SKIRT
G1 F2700 E0
G1 F1200 X50.623 Y24.331 E0.02214
G1 X51.095 Y24.376 E0.03791
G1 X51.587 Y24.435 E0.05439
G1 X52.451 Y24.564 E0.08345
G1 X53.617 Y24.771 E0.12284
G1 X53.851 Y24.819 E0.13078
G1 X54.292 Y24.92 E0.14583
G1 X55.111 Y25.13 E0.17395
G1 X55.47 Y25.231 E0.18635
G1 X56.019 Y25.402 E0.20548
G1 X57.132 Y25.784 E0.24462
G1 X57.81 Y26.044 E0.26877
G1 X58.836 Y26.48 E0.30585
G1 X59.489 Y26.786 E0.32983
G1 X60.52 Y27.318 E0.36842
G1 X60.713 Y27.424 E0.37574
G1 X61.024 Y27.602 E0.38766
G1 X61.91 Y28.135 E0.42205
G1 X62.411 Y28.458 E0.44188
G1 X62.786 Y28.713 E0.45696
G1 X63.275 Y29.068 E0.47706
G1 X64.207 Y29.786 E0.51619
G1 X64.721 Y30.209 E0.53833
G1 X65.413 Y30.818 E0.56899
G1 X65.955 Y31.331 E0.59381
G1 X66.737 Y32.128 E0.63095
G1 X66.968 Y32.372 E0.64212
G1 X67.25 Y32.679 E0.65599
G1 X67.585 Y33.062 E0.67291
G1 X68.055 Y33.635 E0.69756
G1 X68.274 Y33.914 E0.70936
G1 X68.496 Y34.207 E0.72159
G1 X69.043 Y34.958 E0.75249
G1 X69.392 Y35.462 E0.77288
G1 X69.686 Y35.92 E0.79098
G1 X70.106 Y36.614 E0.81796
G1 X70.539 Y37.406 E0.84798
G1 X70.958 Y38.388 E0.88349
G1 X71.077 Y38.713 E0.895
G1 X71.35 Y39.574 E0.92504
G1 X71.546 Y40.46 E0.95523
G1 X71.587 Y40.694 E0.96313
G1 X71.703 Y41.589 E0.99314
G1 X71.74 Y42.492 E1.0232
G1 X71.727 Y42.962 E1.03884
G1 X71.713 Y43.243 E1.0482
G1 X71.629 Y44.142 E1.07823
G1 X71.443 Y45.119 E1.11131
G1 X71.393 Y45.327 E1.11842
G1 X71.144 Y46.195 E1.14846
G1 X70.783 Y47.116 E1.18136
G1 X70.67 Y47.368 E1.19055
G1 X70.128 Y48.412 E1.22967
G1 X69.869 Y48.843 E1.24639
G1 X69.57 Y49.322 E1.26517
G1 X69.279 Y49.762 E1.28272
G1 X68.778 Y50.472 E1.31162
G1 X68.504 Y50.842 E1.32693
G1 X68.296 Y51.114 E1.33832
G1 X67.853 Y51.672 E1.36202
G1 X67.405 Y52.198 E1.385
G1 X66.732 Y52.937 E1.41825
G1 X66.494 Y53.19 E1.4298
G1 X66.181 Y53.511 E1.44471
G1 X65.771 Y53.908 E1.46369
G1 X64.933 Y54.67 E1.50136
G1 X64.488 Y55.052 E1.52087
G1 X64.072 Y55.39 E1.5387
G1 X63.377 Y55.92 E1.56777
G1 X62.678 Y56.422 E1.59639
G1 X62.425 Y56.595 E1.60659
G1 X62.035 Y56.849 E1.62206
G1 X61.382 Y57.253 E1.6476
G1 X60.998 Y57.479 E1.66242
G1 X60.514 Y57.75 E1.68087
G1 X60.157 Y57.941 E1.69434
G1 X59.456 Y58.293 E1.72043
G1 X58.764 Y58.617 E1.74584
G1 X58.333 Y58.807 E1.76151
G1 X57.751 Y59.043 E1.7824
G1 X56.697 Y59.432 E1.81977
G1 X56.314 Y59.565 E1.83325
G1 X55.736 Y59.749 E1.85343
G1 X55.387 Y59.853 E1.86554
G1 X54.948 Y59.973 E1.88067
G1 X54.093 Y60.183 E1.90996
G1 X53.571 Y60.298 E1.92774
G1 X52.957 Y60.414 E1.94852
G1 X51.867 Y60.585 E1.98522
G1 X51.493 Y60.636 E1.99777
G1 X51.174 Y60.674 E2.00845
G1 X50.567 Y60.728 E2.02872
G1 X49.384 Y60.794 E2.06813
G1 X48.669 Y60.815 E2.09192
G1 X48.133 Y60.816 E2.10975
G1 X47.357 Y60.795 E2.13557
G1 X46.269 Y60.741 E2.1718
G1 X24.049 Y59.386 E2.91221
G1 X23.327 Y59.331 E2.9363
G1 X22.431 Y59.222 E2.96632
G1 X21.718 Y59.078 E2.99051
G1 X21.277 Y58.972 E3.0056
G1 X20.409 Y58.722 E3.03564
G1 X19.567 Y58.396 E3.06567
G1 X19.126 Y58.19 E3.08186
G1 X18.848 Y58.052 E3.09218
G1 X18.057 Y57.615 E3.12224
G1 X17.295 Y57.1 E3.15283
G1 X17.092 Y56.949 E3.16124
G1 X16.392 Y56.379 E3.19127
G1 X15.68 Y55.678 E3.2245
G1 X15.421 Y55.397 E3.23721
G1 X14.839 Y54.706 E3.26726
G1 X14.247 Y53.85 E3.30188
G1 X14.088 Y53.593 E3.31193
G1 X13.647 Y52.805 E3.34196
G1 X13.339 Y52.133 E3.36655
G1 X13.259 Y51.94 E3.3735
G1 X12.951 Y51.091 E3.40354
G1 X12.765 Y50.419 E3.42673
G1 X12.689 Y50.103 E3.43754
G1 X12.517 Y49.217 E3.46756
G1 X12.417 Y48.197 E3.50164
G1 X12.376 Y47.325 E3.53068
G1 X12.365 Y46.839 E3.54685
G1 X12.372 Y38.063 E3.83874
G1 X12.382 Y37.368 E3.86186
G1 X12.474 Y36.143 E3.90272
G1 X12.504 Y35.922 E3.91013
G1 X12.665 Y35.033 E3.94018
G1 X12.834 Y34.387 E3.96239
G1 X12.947 Y34.007 E3.97558
G1 X13.243 Y33.153 E4.00564
G1 X13.612 Y32.329 E4.03567
G1 X14.051 Y31.545 E4.06555
G1 X14.324 Y31.104 E4.0828
G1 X14.833 Y30.358 E4.11284
G1 X15.406 Y29.66 E4.14288
G1 X15.964 Y29.085 E4.16953
G1 X16.214 Y28.847 E4.18101
G1 X16.895 Y28.254 E4.21104
G1 X17.67 Y27.695 E4.24282
G1 X17.866 Y27.567 E4.25061
G1 X18.643 Y27.107 E4.28064
G1 X19.257 Y26.805 E4.3034
G1 X19.517 Y26.688 E4.31288
G1 X20.356 Y26.355 E4.34291
G1 X20.959 Y26.166 E4.36392
G1 X21.206 Y26.097 E4.37245
G1 X22.085 Y25.893 E4.40247
G1 X22.559 Y25.816 E4.41844
G1 X22.777 Y25.786 E4.42576
G1 X23.356 Y25.723 E4.44513
G1 X23.974 Y25.676 E4.46574
G1 X47.322 Y24.285 E5.24368
G1 X48.047 Y24.252 E5.26782
G1 X48.644 Y24.242 E5.28768
G1 X49.027 Y24.247 E5.30042
G1 X49.959 Y24.283 E5.33144
G0 F6000 X49.717 Y23.87
G1 F1200 X50.34 Y23.907 E5.35219
G1 X50.661 Y23.933 E5.36291
G1 X51.133 Y23.978 E5.37868
G1 X51.644 Y24.039 E5.39579
G1 X52.52 Y24.17 E5.42525
G1 X53.697 Y24.379 E5.46501
G1 X53.931 Y24.427 E5.47296
G1 X54.39 Y24.532 E5.48862
G1 X55.22 Y24.745 E5.51712
G1 X55.579 Y24.846 E5.52952
G1 X56.149 Y25.024 E5.54938
G1 X57.262 Y25.406 E5.58852
G1 X57.967 Y25.676 E5.61363
G1 X58.993 Y26.112 E5.65071
G1 X59.671 Y26.43 E5.67562
G1 X60.713 Y26.967 E5.71461
G1 X60.906 Y27.073 E5.72193
G1 X61.229 Y27.258 E5.73431
G1 X62.125 Y27.797 E5.76909
G1 X62.361 Y27.947 E5.77839
G1 X62.635 Y28.128 E5.78931
G1 X63.01 Y28.383 E5.80439
G1 X63.519 Y28.751 E5.82528
G1 X64.451 Y29.469 E5.86441
G1 X64.985 Y29.909 E5.88743
G1 X65.677 Y30.518 E5.91809
G1 X66.24 Y31.051 E5.94387
G1 X67.022 Y31.848 E5.98101
G1 X67.262 Y32.101 E5.99261
G1 X67.544 Y32.408 E6.00647
G1 X67.892 Y32.807 E6.02408
G1 X68.37 Y33.388 E6.04911
G1 X68.589 Y33.667 E6.0609
G1 X68.819 Y33.971 E6.07358
G1 X69.561 Y34.998 E6.11572
G1 X69.723 Y35.236 E6.1253
G1 X70.029 Y35.713 E6.14415
G1 X70.449 Y36.407 E6.17113
G1 X70.891 Y37.214 E6.20173
G1 X71.334 Y38.25 E6.23921
G1 X71.453 Y38.575 E6.25072
G1 X71.731 Y39.453 E6.28135
G1 X71.94 Y40.391 E6.31331
G1 X71.981 Y40.625 E6.32121
G1 X72.1 Y41.537 E6.3518
G1 X72.14 Y42.457 E6.38243
G1 X72.127 Y42.981 E6.39987
G1 X72.113 Y43.262 E6.40922
G1 X72.027 Y44.179 E6.43986
G1 X71.832 Y45.213 E6.47485
G1 X71.782 Y45.421 E6.48197
G1 X71.529 Y46.305 E6.51255
G1 X71.148 Y47.28 E6.54737
G1 X71.035 Y47.532 E6.55655
G1 X70.472 Y48.616 E6.59718
G1 X70.208 Y49.055 E6.61422
G1 X69.909 Y49.534 E6.633
G1 X69.607 Y49.991 E6.65122
G1 X69.1 Y50.71 E6.68048
G1 X68.826 Y51.08 E6.69579
G1 X68.609 Y51.363 E6.70765
G1 X68.166 Y51.921 E6.73135
G1 X67.701 Y52.467 E6.7552
G1 X67.028 Y53.206 E6.78845
G1 X66.78 Y53.469 E6.80047
G1 X66.467 Y53.79 E6.81538
G1 X66.041 Y54.203 E6.83512
G1 X65.452 Y54.743 E6.8617
G1 X65.193 Y54.973 E6.87322
G1 X64.748 Y55.355 E6.89272
G1 X64.316 Y55.707 E6.91126
G1 X63.612 Y56.244 E6.94071
G1 X62.904 Y56.752 E6.96969
G1 X62.651 Y56.925 E6.97988
G1 X62.245 Y57.189 E6.99599
G1 X61.592 Y57.593 E7.02153
G1 X61.194 Y57.828 E7.0369
G1 X60.71 Y58.099 E7.05535
G1 X60.338 Y58.297 E7.06937
G1 X59.628 Y58.654 E7.0958
G1 X58.926 Y58.983 E7.12159
G1 X58.495 Y59.173 E7.13725
G1 X57.889 Y59.418 E7.15899
G1 X56.835 Y59.807 E7.19636
G1 X56.437 Y59.945 E7.21037
G1 X55.85 Y60.133 E7.23087
G1 X55.501 Y60.237 E7.24298
G1 X55.045 Y60.362 E7.25871
G1 X54.179 Y60.574 E7.28836
G1 X53.657 Y60.689 E7.30614
G1 X53.019 Y60.809 E7.32773
G1 X51.929 Y60.98 E7.36443
G1 X51.54 Y61.034 E7.37749
G1 X51.221 Y61.072 E7.38818
G1 X50.591 Y61.128 E7.40921
G1 X49.709 Y61.18 E7.4386
G1 X49.396 Y61.193 E7.44902
G1 X48.681 Y61.214 E7.47281
G1 X48.124 Y61.216 E7.49134
G1 X47.338 Y61.194 E7.51749
G1 X46.245 Y61.14 E7.55389
G1 X24.019 Y59.784 E8.2945
G1 X23.297 Y59.729 E8.31859
G1 X22.383 Y59.62 E8.3492
G1 X21.625 Y59.466 E8.37493
G1 X21.184 Y59.36 E8.39001
G1 X20.299 Y59.107 E8.42063
G1 X19.439 Y58.777 E8.45126
G1 X18.948 Y58.549 E8.46927
G1 X18.67 Y58.411 E8.47959
G1 X17.864 Y57.966 E8.51021
G1 X17.057 Y57.421 E8.5426
G1 X16.854 Y57.27 E8.55102
G1 X16.139 Y56.689 E8.58166
G1 X15.386 Y55.949 E8.61678
G1 X15.127 Y55.668 E8.62949
G1 X14.533 Y54.965 E8.6601
G1 X13.907 Y54.061 E8.69667
G1 X13.748 Y53.804 E8.70672
G1 X13.298 Y53.001 E8.73734
G1 X12.97 Y52.286 E8.7635
G1 X12.89 Y52.093 E8.77045
G1 X12.575 Y51.228 E8.80107
G1 X12.376 Y50.513 E8.82575
G1 X12.3 Y50.197 E8.83656
G1 X12.124 Y49.293 E8.86719
G1 X12.018 Y48.216 E8.90319
G1 X11.977 Y47.344 E8.93222
G1 X11.965 Y46.839 E8.94902
G1 X11.972 Y38.057 E9.24111
G1 X11.982 Y37.362 E9.26423
G1 X12.077 Y36.089 E9.30669
G1 X12.107 Y35.868 E9.31411
G1 X12.271 Y34.962 E9.34473
G1 X12.451 Y34.273 E9.36842
G1 X12.564 Y33.893 E9.3816
G1 X12.864 Y33.022 E9.41224
G1 X13.239 Y32.182 E9.44284
G1 X13.711 Y31.335 E9.47509
G1 X13.984 Y30.894 E9.49234
G1 X14.502 Y30.133 E9.52296
G1 X15.085 Y29.419 E9.55362
G1 X15.688 Y28.796 E9.58245
G1 X15.938 Y28.558 E9.59393
G1 X16.632 Y27.952 E9.62458
G1 X17.451 Y27.36 E9.65819
G1 X17.647 Y27.232 E9.66598
G1 X18.439 Y26.762 E9.69661
G1 X19.093 Y26.441 E9.72084
G1 X19.353 Y26.324 E9.73032
G1 X20.208 Y25.983 E9.76094
G1 X20.851 Y25.781 E9.78335
G1 X21.098 Y25.712 E9.79188
G1 X21.995 Y25.503 E9.82252
G1 X22.505 Y25.42 E9.8397
G1 X22.723 Y25.39 E9.84702
G1 X23.324 Y25.325 E9.86713
G1 X23.95 Y25.277 E9.88801
G1 X47.304 Y23.885 E10.66615
G1 X48.029 Y23.852 E10.69028
G1 X48.649 Y23.842 E10.71091
G1 X49.032 Y23.847 E10.72365
G1 X49.717 Y23.87 E10.74644
G0 F6000 X50.011 Y23.485
G1 F1200 X50.366 Y23.508 E10.75828
G1 X50.699 Y23.535 E10.76939
G1 X51.171 Y23.58 E10.78516
G1 X51.701 Y23.643 E10.80291
G1 X52.588 Y23.776 E10.83274
G1 X53.777 Y23.987 E10.87291
G1 X54.011 Y24.035 E10.88085
G1 X54.487 Y24.144 E10.89709
G1 X55.328 Y24.36 E10.92597
G1 X55.687 Y24.461 E10.93838
G1 X56.279 Y24.646 E10.959
G1 X57.392 Y25.028 E10.99814
G1 X58.123 Y25.308 E11.02418
G1 X59.149 Y25.744 E11.06126
G1 X59.853 Y26.073 E11.0871
G1 X60.905 Y26.616 E11.12648
G1 X61.098 Y26.722 E11.1338
G1 X61.434 Y26.915 E11.14669
G1 X62.34 Y27.459 E11.18184
G1 X62.576 Y27.609 E11.19114
G1 X62.86 Y27.797 E11.20247
G1 X63.235 Y28.052 E11.21755
G1 X63.763 Y28.434 E11.23923
G1 X64.695 Y29.152 E11.27836
G1 X65.249 Y29.608 E11.30222
G1 X65.941 Y30.217 E11.33288
G1 X66.526 Y30.771 E11.35968
G1 X67.308 Y31.568 E11.39682
G1 X67.557 Y31.831 E11.40886
G1 X67.839 Y32.138 E11.42273
G1 X68.2 Y32.551 E11.44097
G1 X68.685 Y33.141 E11.46637
G1 X68.904 Y33.42 E11.47817
G1 X69.142 Y33.736 E11.49133
G1 X69.689 Y34.487 E11.52223
G1 X70.053 Y35.011 E11.54345
G1 X70.371 Y35.506 E11.56302
G1 X70.791 Y36.2 E11.59
G1 X71.242 Y37.022 E11.62118
G1 X71.709 Y38.113 E11.66066
G1 X71.828 Y38.438 E11.67217
G1 X72.113 Y39.332 E11.70338
G1 X72.334 Y40.322 E11.73711
G1 X72.375 Y40.556 E11.74502
G1 X72.497 Y41.485 E11.77618
G1 X72.54 Y42.422 E11.80738
G1 X72.526 Y43.001 E11.82664
G1 X72.512 Y43.282 E11.836
G1 X72.426 Y44.216 E11.86719
G1 X72.221 Y45.306 E11.90408
G1 X72.171 Y45.514 E11.9112
G1 X71.913 Y46.416 E11.9424
G1 X71.513 Y47.444 E11.97909
G1 X71.4 Y47.696 E11.98828
G1 X70.816 Y48.821 E12.03044
G1 X70.547 Y49.267 E12.04776
G1 X70.248 Y49.746 E12.06654
G1 X69.935 Y50.22 E12.08543
G1 X69.421 Y50.948 E12.11507
G1 X69.147 Y51.318 E12.13039
G1 X68.922 Y51.612 E12.1427
G1 X68.479 Y52.17 E12.1664
G1 X67.997 Y52.737 E12.19115
G1 X67.324 Y53.476 E12.22439
G1 X67.067 Y53.748 E12.23684
G1 X66.754 Y54.069 E12.25175
G1 X66.312 Y54.498 E12.27224
G1 X65.723 Y55.038 E12.29881
G1 X65.454 Y55.277 E12.31078
G1 X65.009 Y55.659 E12.33029
G1 X64.56 Y56.024 E12.34953
G1 X64.106 Y56.374 E12.3686
G1 X63.846 Y56.568 E12.37939
G1 X63.13 Y57.082 E12.40871
G1 X62.877 Y57.255 E12.4189
G1 X62.455 Y57.529 E12.43563
G1 X61.802 Y57.933 E12.46117
G1 X61.389 Y58.177 E12.47713
G1 X60.905 Y58.448 E12.49558
G1 X60.519 Y58.654 E12.51013
G1 X59.8 Y59.015 E12.53689
G1 X59.087 Y59.349 E12.56308
G1 X58.656 Y59.539 E12.57874
G1 X58.028 Y59.794 E12.60129
G1 X56.974 Y60.183 E12.63865
G1 X56.561 Y60.326 E12.65319
G1 X55.964 Y60.516 E12.67403
G1 X55.615 Y60.62 E12.68614
G1 X55.142 Y60.75 E12.70246
G1 X54.566 Y60.894 E12.7222
G1 X54.265 Y60.964 E12.73248
G1 X53.743 Y61.079 E12.75026
G1 X53.081 Y61.204 E12.77267
G1 X51.991 Y61.375 E12.80936
G1 X51.587 Y61.431 E12.82293
G1 X51.268 Y61.469 E12.83361
G1 X50.614 Y61.527 E12.85545
G1 X49.732 Y61.579 E12.88484
G1 X49.408 Y61.593 E12.89562
G1 X48.693 Y61.614 E12.91942
G1 X48.114 Y61.616 E12.93867
G1 X47.318 Y61.594 E12.96516
G1 X46.221 Y61.54 E13.00169
G1 X23.988 Y60.183 E13.74254
G1 X23.266 Y60.128 E13.76662
G1 X22.335 Y60.017 E13.79781
G1 X21.531 Y59.855 E13.82508
G1 X21.09 Y59.749 E13.84017
G1 X20.189 Y59.492 E13.87133
G1 X19.312 Y59.158 E13.90255
G1 X18.77 Y58.907 E13.92241
G1 X18.492 Y58.769 E13.93273
G1 X17.671 Y58.316 E13.96392
G1 X16.818 Y57.742 E13.99812
G1 X16.615 Y57.591 E14.00653
G1 X15.887 Y57 E14.03772
G1 X15.092 Y56.22 E14.07476
G1 X14.833 Y55.939 E14.08747
G1 X14.227 Y55.223 E14.11867
G1 X13.567 Y54.271 E14.1572
G1 X13.408 Y54.014 E14.16725
G1 X12.949 Y53.197 E14.19842
G1 X12.6 Y52.439 E14.22618
G1 X12.52 Y52.246 E14.23313
G1 X12.199 Y51.365 E14.26431
G1 X11.987 Y50.606 E14.29052
G1 X11.911 Y50.29 E14.30133
G1 X11.731 Y49.37 E14.33251
G1 X11.618 Y48.235 E14.37045
G1 X11.577 Y47.363 E14.39948
G1 X11.565 Y46.838 E14.41695
G1 X11.572 Y38.052 E14.70917
G1 X11.582 Y37.357 E14.73229
G1 X11.681 Y36.035 E14.77639
G1 X11.711 Y35.814 E14.7838
G1 X11.877 Y34.891 E14.815
G1 X12.067 Y34.159 E14.84015
G1 X12.18 Y33.779 E14.85333
G1 X12.486 Y32.892 E14.88454
G1 X12.866 Y32.034 E14.91575
G1 X13.371 Y31.124 E14.95037
G1 X13.644 Y30.683 E14.96762
G1 X14.171 Y29.907 E14.99882
G1 X14.763 Y29.179 E15.03003
G1 X15.412 Y28.506 E15.06112
G1 X15.662 Y28.268 E15.0726
G1 X16.369 Y27.651 E15.10381
G1 X17.232 Y27.025 E15.13927
G1 X17.428 Y26.897 E15.14706
G1 X18.235 Y26.418 E15.17827
G1 X18.929 Y26.076 E15.20401
G1 X19.189 Y25.959 E15.21349
G1 X20.06 Y25.611 E15.24468
G1 X20.743 Y25.396 E15.2685
G1 X20.99 Y25.327 E15.27703
G1 X21.904 Y25.113 E15.30825
G1 X22.45 Y25.024 E15.32665
G1 X22.668 Y24.994 E15.33397
G1 X23.292 Y24.926 E15.35485
G1 X23.926 Y24.878 E15.376
G1 X47.286 Y23.485 E16.15433
G1 X48.011 Y23.452 E16.17847
G1 X48.655 Y23.442 E16.19989
G1 X49.038 Y23.447 E16.21263
G1 X50.011 Y23.485 E16.24502
G1 F2700 E11.24502
;MESH:3DBenchy.stl
G0 F6000 X48.542 Y33.767
G0 X48.518 Y34.75
G0 X23.958 Y36.707
G0 X23.58 Y36.962
G0 X23.356 Y37.449
G0 X23.368 Y39.959
G0 X26.35 Y38.643
G0 X28.176 Y39.474
G0 X29.86 Y38.813
G0 X34.764 Y39.449
G0 X34.396 Y39.836
G0 X34.304 Y40.284
G0 X32.003 Y41.583
G0 X32.003 Y45.03
G0 X31.79 Y45.514
G0 X31.466 Y45.733
G0 X30.945 Y45.755
G0 X30.599 Y45.594
G0 X30.39 Y45.278
G0 X29.96 Y41.29
G0 X28.424 Y41.013
G0 X26.579 Y41.499
G0 X26.011 Y41.174
G0 X25.613 Y41.284
G0 X25.4 Y41.58
G0 X25.283 Y42.169
G0 X25.336 Y43.196
G0 X25.534 Y43.639
G0 X25.685 Y43.725
G0 X26.345 Y43.925
;TYPE:WALL-INNER
G1 F2700 E16.24502
G1 F1200 X26.322 Y43.94 E16.24593
G1 X26.289 Y43.952 E16.2471
G1 X26.151 Y43.982 E16.2518
G1 X25.938 Y43.992 E16.25889
G1 X25.759 Y43.959 E16.26494
G1 X25.626 Y43.911 E16.26965
G1 X25.57 Y43.881 E16.27176
G1 X25.5 Y43.835 E16.27455
G1 X25.408 Y43.755 E16.2786
G1 X25.325 Y43.644 E16.28321
G1 X25.257 Y43.514 E16.28809
G1 X25.237 Y43.464 E16.28988
G1 X25.168 Y43.23 E16.298
G1 X25.133 Y43.031 E16.30472
G1 X25.107 Y42.758 E16.31384
G1 X25.112 Y42.159 E16.33376
G1 X25.13 Y41.982 E16.33968
G1 X25.179 Y41.707 E16.34897
G1 X25.241 Y41.516 E16.35565
G1 X25.329 Y41.341 E16.36216
G1 X25.381 Y41.267 E16.36517
G1 X25.437 Y41.208 E16.36788
G1 X25.515 Y41.144 E16.37123
G1 X25.579 Y41.103 E16.37376
G1 X25.712 Y41.044 E16.3786
G1 X25.832 Y41.013 E16.38272
G1 X25.915 Y41.002 E16.38551
G1 X26.03 Y41.003 E16.38933
