;FLAVOR:Marlin
;TIME:7898
;Filament used: 2.37045m
;Layer height: 0.3
;MINX:16.302
;MINY:34.067
;MINZ:0.3
;MAXX:79.793
;MAXY:65.935
;MAXZ:48
;Generated with Cura_SteamEngine 4.6.1
M106 ;Turn on Fan
M104 S205
M105
M109 S205
M82 ;absolute extrusion mode
G92 E0
G1 F200 E3
G92 E0
G92 E0
G92 E0
G1 F1500 E-6.5
;LAYER_COUNT:160
;LAYER:0
G0 F120 X20.887 Y36.899 Z0.3
;TYPE:SKIRT
G1 F1500 E0
G1 X21.679 Y36.479 E0.04473
G1 X22.01 Y36.327 E0.0629
G1 X22.743 Y36.034 E0.10228
G1 X23.553 Y35.805 E0.14427
G1 X23.913 Y35.724 E0.16268
G1 X24.691 Y35.59 E0.20207
G1 X26.4 Y35.467 E0.28755
G1 X48.688 Y34.106 E1.40158
G1 X49.37 Y34.075 E1.43564
G1 X50.227 Y34.067 E1.4784
G1 X51.031 Y34.086 E1.51852
G1 X51.943 Y34.143 E1.56411
G1 X52.808 Y34.233 E1.60749
G1 X53.663 Y34.354 E1.65058
G1 X54.502 Y34.505 E1.69311
G1 X55.35 Y34.691 E1.73642
G1 X56.172 Y34.904 E1.77878
G1 X56.952 Y35.135 E1.81937
G1 X57.764 Y35.412 E1.86217
G1 X58.503 Y35.693 E1.90162
G1 X59.232 Y35.999 E1.94106
G1 X59.947 Y36.329 E1.98035
G1 X60.635 Y36.675 E2.01877
G1 X61.322 Y37.051 E2.05784
G1 X61.997 Y37.452 E2.09701
G1 X62.616 Y37.847 E2.13364
G1 X63.252 Y38.283 E2.17211
G1 X63.892 Y38.755 E2.21179
G1 X64.565 Y39.292 E2.25474
G1 X65.176 Y39.817 E2.29493
G1 X65.762 Y40.358 E2.33472
G1 X66.359 Y40.95 E2.37667
G1 X66.913 Y41.54 E2.41705
G1 X67.42 Y42.119 E2.45544
G1 X67.897 Y42.702 E2.49302
G1 X68.379 Y43.335 E2.53272
G1 X68.811 Y43.941 E2.56985
G1 X69.225 Y44.562 E2.60708
G1 X69.677 Y45.303 E2.65038
G1 X70.047 Y45.999 E2.68971
G1 X70.469 Y46.995 E2.74368
G1 X70.691 Y47.753 E2.78308
G1 X70.864 Y48.657 E2.829
G1 X70.96 Y49.441 E2.86841
G1 X70.976 Y50.23 E2.90778
G1 X70.93 Y50.876 E2.94009
G1 X70.766 Y51.963 E2.99493
G1 X70.439 Y53.067 E3.05238
G1 X70.003 Y54.105 E3.10855
G1 X69.73 Y54.604 E3.13692
G1 X69.438 Y55.095 E3.16542
G1 X69.01 Y55.77 E3.2053
G1 X68.537 Y56.454 E3.24679
G1 X68.084 Y57.064 E3.2847
G1 X67.584 Y57.687 E3.32455
G1 X67.077 Y58.276 E3.36332
G1 X66.515 Y58.889 E3.40481
G1 X65.949 Y59.462 E3.445
G1 X65.397 Y59.984 E3.4829
G1 X64.777 Y60.528 E3.52405
G1 X64.127 Y61.061 E3.56599
G1 X63.418 Y61.594 E3.61024
G1 X62.843 Y62 E3.64536
G1 X62.09 Y62.491 E3.6902
G1 X61.392 Y62.908 E3.73077
G1 X60.724 Y63.277 E3.76884
G1 X60.032 Y63.629 E3.80758
G1 X59.325 Y63.96 E3.84652
G1 X58.594 Y64.272 E3.88617
G1 X57.839 Y64.562 E3.92653
G1 X57.066 Y64.827 E3.96729
G1 X56.273 Y65.068 E4.00864
G1 X55.544 Y65.263 E4.04629
G1 X54.785 Y65.438 E4.08515
G1 X53.993 Y65.59 E4.12539
G1 X53.243 Y65.709 E4.16327
G1 X52.512 Y65.802 E4.20004
G1 X51.609 Y65.882 E4.24526
G1 X50.819 Y65.923 E4.28473
G1 X50.013 Y65.935 E4.32495
G1 X49.217 Y65.918 E4.36467
G1 X48.303 Y65.871 E4.41033
G1 X25.277 Y64.462 E5.56125
G1 X24.541 Y64.382 E5.59818
G1 X24.166 Y64.323 E5.61712
G1 X23.393 Y64.161 E5.65652
G1 X22.603 Y63.908 E5.69791
G1 X22.251 Y63.774 E5.7167
G1 X21.528 Y63.456 E5.75611
G1 X20.719 Y62.987 E5.80276
G1 X20.417 Y62.787 E5.82083
G1 X19.782 Y62.318 E5.86021
G1 X19.12 Y61.709 E5.90509
G1 X18.357 Y60.864 E5.96189
G1 X17.872 Y60.175 E6.00393
G1 X17.299 Y59.185 E6.061
G1 X16.961 Y58.394 E6.10391
G1 X16.834 Y58.044 E6.12249
G1 X16.602 Y57.289 E6.16189
G1 X16.461 Y56.595 E6.19722
G1 X16.402 Y56.22 E6.21616
G1 X16.319 Y55.435 E6.25554
G1 X16.302 Y45.13 E6.76966
G1 X16.337 Y44.387 E6.80677
G1 X16.374 Y43.998 E6.82627
G1 X16.489 Y43.217 E6.86565
G1 X16.655 Y42.541 E6.90038
G1 X16.763 Y42.173 E6.91951
G1 X17.023 Y41.427 E6.95893
G1 X17.408 Y40.618 E7.00363
G1 X17.589 Y40.288 E7.0224
G1 X18.003 Y39.616 E7.06178
G1 X18.512 Y38.955 E7.1034
G1 X19.277 Y38.127 E7.15964
G1 X19.947 Y37.559 E7.20347
G1 X20.887 Y36.899 E7.26077
G0 F120 X21.111 Y37.231
G1 F1500 X21.846 Y36.842 E7.30226
G1 X22.177 Y36.69 E7.32043
G1 X22.892 Y36.406 E7.35881
G1 X23.641 Y36.195 E7.39763
G1 X24.001 Y36.114 E7.41604
G1 X24.759 Y35.985 E7.4544
G1 X26.426 Y35.867 E7.53778
G1 X48.712 Y34.506 E8.6517
G1 X49.387 Y34.475 E8.68541
G1 X50.228 Y34.467 E8.72737
G1 X51.02 Y34.486 E8.7669
G1 X51.915 Y34.542 E8.81164
G1 X52.764 Y34.63 E8.85422
G1 X53.604 Y34.75 E8.89655
G1 X54.429 Y34.898 E8.93837
G1 X55.261 Y35.081 E8.98087
G1 X56.069 Y35.291 E9.02252
G1 X56.836 Y35.518 E9.06243
G1 X57.632 Y35.789 E9.10438
G1 X58.359 Y36.066 E9.14319
G1 X59.074 Y36.367 E9.1819
G1 X59.777 Y36.691 E9.22052
G1 X60.453 Y37.031 E9.25827
G1 X61.128 Y37.401 E9.29667
G1 X61.79 Y37.795 E9.3351
G1 X62.399 Y38.183 E9.37113
G1 X63.024 Y38.612 E9.40895
G1 X63.653 Y39.076 E9.44795
G1 X64.313 Y39.603 E9.49008
G1 X64.913 Y40.119 E9.52956
G1 X65.489 Y40.65 E9.56865
G1 X66.076 Y41.233 E9.60992
G1 X66.62 Y41.812 E9.64956
G1 X67.117 Y42.381 E9.68725
G1 X67.587 Y42.953 E9.72419
G1 X68.059 Y43.575 E9.76314
G1 X68.484 Y44.172 E9.7997
G1 X68.891 Y44.782 E9.83629
G1 X69.334 Y45.508 E9.87872
G1 X69.685 Y46.169 E9.91606
G1 X70.098 Y47.146 E9.96898
G1 X70.312 Y47.885 E10.00736
G1 X70.47 Y48.726 E10.05005
G1 X70.563 Y49.489 E10.0884
G1 X70.575 Y50.258 E10.12677
G1 X70.533 Y50.831 E10.15543
G1 X70.371 Y51.897 E10.20923
G1 X70.065 Y52.925 E10.26274
G1 X69.636 Y53.944 E10.3179
G1 X69.386 Y54.399 E10.3438
G1 X69.094 Y54.89 E10.3723
G1 X68.673 Y55.554 E10.41152
G1 X68.21 Y56.224 E10.45215
G1 X67.764 Y56.823 E10.48941
G1 X67.274 Y57.434 E10.52849
G1 X66.776 Y58.014 E10.56663
G1 X66.222 Y58.617 E10.60748
G1 X65.666 Y59.179 E10.64692
G1 X65.123 Y59.692 E10.68419
G1 X64.516 Y60.225 E10.72449
G1 X63.875 Y60.751 E10.76586
G1 X63.181 Y61.272 E10.80915
G1 X62.614 Y61.672 E10.84377
G1 X61.874 Y62.154 E10.88783
G1 X61.189 Y62.564 E10.92766
G1 X60.532 Y62.926 E10.96508
G1 X59.853 Y63.272 E11.0031
G1 X59.158 Y63.597 E11.04138
G1 X58.439 Y63.903 E11.08037
G1 X57.698 Y64.188 E11.11997
G1 X56.939 Y64.448 E11.16
G1 X56.159 Y64.684 E11.20066
G1 X55.443 Y64.876 E11.23764
G1 X54.698 Y65.048 E11.27579
G1 X53.92 Y65.197 E11.31531
G1 X53.182 Y65.313 E11.35258
G1 X52.464 Y65.405 E11.38869
G1 X51.576 Y65.483 E11.43317
G1 X50.801 Y65.523 E11.47188
G1 X50.01 Y65.535 E11.51135
G1 X49.227 Y65.518 E11.55042
G1 X48.325 Y65.472 E11.59548
G1 X25.301 Y64.063 E12.7463
G1 X24.603 Y63.987 E12.78133
G1 X24.228 Y63.928 E12.80027
G1 X23.475 Y63.769 E12.83867
G1 X22.745 Y63.534 E12.87693
G1 X22.393 Y63.4 E12.89572
G1 X21.69 Y63.089 E12.93407
G1 X20.94 Y62.654 E12.97733
G1 X20.638 Y62.454 E12.9954
G1 X20.02 Y61.996 E13.03377
G1 X19.407 Y61.431 E13.07536
G1 X18.659 Y60.601 E13.13111
G1 X18.211 Y59.963 E13.17
G1 X18.023 Y59.663 E13.18766
G1 X17.649 Y58.99 E13.22608
G1 X17.337 Y58.257 E13.26582
G1 X17.21 Y57.907 E13.2844
G1 X16.985 Y57.171 E13.32279
G1 X16.856 Y56.533 E13.35527
G1 X16.797 Y56.158 E13.37421
G1 X16.707 Y55.012 E13.43156
G1 X16.702 Y45.13 E13.92457
G1 X16.735 Y44.425 E13.95978
G1 X16.772 Y44.036 E13.97928
G1 X16.885 Y43.275 E14.01766
G1 X17.038 Y42.653 E14.04962
G1 X17.146 Y42.285 E14.06875
G1 X17.401 Y41.559 E14.10714
G1 X17.759 Y40.81 E14.14856
G1 X17.94 Y40.48 E14.16734
G1 X18.344 Y39.826 E14.20569
G1 X18.816 Y39.216 E14.24417
G1 X19.567 Y38.403 E14.29938
G1 X20.188 Y37.878 E14.33995
G1 X20.474 Y37.662 E14.35783
G1 X21.111 Y37.231 E14.39621
G0 F120 X21.335 Y37.563
G1 F1500 X22.013 Y37.206 E14.43443
G1 X22.344 Y37.054 E14.45261
G1 X23.039 Y36.778 E14.48991
G1 X23.728 Y36.586 E14.5256
G1 X24.088 Y36.505 E14.54401
G1 X25.172 Y36.349 E14.59865
G1 X26.452 Y36.266 E14.66264
G1 X48.736 Y34.905 E15.77646
G1 X49.405 Y34.875 E15.80987
G1 X50.229 Y34.867 E15.85099
G1 X51.009 Y34.886 E15.88991
G1 X51.886 Y34.941 E15.93375
G1 X52.721 Y35.028 E15.97563
G1 X53.545 Y35.145 E16.01716
G1 X54.356 Y35.292 E16.05828
G1 X55.173 Y35.471 E16.1
G1 X55.967 Y35.678 E16.14094
G1 X56.72 Y35.901 E16.18012
G1 X57.501 Y36.167 E16.22128
G1 X58.214 Y36.439 E16.25936
G1 X58.917 Y36.735 E16.29741
G1 X59.607 Y37.053 E16.33531
G1 X60.272 Y37.388 E16.37246
G1 X60.934 Y37.751 E16.41013
G1 X61.584 Y38.137 E16.44785
G1 X62.182 Y38.519 E16.48325
G1 X62.795 Y38.94 E16.52035
G1 X63.413 Y39.397 E16.55869
G1 X64.062 Y39.914 E16.60009
G1 X64.65 Y40.42 E16.63879
G1 X65.216 Y40.943 E16.67724
G1 X65.793 Y41.515 E16.71778
G1 X66.327 Y42.084 E16.75671
G1 X66.815 Y42.642 E16.79369
G1 X67.276 Y43.205 E16.82999
G1 X67.739 Y43.815 E16.8682
G1 X68.157 Y44.402 E16.90415
G1 X68.557 Y45.002 E16.94013
G1 X68.99 Y45.713 E16.98166
G1 X69.322 Y46.338 E17.01697
G1 X69.727 Y47.297 E17.0689
G1 X70.002 Y48.369 E17.12412
G1 X70.076 Y48.794 E17.14564
G1 X70.165 Y49.537 E17.18297
G1 X70.174 Y50.285 E17.22029
G1 X70.135 Y50.785 E17.24531
G1 X69.976 Y51.831 E17.2981
G1 X69.691 Y52.784 E17.34772
G1 X69.27 Y53.782 E17.40176
G1 X68.75 Y54.686 E17.45379
G1 X68.337 Y55.338 E17.4923
G1 X67.883 Y55.994 E17.5321
G1 X67.444 Y56.583 E17.56875
G1 X66.964 Y57.182 E17.60705
G1 X66.474 Y57.752 E17.64455
G1 X65.928 Y58.345 E17.68476
G1 X65.384 Y58.896 E17.72339
G1 X64.85 Y59.4 E17.76003
G1 X64.254 Y59.923 E17.79958
G1 X63.622 Y60.44 E17.84032
G1 X62.943 Y60.95 E17.88269
G1 X62.384 Y61.345 E17.91684
G1 X61.658 Y61.818 E17.96007
G1 X60.987 Y62.219 E17.99906
G1 X60.341 Y62.575 E18.03586
G1 X59.673 Y62.915 E18.07326
G1 X58.99 Y63.234 E18.11087
G1 X58.285 Y63.534 E18.14909
G1 X57.557 Y63.813 E18.18799
G1 X56.811 Y64.069 E18.22734
G1 X56.046 Y64.301 E18.26722
G1 X55.342 Y64.489 E18.30357
G1 X54.61 Y64.657 E18.34104
G1 X53.847 Y64.804 E18.37981
G1 X53.122 Y64.918 E18.41642
G1 X52.415 Y65.008 E18.45198
G1 X51.544 Y65.085 E18.4956
G1 X50.783 Y65.124 E18.53362
G1 X50.006 Y65.135 E18.57239
G1 X49.238 Y65.119 E18.61071
G1 X48.347 Y65.072 E18.65523
G1 X25.325 Y63.664 E19.80594
G1 X24.665 Y63.592 E19.83907
G1 X24.29 Y63.533 E19.85801
G1 X23.558 Y63.377 E19.89535
G1 X22.888 Y63.16 E19.93048
G1 X22.536 Y63.026 E19.94927
G1 X21.852 Y62.723 E19.9866
G1 X21.161 Y62.32 E20.02651
G1 X20.859 Y62.12 E20.04458
G1 X20.258 Y61.674 E20.08191
G1 X19.695 Y61.153 E20.12018
G1 X19.452 Y60.902 E20.13761
G1 X18.961 Y60.337 E20.17496
G1 X18.549 Y59.75 E20.21074
G1 X18.361 Y59.45 E20.2284
G1 X17.999 Y58.796 E20.26569
G1 X17.713 Y58.121 E20.30227
G1 X17.586 Y57.771 E20.32084
G1 X17.369 Y57.055 E20.35817
G1 X17.251 Y56.471 E20.38789
G1 X17.192 Y56.096 E20.40683
G1 X17.107 Y55.012 E20.46108
G1 X17.102 Y45.13 E20.95409
G1 X17.133 Y44.463 E20.98741
G1 X17.17 Y44.074 E21.0069
G1 X17.281 Y43.334 E21.04423
G1 X17.422 Y42.766 E21.07343
G1 X17.53 Y42.398 E21.09257
G1 X17.779 Y41.692 E21.12991
G1 X18.11 Y41.003 E21.16805
G1 X18.291 Y40.673 E21.18683
G1 X18.685 Y40.037 E21.22415
G1 X19.119 Y39.477 E21.2595
G1 X19.856 Y38.68 E21.31366
G1 X20.429 Y38.197 E21.35105
G1 X20.715 Y37.981 E21.36893
G1 X21.335 Y37.563 E21.40623
G0 F120 X21.559 Y37.895
G1 F1500 X22.18 Y37.569 E21.44122
G1 X22.511 Y37.417 E21.45939
G1 X23.186 Y37.151 E21.49559
G1 X23.816 Y36.976 E21.52821
G1 X24.176 Y36.895 E21.54662
G1 X25.198 Y36.748 E21.59813
G1 X26.478 Y36.665 E21.66213
G1 X48.761 Y35.304 E22.7759
G1 X49.422 Y35.274 E22.80891
G1 X50.23 Y35.267 E22.84923
G1 X50.998 Y35.286 E22.88755
G1 X51.858 Y35.34 E22.93054
G1 X52.677 Y35.425 E22.97162
G1 X53.486 Y35.541 E23.0124
G1 X54.282 Y35.685 E23.05275
G1 X55.084 Y35.862 E23.09373
G1 X55.864 Y36.064 E23.13393
G1 X56.604 Y36.284 E23.17244
G1 X57.369 Y36.545 E23.21277
G1 X58.07 Y36.812 E23.25019
G1 X58.76 Y37.102 E23.28753
G1 X59.437 Y37.415 E23.32475
G1 X60.09 Y37.744 E23.36122
G1 X60.74 Y38.1 E23.3982
G1 X61.377 Y38.48 E23.4352
G1 X61.966 Y38.855 E23.47004
G1 X62.567 Y39.269 E23.50645
G1 X63.174 Y39.717 E23.54409
G1 X63.81 Y40.225 E23.5847
G1 X64.388 Y40.722 E23.62273
G1 X64.942 Y41.235 E23.6604
G1 X65.51 Y41.798 E23.7003
G1 X66.034 Y42.356 E23.73849
G1 X66.512 Y42.904 E23.77476
G1 X66.965 Y43.457 E23.81043
G1 X67.419 Y44.055 E23.84789
G1 X67.83 Y44.632 E23.88323
G1 X68.223 Y45.223 E23.91864
G1 X68.647 Y45.919 E23.9593
G1 X68.96 Y46.508 E23.99258
G1 X69.355 Y47.447 E24.0434
G1 X69.608 Y48.438 E24.09443
G1 X69.682 Y48.863 E24.11595
G1 X69.767 Y49.584 E24.15217
G1 X69.772 Y50.311 E24.18844
G1 X69.703 Y51.048 E24.22537
G1 X69.581 Y51.764 E24.26161
G1 X69.317 Y52.642 E24.30735
G1 X69.198 Y52.956 E24.3241
G1 X68.903 Y53.62 E24.36035
G1 X68.407 Y54.482 E24.40996
G1 X68 Y55.121 E24.44776
G1 X67.555 Y55.764 E24.48677
G1 X67.125 Y56.342 E24.52272
G1 X66.653 Y56.929 E24.56029
G1 X66.172 Y57.489 E24.59712
G1 X65.635 Y58.073 E24.6367
G1 X65.101 Y58.613 E24.67459
G1 X64.577 Y59.108 E24.71056
G1 X63.992 Y59.62 E24.74934
G1 X63.37 Y60.129 E24.78944
G1 X62.706 Y60.628 E24.83088
G1 X62.154 Y61.017 E24.86457
G1 X61.442 Y61.481 E24.90697
G1 X60.784 Y61.874 E24.94521
G1 X60.15 Y62.224 E24.98134
G1 X59.494 Y62.557 E25.01804
G1 X58.823 Y62.87 E25.05498
G1 X58.13 Y63.165 E25.09255
G1 X57.416 Y63.439 E25.13071
G1 X56.684 Y63.69 E25.16932
G1 X55.932 Y63.917 E25.2085
G1 X55.241 Y64.102 E25.24419
G1 X54.522 Y64.267 E25.281
G1 X53.774 Y64.411 E25.319
G1 X53.062 Y64.523 E25.35496
G1 X52.366 Y64.611 E25.38996
G1 X51.511 Y64.686 E25.43278
G1 X50.765 Y64.724 E25.47004
G1 X50.003 Y64.735 E25.50806
G1 X49.248 Y64.719 E25.54574
G1 X48.369 Y64.673 E25.58965
G1 X25.35 Y63.265 E26.74022
G1 X24.727 Y63.197 E26.77149
G1 X24.352 Y63.138 E26.79043
G1 X23.642 Y62.986 E26.82665
G1 X23.03 Y62.786 E26.85877
G1 X22.678 Y62.652 E26.87757
G1 X22.014 Y62.357 E26.91381
G1 X21.382 Y61.987 E26.95035
G1 X21.08 Y61.787 E26.96842
G1 X20.497 Y61.353 E27.00468
G1 X19.982 Y60.875 E27.03974
G1 X19.739 Y60.624 E27.05717
G1 X19.263 Y60.075 E27.09342
G1 X18.888 Y59.538 E27.1261
G1 X18.7 Y59.238 E27.14376
G1 X18.349 Y58.602 E27.18
G1 X18.089 Y57.984 E27.21345
G1 X17.962 Y57.634 E27.23203
G1 X17.752 Y56.939 E27.26825
G1 X17.646 Y56.409 E27.29521
G1 X17.587 Y56.034 E27.31415
G1 X17.507 Y55.011 E27.36535
G1 X17.502 Y45.129 E27.85836
G1 X17.532 Y44.501 E27.88973
G1 X17.569 Y44.112 E27.90922
G1 X17.677 Y43.394 E27.94545
G1 X17.806 Y42.878 E27.97198
G1 X17.914 Y42.51 E27.99112
G1 X18.157 Y41.826 E28.02733
G1 X18.46 Y41.195 E28.06225
G1 X18.641 Y40.865 E28.08103
G1 X19.025 Y40.248 E28.11729
G1 X19.422 Y39.737 E28.14957
G1 X19.642 Y39.481 E28.16641
G1 X20.145 Y38.957 E28.20265
G1 X20.67 Y38.516 E28.23686
G1 X20.956 Y38.3 E28.25474
G1 X21.559 Y37.895 E28.29098
G0 F120 X21.782 Y38.228
G1 F1500 X22.347 Y37.933 E28.32277
G1 X22.678 Y37.781 E28.34095
G1 X23.333 Y37.524 E28.37605
G1 X23.904 Y37.366 E28.40561
G1 X24.264 Y37.285 E28.42402
G1 X25.224 Y37.147 E28.4724
G1 X26.504 Y37.064 E28.5364
G1 X48.785 Y35.704 E29.65007
G1 X49.44 Y35.674 E29.68278
G1 X50.23 Y35.667 E29.7222
G1 X50.987 Y35.685 E29.75997
G1 X51.83 Y35.739 E29.80212
G1 X52.633 Y35.823 E29.8424
G1 X53.427 Y35.936 E29.88241
G1 X54.209 Y36.078 E29.92206
G1 X54.996 Y36.252 E29.96227
G1 X55.761 Y36.451 E30.00171
G1 X56.488 Y36.667 E30.03955
G1 X57.237 Y36.922 E30.07902
G1 X57.926 Y37.185 E30.11582
G1 X58.603 Y37.47 E30.15246
G1 X59.267 Y37.778 E30.18898
G1 X59.908 Y38.1 E30.22477
G1 X60.546 Y38.45 E30.26107
G1 X61.171 Y38.822 E30.29736
G1 X61.749 Y39.192 E30.3316
G1 X62.339 Y39.597 E30.3673
G1 X62.935 Y40.038 E30.40429
G1 X63.559 Y40.536 E30.44412
G1 X64.125 Y41.024 E30.4814
G1 X64.669 Y41.527 E30.51837
G1 X65.227 Y42.08 E30.55756
G1 X65.74 Y42.628 E30.59501
G1 X66.21 Y43.166 E30.63065
G1 X66.654 Y43.709 E30.66565
G1 X67.1 Y44.295 E30.70239
G1 X67.503 Y44.863 E30.73713
G1 X67.89 Y45.443 E30.77192
G1 X68.304 Y46.124 E30.81168
G1 X68.598 Y46.677 E30.84293
G1 X68.983 Y47.596 E30.89264
G1 X69.214 Y48.506 E30.93948
G1 X69.288 Y48.931 E30.961
G1 X69.369 Y49.631 E30.99615
G1 X69.371 Y50.335 E31.03128
G1 X69.305 Y51.003 E31.06477
G1 X69.186 Y51.697 E31.0999
G1 X68.943 Y52.5 E31.14175
G1 X68.824 Y52.814 E31.1585
G1 X68.537 Y53.457 E31.19363
G1 X68.063 Y54.277 E31.24089
G1 X67.664 Y54.905 E31.27801
G1 X67.228 Y55.534 E31.31619
G1 X66.805 Y56.102 E31.35152
G1 X66.343 Y56.677 E31.38832
G1 X65.87 Y57.227 E31.42451
G1 X65.342 Y57.801 E31.46342
G1 X64.819 Y58.329 E31.5005
G1 X64.303 Y58.816 E31.5359
G1 X63.73 Y59.318 E31.5739
G1 X63.118 Y59.819 E31.61336
G1 X62.468 Y60.307 E31.65391
G1 X61.925 Y60.69 E31.68707
G1 X61.226 Y61.145 E31.72868
G1 X60.581 Y61.529 E31.76613
G1 X59.958 Y61.872 E31.80161
G1 X59.314 Y62.2 E31.83766
G1 X58.655 Y62.507 E31.87393
G1 X57.975 Y62.796 E31.9108
G1 X57.275 Y63.065 E31.94821
G1 X56.556 Y63.311 E31.98612
G1 X55.819 Y63.534 E32.02454
G1 X55.14 Y63.715 E32.0596
G1 X54.434 Y63.877 E32.09573
G1 X53.701 Y64.017 E32.13296
