;FLAVOR:RepRap
;TIME:36889
;Filament used: 3.6106m
;Layer height: 0.3
;Generated with Cura_SteamEngine 2.4.0
M106
M104 S200
M109 S200
G28 ;Home
G1 Z15.0 F6000 ;Move the platform down 15mm
;Prime the extruder
G92 E0
G1 F200 E3
G92 E0
;LAYER_COUNT:160
;LAYER:-6
M107
G1 F1500 E-6.5
G0 F240 X17.41 Y30.957 Z0.36
G1 F1500 E0
G1 F90 X18.27 Y30.487 E0.11735
G1 X18.339 Y30.452 E0.12661
G1 X19.347 Y29.989 E0.25943
G1 X19.934 Y29.76 E0.33487
G1 X20.163 Y29.676 E0.36408
G1 X21.151 Y29.355 E0.48847
G1 X21.964 Y29.148 E0.58892
G1 X22.144 Y29.107 E0.61102
G1 X23.582 Y28.856 E0.78581
G1 X23.712 Y28.84 E0.80149
G1 X24.654 Y28.753 E0.91476
G1 X47.905 Y27.328 E3.70398
G1 X48.395 Y27.302 E3.76273
G1 X48.829 Y27.285 E3.81474
G1 X49.311 Y27.272 E3.87247
G1 X49.76 Y27.267 E3.92624
G1 X50.122 Y27.268 E3.96958
G1 X50.611 Y27.275 E4.02814
G1 X51.14 Y27.293 E4.09152
G1 X51.77 Y27.327 E4.16706
G1 X52.23 Y27.36 E4.22228
G1 X52.704 Y27.403 E4.27927
G1 X53.132 Y27.446 E4.33077
G1 X53.556 Y27.496 E4.38189
G1 X53.964 Y27.55 E4.43117
G1 X53.964 Y27.551 E4.43129
G1 X54.455 Y27.623 E4.49071
G1 X54.989 Y27.712 E4.55553
G1 X54.989 Y27.711 E4.55565
G1 X55.421 Y27.791 E4.60826
G1 X55.84 Y27.874 E4.6594
G1 X56.246 Y27.961 E4.70912
G1 X56.715 Y28.068 E4.76672
G1 X57.065 Y28.154 E4.80987
G1 X57.49 Y28.265 E4.86247
G1 X58.036 Y28.414 E4.93023
G1 X58.541 Y28.563 E4.99328
G1 X58.541 Y28.562 E4.9934
G1 X58.831 Y28.654 E5.02983
G1 X59.277 Y28.801 E5.08606
G1 X59.665 Y28.934 E5.13517
G1 X60.034 Y29.067 E5.18213
G1 X60.413 Y29.208 E5.23055
G1 X61.121 Y29.49 E5.3218
G1 X61.884 Y29.816 E5.42115
G1 X62.395 Y30.048 E5.48835
G1 X62.902 Y30.291 E5.55566
G1 X63.261 Y30.47 E5.6037
G1 X63.588 Y30.638 E5.64772
G1 X63.973 Y30.844 E5.7
G1 X64.353 Y31.054 E5.75198
G1 X64.669 Y31.235 E5.79559
G1 X65.042 Y31.455 E5.84744
G1 X65.413 Y31.679 E5.89933
G1 X65.752 Y31.89 E5.94714
G1 X66.123 Y32.132 E6.00018
G1 X66.471 Y32.364 E6.05026
G1 X66.809 Y32.596 E6.09935
G1 X67.102 Y32.803 E6.1423
G1 X67.206 Y32.878 E6.15765
G1 X67.803 Y33.322 E6.24674
G1 X68.295 Y33.708 E6.32161
G1 X68.982 Y34.272 E6.42804
G1 X69.523 Y34.737 E6.51346
G1 X69.78 Y34.971 E6.55508
G1 X70.033 Y35.205 E6.59634
G1 X70.374 Y35.527 E6.6525
G1 X70.769 Y35.916 E6.71888
G1 X71.163 Y36.318 E6.78628
G1 X71.465 Y36.634 E6.83861
G1 X71.758 Y36.952 E6.89039
G1 X72.094 Y37.33 E6.95094
G1 X72.4 Y37.684 E7.00697
G1 X72.401 Y37.683 E7.00714
G1 X72.71 Y38.054 E7.06495
G1 X73.038 Y38.46 E7.12745
G1 X73.377 Y38.897 E7.19367
G1 X73.66 Y39.274 E7.25012
G1 X73.975 Y39.712 E7.31471
G1 X74.417 Y40.352 E7.40784
G1 X74.416 Y40.352 E7.40796
G1 X74.741 Y40.843 E7.47847
G1 X74.963 Y41.194 E7.5282
G1 X75.258 Y41.681 E7.59637
G1 X75.453 Y42.013 E7.64247
G1 X76.185 Y43.439 E7.8344
G1 X76.26 Y43.606 E7.85632
G1 X76.656 Y44.587 E7.98299
G1 X76.943 Y45.471 E8.09428
G1 X76.968 Y45.556 E8.10488
G1 X77.25 Y46.677 E8.24329
G1 X77.284 Y46.841 E8.26335
G1 X77.464 Y47.888 E8.39055
G1 X77.581 Y49.21 E8.54946
G1 X77.59 Y49.42 E8.57463
G1 X77.597 Y50.487 E8.70239
G1 X77.498 Y51.807 E8.86088
G1 X77.477 Y51.987 E8.88258
G1 X77.306 Y53.059 E9.01256
G1 X76.981 Y54.39 E9.17661
G1 X76.918 Y54.604 E9.20333
G1 X76.583 Y55.604 E9.3296
G1 X76.084 Y56.777 E9.48223
G1 X76.013 Y56.926 E9.502
G1 X75.364 Y58.137 E9.66651
G1 X75.114 Y58.557 E9.72503
G1 X74.817 Y59.039 E9.79282
G1 X74.564 Y59.432 E9.84879
G1 X74.158 Y60.027 E9.93503
G1 X73.686 Y60.686 E10.03209
G1 X73.266 Y61.249 E10.11619
G1 X72.99 Y61.601 E10.16975
G1 X72.728 Y61.923 E10.21946
G1 X72.438 Y62.273 E10.27388
G1 X72.071 Y62.698 E10.34112
G1 X71.762 Y63.044 E10.39666
G1 X71.441 Y63.392 E10.45335
G1 X71.162 Y63.683 E10.50162
G1 X70.944 Y63.907 E10.53905
G1 X70.597 Y64.254 E10.59781
G1 X70.305 Y64.54 E10.64675
G1 X70.028 Y64.802 E10.6924
G1 X69.585 Y65.204 E10.76403
G1 X69.017 Y65.699 E10.85424
G1 X68.451 Y66.168 E10.94225
G1 X67.861 Y66.633 E11.0322
G1 X67.267 Y67.077 E11.121
G1 X67.267 Y67.076 E11.12112
G1 X66.618 Y67.534 E11.21623
G1 X66.102 Y67.883 E11.29082
G1 X65.822 Y68.064 E11.33074
G1 X65.378 Y68.34 E11.39334
G1 X64.718 Y68.736 E11.48549
G1 X64.161 Y69.054 E11.56229
G1 X64.161 Y69.053 E11.56241
G1 X63.774 Y69.263 E11.61513
G1 X63.327 Y69.495 E11.67543
G1 X62.703 Y69.804 E11.75881
G1 X61.952 Y70.154 E11.85802
G1 X61.952 Y70.155 E11.85814
G1 X61.299 Y70.436 E11.94326
G1 X60.799 Y70.64 E12.00792
G1 X60.386 Y70.801 E12.06099
G1 X60.047 Y70.929 E12.10438
G1 X59.595 Y71.092 E12.16191
G1 X59.595 Y71.091 E12.16203
G1 X59.097 Y71.26 E12.225
G1 X58.667 Y71.397 E12.27904
G1 X58.338 Y71.497 E12.32021
G1 X57.933 Y71.614 E12.37069
G1 X57.933 Y71.613 E12.37081
G1 X57.526 Y71.726 E12.42138
G1 X57.228 Y71.805 E12.4583
G1 X56.749 Y71.923 E12.51736
G1 X56.281 Y72.03 E12.57485
G1 X55.978 Y72.096 E12.61198
G1 X55.466 Y72.201 E12.67456
G1 X55.045 Y72.279 E12.72583
G1 X54.473 Y72.374 E12.79525
G1 X54.473 Y72.375 E12.79537
G1 X54.122 Y72.428 E12.83788
G1 X53.779 Y72.475 E12.87933
G1 X53.43 Y72.52 E12.92146
G1 X53.43 Y72.521 E12.92158
G1 X53.053 Y72.563 E12.967
G1 X52.67 Y72.602 E13.0131
G1 X52.04 Y72.654 E13.08879
G1 X51.763 Y72.674 E13.12204
G1 X51.308 Y72.701 E13.17662
G1 X51.308 Y72.7 E13.17674
G1 X50.779 Y72.721 E13.24013
G1 X50.368 Y72.73 E13.28935
G1 X49.974 Y72.734 E13.33653
G1 X49.559 Y72.732 E13.38622
G1 X49.123 Y72.724 E13.43844
G1 X48.821 Y72.714 E13.47462
G1 X48.344 Y72.693 E13.53179
G1 X48.344 Y72.694 E13.53191
G1 X24.612 Y71.242 E16.37881
G1 X23.169 Y71.082 E16.55265
G1 X22.987 Y71.054 E16.57469
G1 X21.417 Y70.715 E16.76701
G1 X21.258 Y70.672 E16.78673
G1 X20.222 Y70.348 E16.91671
G1 X19.311 Y69.992 E17.03382
G1 X19.311 Y69.993 E17.03394
G1 X19.123 Y69.913 E17.0584
G1 X17.931 Y69.337 E17.21692
G1 X17.829 Y69.283 E17.23074
G1 X16.916 Y68.748 E17.35744
G1 X16.239 Y68.292 E17.45518
G1 X16.07 Y68.171 E17.48007
G1 X15.223 Y67.519 E17.60805
G1 X14.417 Y66.797 E17.73762
G1 X14.254 Y66.64 E17.76471
G1 X13.511 Y65.868 E17.89301
G1 X12.94 Y65.192 E17.99896
G1 X12.803 Y65.019 E18.02538
G1 X12.17 Y64.158 E18.15334
G1 X11.556 Y63.176 E18.29201
G1 X11.447 Y62.985 E18.31834
G1 X10.799 Y61.715 E18.48906
G1 X10.759 Y61.623 E18.50107
G1 X10.355 Y60.631 E18.62932
G1 X10.156 Y60.05 E18.70286
G1 X10.075 Y59.795 E18.73489
G1 X10.076 Y59.795 E18.73501
G1 X9.784 Y58.741 E18.86597
G1 X9.605 Y57.881 E18.97115
G1 X9.563 Y57.647 E18.99962
G1 X9.424 Y56.645 E19.12074
G1 X9.411 Y56.52 E19.13579
G1 X9.332 Y55.013 E19.31648
G1 X9.327 Y45.129 E20.49995
G1 X9.362 Y44.116 E20.62132
G1 X9.38 Y43.851 E20.65312
G1 X9.574 Y42.289 E20.84159
G1 X9.615 Y42.056 E20.86992
G1 X9.846 Y40.997 E20.9997
G1 X10.137 Y40.004 E21.1236
G1 X10.136 Y40.004 E21.12372
G1 X10.207 Y39.793 E21.15037
G1 X10.576 Y38.8 E21.27721
G1 X10.858 Y38.164 E21.36052
G1 X10.92 Y38.033 E21.37787
G1 X11.551 Y36.833 E21.54021
G1 X11.649 Y36.666 E21.56339
G1 X12.236 Y35.744 E21.69427
G1 X12.87 Y34.896 E21.82104
G1 X13.023 Y34.707 E21.85016
G1 X13.712 Y33.911 E21.97621
G1 X14.359 Y33.259 E22.0862
G1 X14.506 Y33.121 E22.11034
G1 X15.656 Y32.135 E22.29172
G1 X15.734 Y32.076 E22.30343
G1 X16.607 Y31.452 E22.43192
G1 X17.259 Y31.046 E22.52388
G1 X17.41 Y30.957 E22.54487
G0 F240 X17.6 Y30.853
G1 F90 X17.6 Y69.148 E27.13018
G0 F240 X19.2 Y69.945
G1 F90 X19.2 Y30.056 E31.90635
G0 F240 X20.8 Y29.469
G1 F90 X20.8 Y70.528 E36.82261
G0 F240 X22.4 Y70.927
G1 F90 X22.4 Y29.062 E41.83538
G0 F240 X24 Y28.813
G1 F90 X24 Y71.174 E46.90753
G0 F240 X25.6 Y71.302
G1 F90 X25.6 Y28.695 E52.00914
G0 F240 X27.2 Y28.596
G1 F90 X27.2 Y71.4 E57.13435
G0 F240 X28.8 Y71.498
G1 F90 X28.8 Y28.498 E62.28301
G0 F240 X30.4 Y28.4
G1 F90 X30.4 Y71.596 E67.45515
G0 F240 X32 Y71.694
G1 F90 X32 Y28.302 E72.65076
G0 F240 X33.6 Y28.204
G1 F90 X33.6 Y71.791 E77.86971
G0 F240 X35.2 Y71.889
G1 F90 X35.2 Y28.106 E83.11213
G0 F240 X36.8 Y28.008
G1 F90 X36.8 Y71.987 E88.37802
G0 F240 X38.4 Y72.085
G1 F90 X38.4 Y27.91 E93.66738
G0 F240 X40 Y27.812
G1 F90 X40 Y72.183 E98.98021
G0 F240 X41.6 Y72.281
G1 F90 X41.6 Y27.714 E104.31651
G0 F240 X43.2 Y27.616
G1 F90 X43.2 Y72.379 E109.67627
G0 F240 X44.8 Y72.477
G1 F90 X44.8 Y27.518 E115.0595
G0 F240 X46.4 Y27.42
G1 F90 X46.4 Y72.575 E120.46621
G0 F240 X48 Y72.672
G1 F90 X48 Y27.322 E125.89626
G0 F240 X49.6 Y27.268
G1 F90 X49.6 Y72.732 E131.33996
G0 F240 X51.2 Y72.705
G1 F90 X51.2 Y27.297 E136.77695
G0 F240 X52.8 Y27.413
G1 F90 X52.8 Y72.589 E142.18617
G0 F240 X54.4 Y72.387
G1 F90 X54.4 Y27.615 E147.54701
G0 F240 X56 Y27.909
G1 F90 X56 Y72.092 E152.83732
G0 F240 X57.6 Y71.706
G1 F90 X57.6 Y28.296 E158.03509
G0 F240 X59.2 Y28.776
G1 F90 X59.2 Y71.226 E163.1179
G0 F240 X60.8 Y70.64
G1 F90 X60.8 Y29.363 E168.06026
G0 F240 X62.4 Y30.051
G1 F90 X62.4 Y69.946 E172.83715
G0 F240 X64 Y69.141
G1 F90 X64 Y30.859 E177.4209
G0 F240 X65.6 Y31.796
G1 F90 X65.6 Y68.202 E181.78003
G0 F240 X67.2 Y67.124
G1 F90 X67.2 Y32.874 E185.881
G0 F240 X68.8 Y34.123
G1 F90 X68.8 Y65.879 E189.68335
G0 F240 X70.4 Y64.447
G1 F90 X70.4 Y35.553 E193.14302
G0 F240 X72 Y37.225
G1 F90 X72 Y62.778 E196.20265
G0 F240 X73.6 Y60.802
G1 F90 X73.6 Y39.195 E198.78979
G0 F240 X75.2 Y41.586
G1 F90 X75.2 Y58.413 E200.8046
G0 F240 X76.8 Y54.957
G1 F90 X76.8 Y45.031 E201.9931
G0 F240 X16 Y31.885
G1 F90 X16 Y68.117 E206.3314
G0 F240 X14.4 Y66.78
G1 F90 X14.4 Y33.22 E210.34975
G0 F240 X12.8 Y34.989
G1 F90 X12.8 Y65.014 E213.94484
G0 F240 X11.2 Y62.5
G1 F90 X11.2 Y37.5 E216.93825
G0 F240 X9.6 Y42.141
M104 S200
G1 F90 X9.6 Y57.853 E218.81955
;TIME_ELAPSED:1268.253949
;LAYER:-5
M140 S60
G0 F240 X9.562 Y57.646 Z0.809
;TYPE:SUPPORT
G1 F90 X22.965 Y71.048 E221.6501
G1 X21.417 Y70.714 E221.8866
G1 X21.258 Y70.671 E221.9112
G1 X21.134 Y70.632 E221.93061
G1 X9.991 Y59.488 E224.28407
G1 X10.076 Y59.794 E224.3315
G1 X10.074 Y59.794 E224.3318
G1 X10.156 Y60.049 E224.3718
G1 X10.354 Y60.63 E224.46346
G1 X10.758 Y61.622 E224.62342
G1 X10.795 Y61.707 E224.63726
G1 X18.884 Y69.796 E226.34563
G1 X17.93 Y69.336 E226.50379
G1 X17.828 Y69.282 E226.52103
G1 X16.916 Y68.747 E226.67893
G1 X16.238 Y68.291 E226.80095
G1 X16.07 Y68.17 E226.83187
G1 X15.223 Y67.518 E226.9915
G1 X14.927 Y67.252 E227.05093
G1 X13.348 Y65.674 E227.3843
G0 F240 X9.562 Y57.646
G1 F90 X9.423 Y56.644 E227.53537
G1 X9.41 Y56.519 E227.55414
G1 X9.386 Y56.055 E227.62352
G1 X24.567 Y71.236 E230.82969
G1 X24.612 Y71.241 E230.83645
G1 X26.075 Y71.33 E231.05533
G1 X9.33 Y54.585 E234.59181
G1 X9.33 Y53.17 E234.80312
G1 X27.582 Y71.422 E238.65787
G1 X29.088 Y71.515 E238.8832
G1 X9.33 Y51.756 E243.05611
G1 X9.329 Y50.341 E243.26742
G1 X30.595 Y71.607 E247.75871
G1 X32.101 Y71.699 E247.98404
G1 X9.328 Y48.926 E252.7936
G1 X9.328 Y47.511 E253.00491
G1 X33.608 Y71.791 E258.13275
G1 X35.114 Y71.883 E258.35807
G1 X9.327 Y46.096 E263.80418
G1 X9.327 Y45.128 E263.94874
G1 X9.341 Y44.696 E264.01328
G1 X36.62 Y71.975 E269.77449
G1 X38.127 Y72.068 E269.99998
G1 X9.438 Y43.379 E276.05897
G1 X9.574 Y42.287 E276.22331
G1 X9.601 Y42.128 E276.24739
G1 X39.633 Y72.16 E282.59003
G1 X41.139 Y72.252 E282.81535
G1 X9.854 Y40.966 E289.42272
G1 X10.137 Y40.003 E289.57261
G1 X10.136 Y40.003 E289.57276
G1 X10.178 Y39.876 E289.59274
G1 X42.646 Y72.344 E296.44984
G1 X44.152 Y72.436 E296.67517
G1 X10.559 Y38.843 E303.76987
G1 X10.576 Y38.799 E303.77691
G1 X10.857 Y38.163 E303.88075
G1 X10.919 Y38.031 E303.90253
G1 X11.002 Y37.872 E303.92931
G1 X45.658 Y72.528 E311.24851
G1 X47.165 Y72.621 E311.47399
G1 X11.49 Y36.946 E319.00841
G1 X11.55 Y36.832 E319.02764
G1 X11.648 Y36.664 E319.05669
G1 X12.027 Y36.068 E319.16217
G1 X48.664 Y72.706 E326.89985
G1 X48.821 Y72.713 E326.92332
G1 X49.122 Y72.723 E326.9683
G1 X49.558 Y72.73 E327.03342
G1 X49.974 Y72.733 E327.09555
G1 X50.104 Y72.731 E327.11496
G1 X12.611 Y35.239 E335.03322
G1 X12.87 Y34.895 E335.09753
G1 X13.023 Y34.706 E335.13384
G1 X13.24 Y34.453 E335.18362
G1 X51.476 Y72.689 E343.2589
G1 X51.763 Y72.673 E343.30183
G1 X52.039 Y72.653 E343.34315
G1 X52.669 Y72.601 E343.43756
G1 X52.789 Y72.588 E343.45558
G1 X13.91 Y33.709 E351.66666
G1 X14.359 Y33.258 E351.7617
G1 X14.506 Y33.12 E351.79181
G1 X14.63 Y33.014 E351.81617
G1 X54.051 Y72.436 E360.14183
G1 X54.121 Y72.427 E360.15237
G1 X54.473 Y72.374 E360.20553
G0 F240 X54.473 Y72.373
G1 F90 X55.044 Y72.278 E360.29197
G1 X55.266 Y72.237 E360.32569
G1 X15.391 Y32.362 E368.74712
G1 X15.656 Y32.134 E368.79933
G1 X15.733 Y32.075 E368.81381
G1 X16.192 Y31.748 E368.89798
G1 X56.437 Y71.993 E377.39755
G1 X56.748 Y71.921 E377.44523
G1 X57.228 Y71.804 E377.51901
G1 X57.525 Y71.724 E377.56494
G1 X57.569 Y71.711 E377.57179
G1 X17.039 Y31.181 E386.13156
G1 X17.259 Y31.044 E386.17026
G1 X17.409 Y30.956 E386.19623
G1 X17.939 Y30.667 E386.28639
G1 X58.667 Y71.395 E394.88797
G1 X59.097 Y71.259 E394.95532
G1 X59.594 Y71.089 E395.03376
G1 X59.594 Y71.091 E395.03406
G1 X59.728 Y71.042 E395.05537
G1 X18.886 Y30.2 E403.68103
G1 X19.346 Y29.988 E403.75667
G1 X19.881 Y29.78 E403.84239
G1 X60.756 Y70.655 E412.47502
G1 X60.799 Y70.639 E412.48187
G1 X61.299 Y70.434 E412.56257
G1 X61.753 Y70.239 E412.63636
G1 X20.938 Y29.424 E421.25632
G1 X21.15 Y29.354 E421.28966
G1 X21.964 Y29.146 E421.41513
G1 X22.055 Y29.126 E421.42904
G1 X62.722 Y69.793 E430.01774
G1 X63.327 Y69.494 E430.11853
G1 X63.662 Y69.319 E430.17497
G1 X23.256 Y28.912 E438.70865
G1 X23.582 Y28.855 E438.75808
G1 X23.711 Y28.839 E438.77749
G1 X24.522 Y28.765 E438.8991
G1 X64.574 Y68.817 E447.35792
G1 X64.717 Y68.735 E447.38254
G1 X65.377 Y68.339 E447.49748
G1 X65.458 Y68.287 E447.51185
G1 X25.851 Y28.679 E455.87679
G1 X27.183 Y28.597 E456.07609
G1 X66.319 Y67.733 E464.34145
G1 X66.617 Y67.532 E464.39513
G1 X67.153 Y67.153 E464.49316
G1 X28.516 Y28.516 E472.65314
G1 X29.848 Y28.434 E472.85243
G1 X67.964 Y66.55 E480.90237
G1 X68.45 Y66.168 E480.99469
G1 X68.748 Y65.92 E481.05258
G1 X31.181 Y28.352 E488.98668
G1 X32.513 Y28.27 E489.18598
G1 X69.51 Y65.268 E496.9997
G1 X69.584 Y65.204 E497.01431
G1 X70.027 Y64.802 E497.10364
G1 X70.248 Y64.592 E497.14917
G1 X33.846 Y28.189 E504.83723
G1 X35.178 Y28.107 E505.03652
G1 X70.96 Y63.889 E512.59353
G1 X71.161 Y63.682 E512.63662
G1 X71.44 Y63.392 E512.69671
G1 X71.65 Y63.165 E512.7429
G1 X36.511 Y28.026 E520.16411
G1 X37.843 Y27.944 E520.3634
G1 X72.315 Y62.415 E527.64364
G1 X72.437 Y62.273 E527.6716
G1 X72.727 Y61.922 E527.73959
G1 X72.956 Y61.642 E527.79361
G1 X39.176 Y27.862 E534.9278
G1 X40.508 Y27.78 E535.1271
G1 X73.569 Y60.841 E542.10944
G1 X73.685 Y60.686 E542.13836
G1 X74.157 Y60.027 E542.25941
G1 X74.162 Y60.02 E542.26069
G1 X41.841 Y27.699 E549.08675
G1 X43.173 Y27.617 E549.28605
G1 X74.729 Y59.173 E555.95054
G1 X74.816 Y59.039 E555.9744
G1 X75.113 Y58.556 E556.05908
G1 X75.267 Y58.297 E556.10408
G1 X44.506 Y27.536 E562.60067
G1 X45.839 Y27.454 E562.80012
G1 X75.767 Y57.383 E569.12089
G1 X76.012 Y56.926 E569.19833
G1 X76.083 Y56.776 E569.22311
G1 X76.23 Y56.431 E569.27911
G1 X47.171 Y27.372 E575.41625
G1 X47.904 Y27.327 E575.52593
G1 X48.394 Y27.301 E575.5992
G1 X48.51 Y27.297 E575.61654
G1 X76.641 Y55.428 E581.55769
G1 X76.917 Y54.604 E581.68746
G1 X76.98 Y54.389 E581.72092
G1 X76.988 Y54.36 E581.72541
G1 X49.894 Y27.267 E587.44745
G1 X50.121 Y27.267 E587.48135
G1 X50.61 Y27.274 E587.55438
G1 X51.139 Y27.292 E587.63343
G1 X51.346 Y27.304 E587.66439
G1 X77.265 Y53.223 E593.13837
G1 X77.305 Y53.058 E593.16373
G1 X77.472 Y52.016 E593.32133
G1 X52.876 Y27.42 E598.5159
G1 X53.131 Y27.446 E598.55418
G1 X53.555 Y27.495 E598.61792
G1 X53.963 Y27.55 E598.6794
G0 F240 X53.962 Y27.551
G1 F90 X54.454 Y27.622 E598.75363
G1 X54.5 Y27.63 E598.76061
G1 X77.58 Y50.71 E603.63501
G1 X77.596 Y50.487 E603.66839
G1 X77.589 Y49.419 E603.82789
G1 X77.584 Y49.3 E603.84568
G1 X56.245 Y27.961 E608.35239
G1 X56.714 Y28.067 E608.42419
G1 X57.064 Y28.153 E608.47801
G1 X57.489 Y28.264 E608.54361
G1 X58.035 Y28.414 E608.62817
G1 X58.145 Y28.446 E608.64528
G1 X77.438 Y47.739 E612.71988
G1 X77.283 Y46.84 E612.85612
G1 X77.249 Y46.676 E612.88113
G1 X77.067 Y45.954 E612.99232
G1 X60.266 Y29.154 E616.54052
G1 X60.412 Y29.207 E616.56372
G1 X61.12 Y29.489 E616.67753
G1 X61.883 Y29.815 E616.80143
G1 X62.394 Y30.048 E616.8853
G1 X62.741 Y30.214 E616.94275
G1 X76.344 Y43.817 E619.81565
G1 X76.259 Y43.606 E619.84962
G1 X76.183 Y43.438 E619.87715
G1 X75.452 Y42.013 E620.11633
