; generated by Slic3r 1.3.0-dev on 2020-07-23 at 15:08:30

; external perimeters extrusion width = 0.44mm (3.38mm^3/s)
; perimeters extrusion width = 0.48mm (7.54mm^3/s)
; infill extrusion width = 0.48mm (10.05mm^3/s)
; solid infill extrusion width = 0.48mm (2.51mm^3/s)
; top infill extrusion width = 0.48mm (1.88mm^3/s)

M107
M104 S200 ; set temperature
M106
G1 Z5 F5000 ; lift nozzle

; Filament gcode

M109 S200 ; set temperature and wait for it to be reached
G21 ; set units to millimeters
G90 ; use absolute coordinates
M82 ; use absolute distances for extrusion
G92 E0
G1 Z3.800 F7800.000
G1 E-2.00000 F2400.00000
G92 E0
G1 X35.106 Y37.113 Z0.690 F7800.000
G1 E2.00000 F2400.00000
G1 F1800
G1 X35.106 Y37.113 Z0.690 E2.00000
G1 X35.106 Y37.113 Z0.690 E2.00000
G1 X35.470 Y36.697 Z0.672 E2.03549
G1 X35.476 Y36.691 Z0.672 E2.03600
G1 X35.516 Y36.649 Z0.670 E2.03970
G1 X35.677 Y36.480 Z0.663 E2.05468
G1 X36.027 Y36.115 Z0.646 E2.08713
G1 X36.070 Y36.070 Z0.644 E2.09112
G1 X36.274 Y35.875 Z0.635 E2.10923
G1 X36.678 Y35.488 Z0.616 E2.14513
G1 X36.691 Y35.476 Z0.615 E2.14624
G1 X36.895 Y35.297 Z0.607 E2.16363
G1 X36.895 Y35.297 Z0.607 E2.16363
G1 X37.321 Y34.923 Z0.588 E2.19996
G1 X37.337 Y34.909 Z0.587 E2.20136
G1 X37.538 Y34.748 Z0.579 E2.21789
G1 X37.538 Y34.748 Z0.579 E2.21789
G1 X37.987 Y34.387 Z0.560 E2.25480
G1 X38.007 Y34.371 Z0.560 E2.25649
G1 X38.202 Y34.228 Z0.552 E2.27199
G1 X38.676 Y33.881 Z0.533 E2.30964
G1 X38.701 Y33.863 Z0.532 E2.31161
G1 X38.886 Y33.739 Z0.526 E2.32593
G1 X39.386 Y33.405 Z0.507 E2.36450
G1 X39.417 Y33.384 Z0.506 E2.36683
G1 X39.586 Y33.279 Z0.500 E2.37961
G1 X39.763 Y33.169 Z0.494 E2.39302
G1 X39.798 Y33.148 Z0.493 E2.39559
G1 X39.943 Y33.062 Z0.488 E2.40646
G1 X40.150 Y32.939 Z0.481 E2.42186
G1 X40.305 Y32.852 Z0.476 E2.43326
G1 X40.305 Y32.852 Z0.476 E2.43326
G1 X40.315 Y32.847 Z0.476 E2.43397
G1 X40.486 Y32.750 Z0.470 E2.44657
G1 X40.486 Y32.750 Z0.470 E2.44658
G1 X40.505 Y32.739 Z0.469 E2.44801
G1 X40.544 Y32.718 Z0.468 E2.45082
G1 X40.565 Y32.707 Z0.467 E2.45234
G1 X40.565 Y32.707 Z0.467 E2.45234
G1 X40.665 Y32.654 Z0.464 E2.45961
G1 X40.670 Y32.651 Z0.464 E2.46003
G1 X40.670 Y32.651 Z0.464 E2.46003
G1 X40.904 Y32.526 Z0.457 E2.47698
G1 X41.040 Y32.457 Z0.453 E2.48676
G1 X41.040 Y32.457 Z0.453 E2.48676
G1 X41.287 Y32.332 Z0.445 E2.50453
G1 X41.307 Y32.322 Z0.445 E2.50600
G1 X41.307 Y32.322 Z0.445 E2.50601
G1 X41.412 Y32.272 Z0.442 E2.51345
G1 X41.553 Y32.204 Z0.438 E2.52349
G1 X41.674 Y32.146 Z0.434 E2.53211
G1 X41.788 Y32.094 Z0.431 E2.54014
G1 X42.064 Y31.969 Z0.423 E2.55953
G1 X42.067 Y31.968 Z0.423 E2.55975
G1 X42.111 Y31.949 Z0.422 E2.56280
G1 X42.111 Y31.949 Z0.422 E2.56280
G1 X42.167 Y31.925 Z0.421 E2.56675
G1 X42.167 Y31.925 Z0.421 E2.56675
G1 X42.461 Y31.800 Z0.413 E2.58724
G1 X42.550 Y31.764 Z0.411 E2.59340
G1 X42.575 Y31.754 Z0.410 E2.59510
G1 X42.652 Y31.723 Z0.408 E2.60043
G1 X42.833 Y31.650 Z0.404 E2.61296
G1 X42.833 Y31.650 Z0.404 E2.61296
G1 X42.856 Y31.641 Z0.403 E2.61454
G1 X42.862 Y31.639 Z0.403 E2.61497
G1 X42.908 Y31.621 Z0.402 E2.61810
G1 X42.908 Y31.621 Z0.402 E2.61810
G1 X42.935 Y31.611 Z0.401 E2.61995
G1 X42.935 Y31.611 Z0.401 E2.61995
G1 X43.262 Y31.488 Z0.394 E2.64236
G1 X43.324 Y31.466 Z0.392 E2.64657
G1 X43.426 Y31.430 Z0.390 E2.65351
G1 X43.642 Y31.355 Z0.385 E2.66816
G1 X43.642 Y31.355 Z0.385 E2.66816
G1 X43.664 Y31.347 Z0.385 E2.66966
G1 X43.673 Y31.344 Z0.385 E2.67027
G1 X43.698 Y31.335 Z0.384 E2.67199
G1 X43.698 Y31.335 Z0.384 E2.67199
G1 X43.716 Y31.330 Z0.384 E2.67317
G1 X43.716 Y31.330 Z0.384 E2.67317
G1 X43.718 Y31.329 Z0.384 E2.67330
G1 X43.718 Y31.329 Z0.384 E2.67330
G1 X44.076 Y31.212 Z0.376 E2.69749
G1 X44.109 Y31.202 Z0.376 E2.69968
G1 X44.169 Y31.184 Z0.374 E2.70374
G1 X44.171 Y31.183 Z0.374 E2.70388
G1 X44.420 Y31.107 Z0.369 E2.72055
G1 X44.420 Y31.106 Z0.369 E2.72065
G1 X44.505 Y31.082 Z0.368 E2.72632
G1 X44.618 Y31.051 Z0.366 E2.73381
G1 X44.901 Y30.971 Z0.361 E2.75269
G1 X44.903 Y30.971 Z0.361 E2.75283
G1 X45.305 Y30.868 Z0.354 E2.77939
G1 X45.305 Y30.868 Z0.354 E2.77939
G1 X45.311 Y30.866 Z0.354 E2.77981
G1 X45.325 Y30.863 Z0.354 E2.78073
G1 X45.349 Y30.857 Z0.353 E2.78233
G1 X45.349 Y30.857 Z0.353 E2.78234
G1 X45.463 Y30.831 Z0.352 E2.78983
G1 X45.707 Y30.774 Z0.348 E2.80591
G1 X45.707 Y30.774 Z0.348 E2.80591
G1 X45.736 Y30.767 Z0.347 E2.80781
G1 X45.867 Y30.740 Z0.346 E2.81636
G1 X46.112 Y30.688 Z0.342 E2.83247
G1 X46.126 Y30.685 Z0.342 E2.83334
G1 X46.126 Y30.685 Z0.342 E2.83335
G1 X46.149 Y30.680 Z0.342 E2.83486
G1 X46.165 Y30.677 Z0.342 E2.83590
G1 X46.214 Y30.668 Z0.341 E2.83912
G1 X46.214 Y30.668 Z0.341 E2.83912
G1 X46.305 Y30.651 Z0.340 E2.84502
G1 X46.519 Y30.611 Z0.337 E2.85902
G1 X46.519 Y30.611 Z0.337 E2.85902
G1 X46.579 Y30.599 Z0.336 E2.86294
G1 X46.927 Y30.542 Z0.333 E2.88558
G1 X46.990 Y30.531 Z0.332 E2.88965
G1 X46.994 Y30.531 Z0.332 E2.88993
G1 X47.012 Y30.528 Z0.332 E2.89106
G1 X47.034 Y30.525 Z0.332 E2.89250
G1 X47.034 Y30.525 Z0.332 E2.89251
G1 X47.222 Y30.498 Z0.330 E2.90468
G1 X47.338 Y30.482 Z0.329 E2.91218
G1 X47.338 Y30.482 Z0.329 E2.91218
G1 X47.429 Y30.469 Z0.328 E2.91807
G1 X47.749 Y30.430 Z0.325 E2.93877
G1 X47.749 Y30.430 Z0.325 E2.93877
G1 X47.846 Y30.418 Z0.325 E2.94500
G1 X47.864 Y30.416 Z0.324 E2.94621
G1 X47.887 Y30.414 Z0.324 E2.94770
G1 X47.887 Y30.414 Z0.324 E2.94770
G1 X47.910 Y30.412 Z0.324 E2.94918
G1 X47.910 Y30.412 Z0.324 E2.94918
G1 X48.055 Y30.397 Z0.323 E2.95848
G1 X48.066 Y30.396 Z0.323 E2.95918
G1 X48.137 Y30.389 Z0.323 E2.96381
G1 X48.162 Y30.387 Z0.322 E2.96542
G1 X48.162 Y30.387 Z0.322 E2.96542
G1 X48.283 Y30.375 Z0.322 E2.97319
G1 X48.576 Y30.353 Z0.320 E2.99205
G1 X48.701 Y30.343 Z0.320 E3.00009
G1 X48.721 Y30.342 Z0.320 E3.00135
G1 X48.768 Y30.339 Z0.319 E3.00437
G1 X48.768 Y30.339 Z0.319 E3.00437
G1 X48.924 Y30.331 Z0.319 E3.01441
G1 X48.945 Y30.329 Z0.319 E3.01575
G1 X48.992 Y30.327 Z0.319 E3.01878
G1 X48.992 Y30.327 Z0.319 E3.01878
G1 X49.141 Y30.319 Z0.318 E3.02832
G1 X49.371 Y30.311 Z0.318 E3.04310
G1 X49.408 Y30.310 Z0.317 E3.04546
G1 X49.408 Y30.310 Z0.317 E3.04546
G1 X49.560 Y30.305 Z0.317 E3.05520
G1 X49.580 Y30.305 Z0.317 E3.05648
G1 X49.627 Y30.304 Z0.317 E3.05952
G1 X49.627 Y30.304 Z0.317 E3.05952
G1 X49.826 Y30.302 Z0.317 E3.07226
G1 X49.973 Y30.300 Z0.317 E3.08170
G1 X50.000 Y30.300 Z0.317 E3.08344
G1 X50.244 Y30.303 Z0.317 E3.09910
G1 X50.244 Y30.303 Z0.317 E3.09910
G1 X50.420 Y30.305 Z0.317 E3.11041
G1 X50.440 Y30.305 Z0.317 E3.11169
G1 X50.461 Y30.306 Z0.317 E3.11298
G1 X50.461 Y30.306 Z0.317 E3.11298
G1 X50.662 Y30.312 Z0.318 E3.12589
G1 X50.852 Y30.318 Z0.318 E3.13810
G1 X50.859 Y30.319 Z0.318 E3.13857
G1 X51.081 Y30.331 Z0.319 E3.15279
G1 X51.081 Y30.331 Z0.319 E3.15279
G1 X51.279 Y30.342 Z0.320 E3.16553
G1 X51.299 Y30.343 Z0.320 E3.16679
G1 X51.499 Y30.358 Z0.321 E3.17967
G1 X51.499 Y30.358 Z0.321 E3.17967
G1 X51.516 Y30.360 Z0.321 E3.18078
G1 X51.717 Y30.375 Z0.322 E3.19370
G1 X51.918 Y30.395 Z0.323 E3.20664
G1 X52.112 Y30.414 Z0.325 E3.21916
G1 X52.112 Y30.414 Z0.325 E3.21916
G1 X52.136 Y30.416 Z0.325 E3.22067
G1 X52.154 Y30.418 Z0.325 E3.22188
G1 X52.336 Y30.440 Z0.326 E3.23361
G1 X52.336 Y30.440 Z0.326 E3.23361
G1 X52.571 Y30.469 Z0.328 E3.24882
G1 X52.754 Y30.495 Z0.330 E3.26065
G1 X52.988 Y30.528 Z0.332 E3.27582
G1 X53.006 Y30.531 Z0.332 E3.27696
G1 X53.030 Y30.535 Z0.333 E3.27856
G1 X53.030 Y30.535 Z0.333 E3.27856
G1 X53.171 Y30.558 Z0.334 E3.28771
G1 X53.171 Y30.558 Z0.334 E3.28771
G1 X53.416 Y30.598 Z0.337 E3.30363
G1 X53.440 Y30.604 Z0.337 E3.30521
G1 X53.445 Y30.604 Z0.337 E3.30553
G1 X53.587 Y30.631 Z0.339 E3.31482
G1 X53.587 Y30.631 Z0.339 E3.31482
G1 X53.791 Y30.669 Z0.342 E3.32809
G1 X53.812 Y30.673 Z0.342 E3.32948
G1 X53.812 Y30.673 Z0.342 E3.32948
G1 X53.835 Y30.677 Z0.342 E3.33099
G1 X53.851 Y30.680 Z0.342 E3.33203
G1 X53.873 Y30.685 Z0.343 E3.33349
G1 X53.873 Y30.685 Z0.343 E3.33349
G1 X53.895 Y30.690 Z0.343 E3.33493
G1 X54.003 Y30.712 Z0.345 E3.34198
G1 X54.003 Y30.712 Z0.345 E3.34198
G1 X54.264 Y30.767 Z0.348 E3.35908
G1 X54.417 Y30.803 Z0.350 E3.36914
G1 X54.675 Y30.863 Z0.354 E3.38616
G1 X54.689 Y30.866 Z0.355 E3.38708
G1 X54.736 Y30.878 Z0.355 E3.39016
G1 X54.736 Y30.878 Z0.355 E3.39017
G1 X54.829 Y30.902 Z0.357 E3.39638
G1 X54.829 Y30.902 Z0.357 E3.39638
G1 X54.879 Y30.915 Z0.358 E3.39964
G1 X54.879 Y30.915 Z0.358 E3.39964
G1 X55.099 Y30.971 Z0.361 E3.41421
G1 X55.240 Y31.011 Z0.364 E3.42360
G1 X55.240 Y31.011 Z0.364 E3.42360
G1 X55.506 Y31.085 Z0.369 E3.44135
G1 X55.518 Y31.089 Z0.369 E3.44212
G1 X55.539 Y31.095 Z0.369 E3.44356
G1 X55.539 Y31.095 Z0.369 E3.44356
G1 X55.649 Y31.128 Z0.371 E3.45093
G1 X55.675 Y31.136 Z0.372 E3.45266
G1 X55.924 Y31.212 Z0.377 E3.46933
G1 X56.056 Y31.255 Z0.380 E3.47823
G1 X56.119 Y31.276 Z0.381 E3.48247
G1 X56.328 Y31.344 Z0.385 E3.49658
G1 X56.337 Y31.347 Z0.385 E3.49719
G1 X56.361 Y31.355 Z0.386 E3.49884
G1 X56.361 Y31.355 Z0.386 E3.49884
G1 X56.460 Y31.390 Z0.388 E3.50560
G1 X56.738 Y31.488 Z0.394 E3.52446
G1 X56.863 Y31.535 Z0.397 E3.53303
G1 X57.138 Y31.639 Z0.404 E3.55185
G1 X57.144 Y31.641 Z0.404 E3.55227
G1 X57.261 Y31.688 Z0.407 E3.56039
G1 X57.539 Y31.800 Z0.414 E3.57959
G1 X57.657 Y31.850 Z0.417 E3.58786
G1 X57.657 Y31.850 Z0.417 E3.58786
G1 X57.908 Y31.957 Z0.423 E3.60535
G1 X57.908 Y31.957 Z0.423 E3.60535
G1 X57.933 Y31.968 Z0.424 E3.60707
G1 X57.936 Y31.969 Z0.424 E3.60728
G1 X58.050 Y32.021 Z0.427 E3.61530
G1 X58.050 Y32.021 Z0.427 E3.61530
G1 X58.248 Y32.110 Z0.432 E3.62924
G1 X58.326 Y32.146 Z0.435 E3.63471
G1 X58.439 Y32.200 Z0.438 E3.64280
G1 X58.439 Y32.200 Z0.438 E3.64280
G1 X58.672 Y32.312 Z0.445 E3.65933
G1 X58.713 Y32.332 Z0.446 E3.66229
G1 X58.825 Y32.388 Z0.449 E3.67030
G1 X59.096 Y32.526 Z0.457 E3.68984
G1 X59.178 Y32.569 Z0.460 E3.69574
G1 X59.206 Y32.585 Z0.461 E3.69783
G1 X59.206 Y32.585 Z0.461 E3.69783
G1 X59.434 Y32.706 Z0.468 E3.71435
G1 X59.434 Y32.706 Z0.468 E3.71436
G1 X59.456 Y32.718 Z0.468 E3.71599
G1 X59.495 Y32.739 Z0.470 E3.71881
G1 X59.584 Y32.790 Z0.473 E3.72538
G1 X59.850 Y32.939 Z0.481 E3.74497
G1 X59.957 Y33.003 Z0.485 E3.75294
G1 X59.957 Y33.003 Z0.485 E3.75294
G1 X60.202 Y33.148 Z0.493 E3.77123
G1 X60.237 Y33.169 Z0.494 E3.77380
G1 X60.258 Y33.182 Z0.495 E3.77539
G1 X60.258 Y33.182 Z0.495 E3.77539
G1 X60.326 Y33.224 Z0.497 E3.78055
G1 X60.326 Y33.224 Z0.497 E3.78055
G1 X60.583 Y33.384 Z0.506 E3.79998
G1 X61.044 Y33.692 Z0.523 E3.83555
G1 X61.211 Y33.804 Z0.529 E3.84842
G1 X61.299 Y33.863 Z0.533 E3.85521
G1 X61.747 Y34.191 Z0.550 E3.89083
G1 X61.747 Y34.191 Z0.550 E3.89083
G1 X61.993 Y34.371 Z0.560 E3.91033
G1 X62.428 Y34.721 Z0.578 E3.94617
G1 X62.428 Y34.721 Z0.578 E3.94617
G1 X62.646 Y34.895 Z0.587 E3.96406
G1 X62.663 Y34.909 Z0.587 E3.96546
G1 X63.086 Y35.280 Z0.606 E4.00156
G1 X63.309 Y35.476 Z0.615 E4.02058
G1 X63.719 Y35.868 Z0.634 E4.05697
G1 X63.719 Y35.868 Z0.634 E4.05697
G1 X63.885 Y36.027 Z0.642 E4.07171
G1 X63.930 Y36.070 Z0.644 E4.07570
G1 X64.326 Y36.484 Z0.663 E4.11242
G1 X64.326 Y36.484 Z0.663 E4.11242
G1 X64.484 Y36.649 Z0.670 E4.12712
G1 X64.524 Y36.691 Z0.672 E4.13083
G1 X64.905 Y37.125 Z0.691 E4.16789
G1 X65.056 Y37.297 Z0.698 E4.18253
G1 X65.091 Y37.337 Z0.700 E4.18595
G1 X65.456 Y37.792 Z0.719 E4.22339
G1 X65.598 Y37.969 Z0.726 E4.23794
G1 X65.629 Y38.007 Z0.727 E4.24107
G1 X65.978 Y38.483 Z0.746 E4.27890
G1 X66.137 Y38.701 Z0.754 E4.29619
G1 X66.151 Y38.721 Z0.755 E4.29774
G1 X66.468 Y39.196 Z0.772 E4.33442
G1 X66.468 Y39.196 Z0.772 E4.33442
G1 X66.592 Y39.382 Z0.779 E4.34874
G1 X66.615 Y39.415 Z0.780 E4.35132
G1 X66.636 Y39.450 Z0.781 E4.35392
G1 X66.865 Y39.825 Z0.794 E4.38215
G1 X66.865 Y39.825 Z0.794 E4.38215
G1 X66.907 Y39.893 Z0.797 E4.38725
G1 X66.971 Y39.999 Z0.801 E4.39518
G1 X67.004 Y40.052 Z0.801 E4.39919
G1 X67.060 Y40.149 Z0.803 E4.40637
G1 X67.061 Y40.150 Z0.803 E4.40646
G1 X67.061 Y40.150 Z0.803 E4.40647
G1 X67.263 Y40.509 Z0.815 E4.43284
G1 X67.272 Y40.525 Z0.815 E4.43406
G1 X67.272 Y40.525 Z0.815 E4.43406
G1 X67.281 Y40.541 Z0.816 E4.43523
G1 X67.474 Y40.904 Z0.827 E4.46157
G1 X67.474 Y40.904 Z0.827 E4.46159
G1 X67.661 Y41.272 Z0.838 E4.48808
G1 X67.669 Y41.288 Z0.839 E4.48917
G1 X67.676 Y41.302 Z0.839 E4.49022
G1 X67.854 Y41.674 Z0.850 E4.51670
G1 X67.854 Y41.675 Z0.850 E4.51672
G1 X68.026 Y42.052 Z0.860 E4.54331
G1 X68.032 Y42.066 Z0.861 E4.54429
G1 X68.032 Y42.066 Z0.861 E4.54429
G1 X68.038 Y42.080 Z0.861 E4.54521
G1 X68.200 Y42.461 Z0.871 E4.57182
G1 X68.201 Y42.461 Z0.871 E4.57185
G1 X68.356 Y42.848 Z0.881 E4.59853
G1 X68.360 Y42.860 Z0.881 E4.59940
G1 X68.360 Y42.860 Z0.881 E4.59940
G1 X68.365 Y42.872 Z0.881 E4.60022
G1 X68.512 Y43.262 Z0.890 E4.62695
G1 X68.512 Y43.263 Z0.890 E4.62697
G1 X68.651 Y43.656 Z0.899 E4.65375
G1 X68.654 Y43.668 Z0.899 E4.65451
G1 X68.654 Y43.668 Z0.899 E4.65451
G1 X68.658 Y43.678 Z0.900 E4.65523
G1 X68.788 Y44.076 Z0.908 E4.68207
G1 X68.788 Y44.076 Z0.908 E4.68210
G1 X68.910 Y44.477 Z0.916 E4.70895
G1 X68.913 Y44.487 Z0.916 E4.70963
G1 X68.916 Y44.497 Z0.916 E4.71025
G1 X69.029 Y44.901 Z0.923 E4.73720
G1 X69.029 Y44.902 Z0.923 E4.73722
G1 X69.029 Y44.902 Z0.923 E4.73722
G1 X69.133 Y45.308 Z0.930 E4.76416
G1 X69.135 Y45.317 Z0.930 E4.76475
G1 X69.137 Y45.326 Z0.930 E4.76530
G1 X69.233 Y45.736 Z0.936 E4.79232
G1 X69.233 Y45.737 Z0.936 E4.79235
G1 X69.233 Y45.737 Z0.936 E4.79235
G1 X69.320 Y46.150 Z0.942 E4.81943
G1 X69.322 Y46.158 Z0.942 E4.81996
G1 X69.323 Y46.165 Z0.942 E4.82043
G1 X69.401 Y46.579 Z0.947 E4.84745
G1 X69.401 Y46.580 Z0.948 E4.84748
G1 X69.470 Y46.997 Z0.952 E4.87459
G1 X69.471 Y47.004 Z0.952 E4.87507
G1 X69.472 Y47.011 Z0.952 E4.87549
G1 X69.531 Y47.429 Z0.956 E4.90258
G1 X69.532 Y47.429 Z0.956 E4.90260
G1 X69.532 Y47.429 Z0.956 E4.90260
G1 X69.582 Y47.849 Z0.959 E4.92975
G1 X69.583 Y47.856 Z0.960 E4.93018
G1 X69.583 Y47.856 Z0.960 E4.93018
G1 X69.584 Y47.862 Z0.960 E4.93056
G1 X69.625 Y48.283 Z0.962 E4.95770
G1 X69.625 Y48.283 Z0.962 E4.95773
G1 X69.657 Y48.706 Z0.964 E4.98489
G1 X69.658 Y48.712 Z0.964 E4.98530
G1 X69.658 Y48.712 Z0.964 E4.98530
G1 X69.658 Y48.717 Z0.964 E4.98565
G1 X69.681 Y49.141 Z0.966 E5.01283
G1 X69.681 Y49.141 Z0.966 E5.01286
G1 X69.695 Y49.564 Z0.967 E5.04002
G1 X69.695 Y49.570 Z0.967 E5.04041
G1 X69.695 Y49.576 Z0.967 E5.04075
G1 X69.700 Y50.000 Z0.967 E5.06798
G1 X69.700 Y50.001 Z0.967 E5.06804
G1 X69.700 Y50.050 Z0.967 E5.07117
G1 X69.700 Y50.054 Z0.967 E5.07143
G1 X69.700 Y50.055 Z0.967 E5.07146
G1 X69.700 Y50.062 Z0.967 E5.07190
G1 X69.698 Y50.125 Z0.967 E5.07597
G1 X69.698 Y50.125 Z0.967 E5.07597
G1 X69.681 Y50.859 Z0.966 E5.12307
G1 X69.681 Y50.869 Z0.966 E5.12371
G1 X69.677 Y50.932 Z0.965 E5.12773
G1 X69.657 Y51.295 Z0.964 E5.15109
G1 X69.652 Y51.361 Z0.964 E5.15529
G1 X69.652 Y51.361 Z0.964 E5.15529
G1 X69.625 Y51.715 Z0.962 E5.17810
G1 X69.624 Y51.727 Z0.962 E5.17888
G1 X69.618 Y51.790 Z0.962 E5.18294
G1 X69.582 Y52.153 Z0.959 E5.20629
G1 X69.574 Y52.219 Z0.959 E5.21055
G1 X69.574 Y52.219 Z0.959 E5.21055
G1 X69.532 Y52.570 Z0.956 E5.23323
G1 X69.530 Y52.583 Z0.956 E5.23408
G1 X69.521 Y52.646 Z0.955 E5.23815
G1 X69.521 Y52.646 Z0.955 E5.23815
G1 X69.469 Y53.006 Z0.952 E5.26149
G1 X69.458 Y53.072 Z0.951 E5.26579
G1 X69.458 Y53.072 Z0.951 E5.26579
G1 X69.401 Y53.419 Z0.948 E5.28835
G1 X69.398 Y53.434 Z0.948 E5.28930
G1 X69.386 Y53.496 Z0.947 E5.29335
G1 X69.386 Y53.496 Z0.947 E5.29335
G1 X69.319 Y53.853 Z0.942 E5.31665
G1 X69.306 Y53.919 Z0.942 E5.32098
G1 X69.306 Y53.919 Z0.942 E5.32098
G1 X69.233 Y54.262 Z0.937 E5.34348
G1 X69.229 Y54.278 Z0.937 E5.34455
G1 X69.215 Y54.339 Z0.936 E5.34855
G1 X69.133 Y54.693 Z0.931 E5.37184
G1 X69.116 Y54.758 Z0.930 E5.37615
G1 X69.116 Y54.758 Z0.930 E5.37615
G1 X69.029 Y55.097 Z0.924 E5.39861
G1 X69.024 Y55.115 Z0.924 E5.39982
G1 X69.007 Y55.174 Z0.923 E5.40374
G1 X68.910 Y55.524 Z0.916 E5.42703
G1 X68.890 Y55.588 Z0.915 E5.43132
G1 X68.789 Y55.922 Z0.909 E5.45373
G1 X68.782 Y55.943 Z0.908 E5.45512
G1 X68.763 Y55.999 Z0.907 E5.45892
G1 X68.763 Y55.999 Z0.907 E5.45892
G1 X68.650 Y56.345 Z0.900 E5.48223
G1 X68.628 Y56.407 Z0.899 E5.48648
G1 X68.628 Y56.407 Z0.899 E5.48648
G1 X68.513 Y56.736 Z0.892 E5.50886
G1 X68.504 Y56.759 Z0.891 E5.51044
G1 X68.484 Y56.812 Z0.890 E5.51409
