;FLAVOR:RepRap
;TIME:27188
;Filament used: 2.33496m
;Layer height: 0.3
;Generated with Cura_SteamEngine 2.4.0
M104 S205
M109 S205
G28 ;Home
G1 Z15.0 F6000 ;Move the platform down 15mm
;Prime the extruder
G92 E0
G1 F200 E3
G92 E0
;LAYER_COUNT:160
;LAYER:0
M107
G1 F1500 E-6.5
G0 F120 X122.987 Y134.026 Z0.3
G0 X122.624 Y134.459
;TYPE:SKIRT
G1 F1500 E0
G1 F120 X122.987 Y134.026 E0.02819
G1 X123.596 Y133.51 E0.06801
G1 X124.224 Y133.078 E0.10604
G1 X124.711 Y132.792 E0.13422
G1 X125.431 Y132.517 E0.17267
G1 X125.762 Y132.426 E0.1898
G1 X126.574 Y132.291 E0.23086
G1 X149.728 Y130.852 E1.38825
G1 X149.948 Y130.844 E1.39923
G1 X152.202 Y130.828 E1.51169
G1 X152.728 Y130.859 E1.53797
G1 X154.729 Y131.11 E1.63859
G1 X155.143 Y131.184 E1.65957
G1 X156.253 Y131.444 E1.71645
G1 X156.673 Y131.567 E1.73828
G1 X158.596 Y132.246 E1.84002
G1 X159.113 Y132.471 E1.86815
G1 X161.043 Y133.477 E1.97674
G1 X161.497 Y133.753 E2.00325
G1 X162.937 Y134.767 E2.09111
G1 X163.234 Y134.998 E2.10988
G1 X164.207 Y135.83 E2.17375
G1 X164.577 Y136.191 E2.19954
G1 X166.152 Y137.937 E2.31686
G1 X166.479 Y138.352 E2.34321
G1 X167.393 Y139.683 E2.42377
G1 X167.692 Y140.196 E2.45339
G1 X168.027 Y140.884 E2.49157
G1 X168.238 Y141.408 E2.51975
G1 X168.373 Y141.957 E2.54796
G1 X168.43 Y142.543 E2.57733
G1 X168.442 Y143.063 E2.60328
G1 X168.415 Y143.627 E2.63145
G1 X168.264 Y144.337 E2.66766
G1 X168.174 Y144.628 E2.68286
G1 X167.97 Y145.155 E2.71105
G1 X167.767 Y145.53 E2.73233
G1 X167.065 Y146.68 E2.79955
G1 X166.848 Y147 E2.81884
G1 X166.157 Y147.919 E2.8762
G1 X165.858 Y148.272 E2.89928
G1 X164.278 Y149.933 E3.01365
G1 X163.838 Y150.331 E3.04325
G1 X162.118 Y151.671 E3.15203
G1 X161.663 Y151.978 E3.17941
G1 X159.852 Y153.026 E3.2838
G1 X159.294 Y153.294 E3.31469
G1 X157.043 Y154.166 E3.43512
G1 X156.522 Y154.328 E3.46234
G1 X154.997 Y154.69 E3.54054
G1 X154.583 Y154.765 E3.56153
G1 X152.904 Y154.981 E3.64598
G1 X152.509 Y155.012 E3.66575
G1 X151.295 Y155.047 E3.72634
G1 X150.941 Y155.042 E3.74401
G1 X127.551 Y153.64 E4.91303
G1 X127.196 Y153.603 E4.93084
G1 X125.818 Y153.396 E5.00036
G1 X125.266 Y153.272 E5.02859
G1 X124.737 Y153.073 E5.05678
G1 X124.242 Y152.8 E5.08499
G1 X123.993 Y152.626 E5.10014
G1 X123.428 Y152.197 E5.13553
G1 X123.003 Y151.824 E5.16374
G1 X122.635 Y151.395 E5.19194
G1 X122.445 Y151.114 E5.20887
G1 X122.139 Y150.619 E5.2379
G1 X121.876 Y150.119 E5.26609
G1 X121.687 Y149.586 E5.2943
G1 X121.594 Y149.165 E5.31581
G1 X121.457 Y148.332 E5.35793
G1 X121.404 Y147.662 E5.39146
G1 X121.456 Y137.592 E5.89386
G1 X121.499 Y137.029 E5.92203
G1 X121.621 Y136.477 E5.95023
G1 X121.72 Y136.183 E5.96571
G1 X121.919 Y135.663 E5.99349
G1 X122.158 Y135.151 E6.02168
G1 X122.416 Y134.746 E6.04563
G1 X122.624 Y134.459 E6.06332
G0 X122.74 Y134.98
G1 X122.948 Y134.693 E6.081
G1 X123.294 Y134.284 E6.10773
G1 X123.823 Y133.84 E6.14218
G1 X124.451 Y133.408 E6.18021
G1 X124.914 Y133.138 E6.20695
G1 X125.537 Y132.903 E6.24017
G1 X125.868 Y132.812 E6.2573
G1 X126.599 Y132.69 E6.29427
G1 X149.753 Y131.251 E7.45166
G1 X149.95 Y131.244 E7.46149
G1 X152.204 Y131.228 E7.57395
G1 X152.678 Y131.256 E7.59764
G1 X154.679 Y131.507 E7.69825
G1 X155.052 Y131.574 E7.71716
G1 X156.162 Y131.834 E7.77403
G1 X156.54 Y131.944 E7.79367
G1 X158.463 Y132.623 E7.89542
G1 X158.928 Y132.826 E7.92073
G1 X160.858 Y133.832 E8.02932
G1 X161.267 Y134.081 E8.0532
G1 X162.707 Y135.095 E8.14107
G1 X162.974 Y135.302 E8.15793
G1 X163.947 Y136.134 E8.2218
G1 X164.28 Y136.459 E8.24501
G1 X165.855 Y138.205 E8.36232
G1 X166.15 Y138.578 E8.38605
G1 X167.064 Y139.909 E8.4666
G1 X167.333 Y140.371 E8.49327
G1 X167.668 Y141.059 E8.53145
G1 X167.866 Y141.557 E8.55819
G1 X167.988 Y142.08 E8.58498
G1 X168.03 Y142.552 E8.60862
G1 X168.042 Y143.072 E8.63457
G1 X168.014 Y143.608 E8.66135
G1 X167.882 Y144.219 E8.69254
G1 X167.792 Y144.51 E8.70773
G1 X167.596 Y145.009 E8.73448
G1 X167.426 Y145.322 E8.75225
G1 X166.724 Y146.472 E8.81947
G1 X166.528 Y146.76 E8.83685
G1 X165.837 Y147.679 E8.89421
G1 X165.568 Y147.996 E8.91495
G1 X163.988 Y149.657 E9.02932
G1 X163.592 Y150.016 E9.05599
G1 X161.872 Y151.356 E9.16477
G1 X161.463 Y151.632 E9.18939
G1 X159.652 Y152.68 E9.29378
G1 X159.149 Y152.921 E9.3216
G1 X156.898 Y153.793 E9.44204
G1 X156.429 Y153.939 E9.46654
G1 X154.904 Y154.301 E9.54474
G1 X154.532 Y154.369 E9.56361
G1 X152.853 Y154.585 E9.64806
G1 X152.498 Y154.613 E9.66583
G1 X151.284 Y154.648 E9.72642
G1 X150.965 Y154.643 E9.74234
G1 X127.575 Y153.241 E10.91136
G1 X127.255 Y153.207 E10.92742
G1 X125.877 Y153 E10.99694
G1 X125.354 Y152.881 E11.0237
G1 X124.855 Y152.686 E11.05043
G1 X124.235 Y152.307 E11.08668
G1 X123.67 Y151.878 E11.12207
G1 X123.268 Y151.523 E11.14883
G1 X122.785 Y150.904 E11.188
G1 X122.479 Y150.409 E11.21703
G1 X122.232 Y149.933 E11.24379
G1 X122.058 Y149.426 E11.27053
G1 X121.989 Y149.1 E11.28715
G1 X121.852 Y148.267 E11.32927
G1 X121.804 Y147.664 E11.35945
G1 X121.856 Y137.594 E11.86185
G1 X121.899 Y137.06 E11.88858
G1 X122.094 Y136.326 E11.92647
G1 X122.293 Y135.806 E11.95425
G1 X122.521 Y135.321 E11.98098
G1 X122.74 Y134.98 E12.0012
G0 X123.064 Y135.215
G1 X123.272 Y134.928 E12.01889
G1 X123.6 Y134.543 E12.04412
G1 X124.049 Y134.17 E12.07324
G1 X124.677 Y133.738 E12.11127
G1 X125.115 Y133.485 E12.1365
G1 X125.643 Y133.288 E12.16462
G1 X125.974 Y133.197 E12.18175
G1 X126.624 Y133.089 E12.21462
G1 X149.778 Y131.65 E13.37201
G1 X149.953 Y131.644 E13.38074
G1 X152.207 Y131.628 E13.4932
G1 X152.628 Y131.653 E13.51424
G1 X154.629 Y131.904 E13.61485
G1 X154.961 Y131.963 E13.63167
G1 X156.071 Y132.223 E13.68855
G1 X156.406 Y132.322 E13.70598
G1 X158.329 Y133.001 E13.80772
G1 X158.743 Y133.18 E13.83023
G1 X160.673 Y134.186 E13.93881
G1 X161.036 Y134.408 E13.96004
G1 X162.476 Y135.422 E14.0479
G1 X162.714 Y135.606 E14.06291
G1 X163.687 Y136.438 E14.12678
G1 X163.983 Y136.727 E14.14742
G1 X165.558 Y138.473 E14.26473
G1 X165.82 Y138.805 E14.28583
G1 X166.734 Y140.136 E14.36639
G1 X166.973 Y140.546 E14.39006
G1 X167.308 Y141.234 E14.42824
G1 X167.493 Y141.705 E14.45349
G1 X167.601 Y142.199 E14.47871
G1 X167.63 Y142.561 E14.49683
G1 X167.642 Y143.081 E14.52278
G1 X167.614 Y143.586 E14.54802
G1 X167.5 Y144.101 E14.57433
G1 X167.41 Y144.392 E14.58953
G1 X167.223 Y144.861 E14.61472
G1 X167.084 Y145.113 E14.62908
G1 X166.382 Y146.263 E14.69629
G1 X166.209 Y146.519 E14.71171
G1 X165.518 Y147.438 E14.76907
G1 X165.279 Y147.721 E14.78755
G1 X163.699 Y149.382 E14.90192
G1 X163.347 Y149.7 E14.92559
G1 X161.627 Y151.04 E15.03437
G1 X161.263 Y151.286 E15.05629
G1 X159.452 Y152.334 E15.16068
G1 X159.005 Y152.548 E15.1854
G1 X156.754 Y153.42 E15.30584
G1 X156.337 Y153.549 E15.32761
G1 X154.812 Y153.911 E15.40581
G1 X154.481 Y153.972 E15.4226
G1 X152.802 Y154.188 E15.50706
G1 X152.486 Y154.213 E15.52287
G1 X151.272 Y154.248 E15.58346
G1 X150.989 Y154.243 E15.59759
G1 X127.599 Y152.841 E16.76661
G1 X127.315 Y152.811 E16.78086
G1 X125.937 Y152.604 E16.85038
G1 X125.444 Y152.49 E16.87562
G1 X124.976 Y152.3 E16.90082
G1 X124.477 Y151.989 E16.93016
G1 X123.912 Y151.56 E16.96555
G1 X123.535 Y151.223 E16.99078
G1 X123.125 Y150.694 E17.02417
G1 X122.819 Y150.199 E17.0532
G1 X122.588 Y149.749 E17.07844
G1 X122.383 Y149.035 E17.1155
G1 X122.246 Y148.202 E17.15762
G1 X122.204 Y147.666 E17.18444
G1 X122.256 Y137.596 E17.68684
G1 X122.299 Y137.093 E17.71203
G1 X122.467 Y136.469 E17.74427
G1 X122.666 Y135.949 E17.77204
G1 X122.884 Y135.493 E17.79726
G1 X123.064 Y135.215 E17.81378
G1 F1500 E11.31378
G0 F120 X125.187 Y136.575
G0 X125.887 Y137.115
G0 X125.82 Y137.408
G0 X125.727 Y137.372
;TYPE:WALL-OUTER
G1 F1500 E17.81378
G1 F120 X125.766 Y137.284 E17.81859
G1 X125.871 Y137.104 E17.82898
G1 X126.003 Y136.934 E17.83972
G1 X126.155 Y136.787 E17.85027
G1 X126.33 Y136.665 E17.86091
G1 X126.524 Y136.566 E17.87178
G1 X126.616 Y136.532 E17.87667
G1 X126.778 Y136.487 E17.88506
G1 X127.01 Y136.451 E17.89677
G1 X150.438 Y135.016 E19.06779
G1 X150.931 Y134.995 E19.09241
G1 X151.384 Y134.989 E19.11501
G1 X151.855 Y134.996 E19.13851
G1 X152.394 Y135.025 E19.16544
G1 X152.851 Y135.065 E19.18833
G1 X153.397 Y135.132 E19.21577
G1 X153.807 Y135.195 E19.23647
G1 X154.248 Y135.278 E19.25886
G1 X154.657 Y135.365 E19.27972
G1 X155.135 Y135.483 E19.30428
G1 X155.975 Y135.733 E19.34801
G1 X156.425 Y135.89 E19.37178
G1 X156.79 Y136.028 E19.39125
G1 X157.167 Y136.185 E19.41163
G1 X157.617 Y136.386 E19.43621
G1 X158 Y136.572 E19.45746
G1 X158.76 Y136.985 E19.50061
G1 X159.467 Y137.422 E19.54208
G1 X159.773 Y137.63 E19.56054
G1 X160.093 Y137.861 E19.58023
G1 X160.469 Y138.145 E19.60373
G1 X160.823 Y138.431 E19.62644
G1 X161.394 Y138.935 E19.66444
G1 X161.693 Y139.223 E19.68515
G1 X162.08 Y139.619 E19.71277
G1 X162.438 Y140.011 E19.73926
G1 X162.806 Y140.447 E19.76772
G1 X163.037 Y140.741 E19.78638
G1 X163.345 Y141.155 E19.81212
G1 X163.658 Y141.61 E19.83967
G1 X164.076 Y142.281 E19.87911
G1 X164.171 Y142.459 E19.88918
G1 X164.21 Y142.552 E19.89421
G1 X164.234 Y142.63 E19.89828
G1 X164.268 Y142.803 E19.90708
G1 X164.274 Y142.948 E19.91432
G1 X164.252 Y143.141 E19.92401
G1 X164.198 Y143.324 E19.93353
G1 X164.121 Y143.487 E19.94252
G1 X163.862 Y143.923 E19.96782
G1 X163.596 Y144.335 E19.99229
G1 X163.114 Y145.009 E20.03363
G1 X162.817 Y145.387 E20.05761
G1 X162.513 Y145.753 E20.08135
G1 X162.308 Y145.982 E20.09668
G1 X162.246 Y146.052 E20.10135
G1 X162.204 Y146.099 E20.10449
G1 X162.145 Y146.161 E20.10876
G1 X162.057 Y146.255 E20.11519
G1 X161.97 Y146.347 E20.1215
G1 X161.949 Y146.369 E20.12302
G1 X161.867 Y146.451 E20.12881
G1 X161.601 Y146.717 E20.14757
G1 X161.105 Y147.173 E20.18119
G1 X160.842 Y147.399 E20.19849
G1 X160.268 Y147.857 E20.23512
G1 X159.68 Y148.281 E20.27129
G1 X159.361 Y148.493 E20.2904
G1 X158.715 Y148.887 E20.32815
G1 X158.394 Y149.067 E20.34651
G1 X158.026 Y149.26 E20.36724
G1 X157.692 Y149.425 E20.38583
G1 X157.279 Y149.616 E20.40853
G1 X156.923 Y149.766 E20.4278
G1 X156.529 Y149.92 E20.44891
G1 X155.762 Y150.183 E20.48936
G1 X154.978 Y150.405 E20.53001
G1 X154.503 Y150.516 E20.55435
G1 X154.148 Y150.589 E20.57243
G1 X153.679 Y150.673 E20.5962
G1 X153.266 Y150.733 E20.61702
G1 X152.891 Y150.778 E20.63586
G1 X152.524 Y150.811 E20.65425
G1 X152.041 Y150.841 E20.67839
G1 X151.592 Y150.858 E20.70081
G1 X151.218 Y150.858 E20.71947
G1 X150.769 Y150.846 E20.74188
G1 X127.061 Y149.402 E21.92687
G1 X126.915 Y149.386 E21.93419
G1 X126.689 Y149.339 E21.94571
G1 X126.482 Y149.263 E21.95671
G1 X126.401 Y149.224 E21.9612
G1 X126.231 Y149.119 E21.97116
G1 X126.087 Y149 E21.98048
G1 X125.958 Y148.861 E21.98995
G1 X125.876 Y148.754 E21.99667
G1 X125.738 Y148.502 E22.011
G1 X125.707 Y148.417 E22.01552
G1 X125.65 Y148.231 E22.02522
G1 X125.612 Y148.023 E22.03577
G1 X125.602 Y147.926 E22.04064
G1 X125.603 Y137.935 E22.53909
G1 X125.636 Y137.682 E22.55182
G1 X125.669 Y137.543 E22.55895
G1 X125.727 Y137.372 E22.56796
G0 X125.766 Y137.284
G0 X125.818 Y137.194
G0 X125.904 Y137.244
G0 X127.373 Y139.917
G0 X127.427 Y140.001
G1 X127.231 Y140.141 E22.57997
G1 X127.048 Y140.301 E22.5921
G1 X126.882 Y140.477 E22.60417
G1 X126.731 Y140.672 E22.61648
G1 X126.597 Y140.885 E22.62903
G1 X126.48 Y141.115 E22.6419
G1 X126.381 Y141.368 E22.65546
G1 X126.298 Y141.648 E22.67003
G1 X126.233 Y141.957 E22.68578
G1 X126.188 Y142.289 E22.7025
G1 X126.164 Y142.641 E22.7201
G1 X126.157 Y143.005 E22.73826
G1 X126.175 Y143.361 E22.75605
G1 X126.209 Y143.684 E22.77225
G1 X126.261 Y143.982 E22.78734
G1 X126.329 Y144.255 E22.80138
G1 X126.412 Y144.504 E22.81447
G1 X126.511 Y144.734 E22.82696
G1 X126.63 Y144.954 E22.83944
G1 X126.766 Y145.157 E22.85163
G1 X126.92 Y145.345 E22.86376
G1 X127.091 Y145.517 E22.87586
G1 X127.277 Y145.671 E22.88791
G1 X127.476 Y145.806 E22.8999
G1 X127.687 Y145.921 E22.91189
G1 X127.914 Y146.016 E22.92417
G1 X128.146 Y146.088 E22.93629
G1 X128.309 Y146.126 E22.94464
G1 X128.569 Y146.163 E22.95774
G1 X128.851 Y146.178 E22.97183
G1 X129.126 Y146.173 E22.98555
G1 X129.374 Y146.147 E22.99799
G1 X129.601 Y146.102 E23.00954
G1 X129.813 Y146.04 E23.02056
G1 X130.011 Y145.957 E23.03127
G1 X130.189 Y145.857 E23.04145
G1 X130.351 Y145.742 E23.05137
G1 X130.497 Y145.608 E23.06125
G1 X130.623 Y145.458 E23.07103
G1 X130.728 Y145.299 E23.08053
G1 X130.808 Y145.134 E23.08968
G1 X130.865 Y144.977 E23.09801
G1 X130.858 Y144.823 E23.1057
G1 X130.816 Y144.689 E23.11271
G1 X130.742 Y144.566 E23.11987
G1 X130.644 Y144.464 E23.12693
G1 X130.518 Y144.375 E23.13462
G1 X130.375 Y144.311 E23.14244
G1 X130.223 Y144.273 E23.15026
G1 X130.072 Y144.262 E23.15781
G1 X129.928 Y144.28 E23.16505
G1 X129.794 Y144.323 E23.17207
G1 X129.677 Y144.393 E23.17887
G1 X129.585 Y144.48 E23.18519
G1 X129.492 Y144.603 E23.19288
G1 X129.436 Y144.649 E23.1965
G1 X129.354 Y144.696 E23.20122
G1 X129.254 Y144.733 E23.20654
G1 X129.122 Y144.765 E23.21331
G1 X128.949 Y144.785 E23.222
G1 X128.794 Y144.786 E23.22973
G1 X128.636 Y144.767 E23.23767
G1 X128.485 Y144.732 E23.24541
G1 X128.34 Y144.678 E23.25313
G1 X128.209 Y144.611 E23.26047
G1 X128.092 Y144.53 E23.26757
G1 X127.993 Y144.443 E23.27414
G1 X127.91 Y144.346 E23.28051
G1 X127.819 Y144.21 E23.28867
G1 X127.744 Y144.059 E23.29709
G1 X127.678 Y143.876 E23.30679
G1 X127.624 Y143.663 E23.31775
G1 X127.589 Y143.449 E23.32857
G1 X127.565 Y143.169 E23.34259
G1 X127.557 Y142.852 E23.35841
G1 X127.57 Y142.538 E23.37409
G1 X127.597 Y142.28 E23.38703
G1 X127.635 Y142.068 E23.39778
G1 X127.683 Y141.89 E23.40698
G1 X127.752 Y141.704 E23.41687
G1 X127.821 Y141.566 E23.42457
G1 X127.9 Y141.446 E23.43174
G1 X127.992 Y141.337 E23.43886
G1 X128.089 Y141.249 E23.44539
G1 X128.218 Y141.16 E23.45321
G1 X128.338 Y141.098 E23.45995
G1 X128.483 Y141.044 E23.46767
G1 X128.63 Y141.01 E23.47519
G1 X128.772 Y140.993 E23.48233
G1 X128.972 Y141.005 E23.49232
G1 X129.077 Y141.031 E23.49772
G1 X129.168 Y141.07 E23.50266
G1 X129.317 Y141.153 E23.51117
G1 X129.56 Y141.307 E23.52552
G1 X129.733 Y141.403 E23.53539
G1 X129.891 Y141.47 E23.54396
G1 X130.038 Y141.51 E23.55156
G1 X130.177 Y141.524 E23.55853
G1 X130.313 Y141.509 E23.56535
G1 X130.452 Y141.458 E23.57274
G1 X130.574 Y141.375 E23.5801
G1 X130.679 Y141.265 E23.58769
G1 X130.762 Y141.131 E23.59555
G1 X130.815 Y140.994 E23.60288
G1 X130.838 Y140.857 E23.60981
G1 X130.837 Y140.746 E23.61535
G1 X130.807 Y140.606 E23.62249
G1 X130.766 Y140.504 E23.62798
G1 X130.689 Y140.375 E23.63547
G1 X130.582 Y140.245 E23.64387
G1 X130.439 Y140.108 E23.65375
G1 X130.264 Y139.974 E23.66475
G1 X130.076 Y139.859 E23.67574
G1 X129.891 Y139.771 E23.68596
G1 X129.682 Y139.698 E23.69701
G1 X129.504 Y139.653 E23.70617
G1 X129.247 Y139.614 E23.71914
G1 X128.976 Y139.597 E23.73268
G1 X128.761 Y139.599 E23.74341
G1 X128.503 Y139.619 E23.75632
G1 X128.278 Y139.657 E23.76771
G1 X128.084 Y139.704 E23.77766
G1 X127.854 Y139.782 E23.78978
G1 X127.634 Y139.882 E23.80184
G1 X127.427 Y140.001 E23.81375
G0 X127.264 Y140.117
G0 X127.206 Y140.036
G0 X128.27 Y139.618
G0 X129.251 Y139.575
G0 X129.906 Y139.735
G0 X131.408 Y140.272
G0 X131.506 Y140.291
G1 X131.49 Y140.445 E23.82147
G1 X131.503 Y140.601 E23.82928
G1 X131.537 Y140.728 E23.83584
G1 X131.586 Y140.843 E23.84208
G1 X131.663 Y140.959 E23.84903
G1 X131.763 Y141.052 E23.85584
G1 X131.878 Y141.118 E23.86245
G1 X132.004 Y141.153 E23.86898
G1 X132.146 Y141.167 E23.8761
G1 X132.318 Y141.16 E23.88468
G1 X132.796 Y141.098 E23.90873
G1 X132.955 Y141.09 E23.91667
G1 X133.06 Y141.099 E23.92193
G1 X133.156 Y141.122 E23.92686
G1 X133.232 Y141.154 E23.93097
G1 X133.296 Y141.198 E23.93485
G1 X133.34 Y141.241 E23.93792
G1 X133.371 Y141.287 E23.94068
G1 X133.393 Y141.344 E23.94373
G1 X133.407 Y141.415 E23.94734
G1 X133.413 Y141.532 E23.95319
G1 X133.382 Y142.007 E23.97693
G1 X133.387 Y142.745 E24.01375
G1 X133.383 Y144.255 E24.08909
G1 X133.395 Y144.91 E24.12177
G1 X133.356 Y145.382 E24.1454
G1 X133.36 Y145.53 E24.15279
G1 X133.39 Y145.661 E24.15949
G1 X133.449 Y145.778 E24.16603
G1 X133.539 Y145.877 E24.1727
G1 X133.653 Y145.949 E24.17943
G1 X133.793 Y146.003 E24.18692
G1 X133.947 Y146.03 E24.19472
G1 X134.103 Y146.033 E24.2025
G1 X134.244 Y146.006 E24.20966
G1 X134.343 Y145.97 E24.21492
