;FLAVOR:RepRap
;TIME:2682
;Filament used: 2.91069m
;Layer height: 0.3
;Generated with Cura_SteamEngine 2.4.0
M106 S255
G0 Z-1
M2410
G0 Z0

M104 S200
M109 S200
G92 E0
G1 F200 E3
G92 E0
;LAYER_COUNT:160
;LAYER:0
G1 F1500 E-6.5
G0 F1500 X21.081 Y36.697 Z0.3
;TYPE:SKIRT
G1 F1500 E0
G1 X21.786 Y36.341 E0.0394
G1 X22.71 Y36.001 E0.08852
G1 X23.135 Y35.874 E0.11065
G1 X23.902 Y35.686 E0.15005
G1 X24.898 Y35.561 E0.20013
G1 X49.445 Y34.08 E1.42701
G1 X50.438 Y34.084 E1.47655
G1 X52.358 Y34.213 E1.57256
G1 X53.33 Y34.34 E1.62147
G1 X55.127 Y34.691 E1.71281
G1 X55.923 Y34.89 E1.75375
G1 X57.212 Y35.286 E1.82102
G1 X58.07 Y35.606 E1.86671
G1 X60.044 Y36.477 E1.97435
G1 X60.944 Y36.946 E2.02498
G1 X62.403 Y37.832 E2.11014
G1 X63.213 Y38.398 E2.15944
G1 X64.849 Y39.701 E2.26379
G1 X65.629 Y40.413 E2.31648
G1 X66.985 Y41.832 E2.4144
G1 X67.684 Y42.675 E2.46903
G1 X68.983 Y44.486 E2.58022
G1 X69.507 Y45.324 E2.62953
G1 X69.788 Y45.844 E2.65902
G1 X70.128 Y46.557 E2.69843
G1 X70.394 Y47.3 E2.7378
G1 X70.583 Y48.067 E2.77721
G1 X70.704 Y48.967 E2.82252
G1 X70.757 Y49.672 E2.85779
G1 X70.776 Y50.462 E2.89721
G1 X70.716 Y51.249 E2.93659
G1 X70.576 Y52.026 E2.97598
G1 X70.273 Y53.02 E3.02782
G1 X70.123 Y53.416 E3.04895
G1 X69.806 Y54.139 E3.08834
G1 X69.262 Y55.064 E3.14187
G1 X67.934 Y57.001 E3.25904
G1 X67.25 Y57.861 E3.31386
G1 X66.003 Y59.221 E3.40592
G1 X65.46 Y59.758 E3.44402
G1 X64.63 Y60.502 E3.49963
G1 X64.082 Y60.95 E3.53494
G1 X62.849 Y61.868 E3.61163
G1 X62.018 Y62.409 E3.6611
G1 X60.018 Y63.535 E3.77561
G1 X59.189 Y63.939 E3.82162
G1 X58.096 Y64.394 E3.88069
G1 X57.406 Y64.644 E3.9173
G1 X55.792 Y65.144 E4.0016
G1 X55.009 Y65.342 E4.04189
G1 X53.63 Y65.617 E4.11205
G1 X52.618 Y65.751 E4.16298
G1 X50.128 Y65.915 E4.28747
G1 X49.142 Y65.918 E4.33666
G1 X25.007 Y64.453 E5.54298
G1 X24.223 Y64.365 E5.58234
G1 X23.451 Y64.198 E5.62174
G1 X23.044 Y64.077 E5.64293
G1 X22.308 Y63.835 E5.68158
G1 X21.571 Y63.55 E5.721
G1 X20.867 Y63.193 E5.76038
G1 X20.202 Y62.766 E5.79981
G1 X19.759 Y62.424 E5.82773
G1 X19.398 Y62.124 E5.85115
G1 X18.817 Y61.589 E5.89055
G1 X18.293 Y60.998 E5.92996
G1 X17.918 Y60.489 E5.9615
G1 X17.652 Y60.095 E5.98522
G1 X17.244 Y59.419 E6.02461
G1 X16.906 Y58.706 E6.06398
G1 X16.564 Y57.677 E6.11808
G1 X16.379 Y56.959 E6.15507
G1 X16.221 Y56.185 E6.19448
G1 X16.142 Y55.4 E6.23384
G1 X16.132 Y55.003 E6.25365
G1 X16.145 Y44.858 E6.75979
G1 X16.186 Y44.069 E6.79921
G1 X16.38 Y42.969 E6.85493
G1 X16.502 Y42.483 E6.87993
G1 X16.733 Y41.728 E6.91932
G1 X17.038 Y41 E6.9587
G1 X17.45 Y40.252 E7.0013
G1 X17.769 Y39.741 E7.03136
G1 X18.221 Y39.093 E7.07077
G1 X18.736 Y38.494 E7.11019
G1 X19.308 Y37.95 E7.14957
G1 X19.859 Y37.519 E7.18447
G1 X20.416 Y37.122 E7.21859
G1 X21.081 Y36.697 E7.25797
G0 X21.297 Y37.035
G1 X21.985 Y36.691 E7.29634
G1 X22.824 Y36.384 E7.34092
G1 X23.249 Y36.257 E7.36305
G1 X23.997 Y36.075 E7.40145
G1 X24.922 Y35.96 E7.44796
G1 X49.469 Y34.479 E8.67484
G1 X50.411 Y34.483 E8.72183
G1 X52.331 Y34.612 E8.81784
G1 X53.254 Y34.732 E8.86428
G1 X55.051 Y35.083 E8.95562
G1 X55.805 Y35.272 E8.9944
G1 X57.094 Y35.668 E9.06168
G1 X57.908 Y35.972 E9.10503
G1 X59.882 Y36.843 E9.21267
G1 X60.736 Y37.288 E9.26072
G1 X62.195 Y38.174 E9.34588
G1 X62.964 Y38.711 E9.39267
G1 X64.6 Y40.014 E9.49701
G1 X65.34 Y40.69 E9.54702
G1 X66.696 Y42.109 E9.64494
G1 X67.359 Y42.908 E9.69674
G1 X68.658 Y44.719 E9.80793
G1 X69.155 Y45.514 E9.8547
G1 X69.436 Y46.034 E9.88419
G1 X69.766 Y46.729 E9.92258
G1 X70.022 Y47.454 E9.96094
G1 X70.202 Y48.202 E9.99932
G1 X70.305 Y48.997 E10.03931
G1 X70.358 Y49.702 E10.07458
G1 X70.376 Y50.471 E10.11296
G1 X70.314 Y51.238 E10.15135
G1 X70.172 Y51.994 E10.18973
G1 X69.899 Y52.878 E10.23589
G1 X69.749 Y53.274 E10.25701
G1 X69.44 Y53.978 E10.29537
G1 X68.932 Y54.837 E10.34516
G1 X67.604 Y56.774 E10.46233
G1 X66.955 Y57.591 E10.51438
G1 X65.708 Y58.951 E10.60644
G1 X65.193 Y59.46 E10.64256
G1 X64.363 Y60.204 E10.69817
G1 X63.843 Y60.63 E10.73171
G1 X62.61 Y61.548 E10.8084
G1 X61.821 Y62.06 E10.85533
G1 X59.821 Y63.186 E10.96983
G1 X59.035 Y63.57 E11.01348
G1 X57.942 Y64.025 E11.07254
G1 X57.288 Y64.262 E11.10725
G1 X55.674 Y64.762 E11.19155
G1 X54.931 Y64.95 E11.22978
G1 X53.552 Y65.225 E11.29994
G1 X52.591 Y65.352 E11.3483
G1 X50.101 Y65.516 E11.47279
G1 X49.167 Y65.518 E11.51939
G1 X25.032 Y64.053 E12.72571
G1 X24.267 Y63.967 E12.76411
G1 X23.169 Y63.697 E12.82052
G1 X22.433 Y63.455 E12.85918
G1 X21.715 Y63.177 E12.89759
G1 X21.031 Y62.826 E12.93595
G1 X20.387 Y62.406 E12.9743
G1 X20.014 Y62.116 E12.99788
G1 X19.653 Y61.816 E13.02129
G1 X19.088 Y61.295 E13.05964
G1 X18.58 Y60.717 E13.09803
G1 X18.25 Y60.266 E13.12591
G1 X17.984 Y59.872 E13.14963
G1 X17.587 Y59.213 E13.18801
G1 X17.261 Y58.516 E13.2264
G1 X16.951 Y57.577 E13.27573
G1 X16.766 Y56.859 E13.31272
G1 X16.613 Y56.106 E13.35106
G1 X16.532 Y55.004 E13.40618
G1 X16.545 Y44.859 E13.91232
G1 X16.586 Y44.09 E13.95074
G1 X16.768 Y43.066 E14.00263
G1 X16.89 Y42.58 E14.02763
G1 X17.115 Y41.845 E14.06598
G1 X17.416 Y41.137 E14.10436
G1 X17.79 Y40.463 E14.14281
G1 X18.109 Y39.952 E14.17287
G1 X18.549 Y39.322 E14.21121
G1 X19.053 Y38.741 E14.24958
G1 X19.614 Y38.215 E14.28795
G1 X20.091 Y37.845 E14.31806
G1 X20.648 Y37.448 E14.35219
G1 X21.297 Y37.035 E14.39057
G0 X21.512 Y37.373
G1 X22.182 Y37.041 E14.42787
G1 X22.939 Y36.767 E14.46804
G1 X23.364 Y36.64 E14.49017
G1 X24.091 Y36.464 E14.52748
G1 X24.946 Y36.36 E14.57046
G1 X49.493 Y34.879 E15.79734
G1 X50.384 Y34.882 E15.84179
G1 X52.304 Y35.011 E15.93779
G1 X53.177 Y35.125 E15.98172
G1 X54.974 Y35.476 E16.07307
G1 X55.688 Y35.655 E16.10979
G1 X56.977 Y36.051 E16.17706
G1 X57.747 Y36.338 E16.21806
G1 X59.721 Y37.209 E16.32571
G1 X60.528 Y37.63 E16.37112
G1 X61.987 Y38.516 E16.45628
G1 X62.715 Y39.023 E16.50054
G1 X64.351 Y40.326 E16.60488
G1 X65.051 Y40.966 E16.6522
G1 X66.407 Y42.385 E16.75012
G1 X67.034 Y43.141 E16.79912
G1 X68.333 Y44.952 E16.91031
G1 X68.803 Y45.704 E16.95455
G1 X69.084 Y46.224 E16.98404
G1 X69.404 Y46.9 E17.02136
G1 X69.65 Y47.607 E17.0587
G1 X69.819 Y48.335 E17.09599
G1 X69.906 Y49.027 E17.13078
G1 X69.959 Y49.732 E17.16606
G1 X69.975 Y50.48 E17.20338
G1 X69.912 Y51.225 E17.24068
G1 X69.769 Y51.96 E17.27804
G1 X69.525 Y52.737 E17.31867
G1 X69.375 Y53.133 E17.3398
G1 X69.073 Y53.817 E17.3771
G1 X68.602 Y54.611 E17.42316
G1 X67.274 Y56.548 E17.54033
G1 X66.66 Y57.321 E17.58958
G1 X65.413 Y58.681 E17.68163
G1 X64.926 Y59.162 E17.71578
G1 X64.096 Y59.906 E17.77139
G1 X63.604 Y60.309 E17.80312
G1 X62.371 Y61.227 E17.87981
G1 X61.625 Y61.712 E17.92421
G1 X59.625 Y62.838 E18.03871
G1 X58.881 Y63.2 E18.07999
G1 X57.788 Y63.655 E18.13906
G1 X57.169 Y63.879 E18.1719
G1 X55.555 Y64.379 E18.2562
G1 X54.853 Y64.558 E18.29234
G1 X53.474 Y64.833 E18.3625
G1 X52.565 Y64.953 E18.40824
G1 X50.075 Y65.117 E18.53273
G1 X49.191 Y65.119 E18.57684
G1 X25.056 Y63.654 E19.78315
G1 X24.313 Y63.569 E19.82046
G1 X23.294 Y63.317 E19.87283
G1 X22.558 Y63.075 E19.91149
G1 X21.86 Y62.803 E19.94886
G1 X21.196 Y62.459 E19.98617
G1 X20.573 Y62.046 E20.02346
G1 X20.27 Y61.809 E20.04265
G1 X19.909 Y61.509 E20.06607
G1 X19.36 Y61 E20.10342
G1 X18.868 Y60.437 E20.14072
G1 X18.581 Y60.042 E20.16508
G1 X18.315 Y59.648 E20.1888
G1 X17.931 Y59.006 E20.22612
G1 X17.616 Y58.327 E20.26346
G1 X17.338 Y57.478 E20.30803
G1 X17.153 Y56.76 E20.34502
G1 X17.006 Y56.026 E20.38237
G1 X16.932 Y55.004 E20.43349
G1 X16.945 Y44.859 E20.93963
G1 X16.986 Y44.112 E20.97695
G1 X17.156 Y43.164 E21.025
G1 X17.278 Y42.678 E21.05
G1 X17.498 Y41.963 E21.08732
G1 X17.794 Y41.276 E21.12465
G1 X18.129 Y40.675 E21.15897
G1 X18.448 Y40.164 E21.18903
G1 X18.878 Y39.552 E21.22634
G1 X19.37 Y38.988 E21.26368
G1 X19.92 Y38.481 E21.301
G1 X20.323 Y38.171 E21.32637
G1 X20.88 Y37.774 E21.36049
G1 X21.512 Y37.373 E21.39783
G0 X21.726 Y37.711
G1 X22.379 Y37.392 E21.43409
G1 X23.053 Y37.15 E21.46982
G1 X23.478 Y37.023 E21.49195
G1 X24.185 Y36.854 E21.52822
G1 X24.971 Y36.759 E21.56771
G1 X49.518 Y35.278 E22.7946
G1 X50.357 Y35.281 E22.83645
G1 X52.277 Y35.41 E22.93246
G1 X53.1 Y35.517 E22.97386
G1 X54.897 Y35.868 E23.06521
G1 X55.57 Y36.037 E23.09983
G1 X56.859 Y36.433 E23.16711
G1 X57.585 Y36.704 E23.20577
G1 X59.559 Y37.575 E23.31341
G1 X60.321 Y37.972 E23.35628
G1 X61.78 Y38.858 E23.44144
G1 X62.466 Y39.336 E23.48315
G1 X64.102 Y40.639 E23.5875
G1 X64.762 Y41.242 E23.6321
G1 X66.118 Y42.661 E23.73002
G1 X66.709 Y43.374 E23.77622
G1 X68.008 Y45.185 E23.88741
G1 X68.451 Y45.894 E23.92912
G1 X68.732 Y46.414 E23.95861
G1 X69.042 Y47.071 E23.99485
G1 X69.278 Y47.758 E24.03109
G1 X69.436 Y48.467 E24.06733
G1 X69.507 Y49.057 E24.09698
G1 X69.56 Y49.762 E24.13225
G1 X69.575 Y50.488 E24.16848
G1 X69.51 Y51.212 E24.20475
G1 X69.365 Y51.924 E24.241
G1 X69.151 Y52.595 E24.27613
G1 X69.001 Y52.991 E24.29726
G1 X68.707 Y53.655 E24.33349
G1 X68.273 Y54.385 E24.37586
G1 X66.945 Y56.322 E24.49303
G1 X66.366 Y57.05 E24.53943
G1 X65.119 Y58.41 E24.63149
G1 X64.659 Y58.865 E24.66377
G1 X63.829 Y59.609 E24.71938
G1 X63.365 Y59.988 E24.74927
G1 X62.132 Y60.906 E24.82596
G1 X61.429 Y61.363 E24.86779
G1 X59.429 Y62.489 E24.9823
G1 X58.727 Y62.831 E25.02126
G1 X57.634 Y63.286 E25.08032
G1 X57.051 Y63.497 E25.11126
G1 X55.437 Y63.997 E25.19556
G1 X54.775 Y64.166 E25.22964
G1 X53.396 Y64.441 E25.2998
G1 X52.539 Y64.554 E25.34292
G1 X50.049 Y64.718 E25.46742
G1 X49.215 Y64.72 E25.50903
G1 X25.08 Y63.255 E26.71534
G1 X24.359 Y63.171 E26.75156
G1 X23.418 Y62.937 E26.79993
G1 X22.682 Y62.695 E26.83859
G1 X22.006 Y62.43 E26.87481
G1 X21.363 Y62.093 E26.91103
G1 X20.526 Y61.501 E26.96218
G1 X20.165 Y61.201 E26.98559
G1 X19.632 Y60.707 E27.02185
G1 X19.158 Y60.157 E27.05807
G1 X18.913 Y59.818 E27.07894
G1 X18.647 Y59.424 E27.10266
G1 X18.274 Y58.801 E27.13888
G1 X17.972 Y58.14 E27.17514
G1 X17.726 Y57.378 E27.21509
G1 X17.541 Y56.66 E27.25208
G1 X17.398 Y55.947 E27.28836
G1 X17.332 Y55.005 E27.33547
G1 X17.345 Y44.86 E27.84161
G1 X17.386 Y44.134 E27.87789
G1 X17.544 Y43.261 E27.92215
G1 X17.666 Y42.775 E27.94715
G1 X17.881 Y42.081 E27.98339
G1 X18.171 Y41.416 E28.01959
G1 X18.468 Y40.887 E28.04986
G1 X18.787 Y40.376 E28.07991
G1 X19.205 Y39.782 E28.11615
G1 X19.686 Y39.237 E28.15241
G1 X20.224 Y38.749 E28.18865
G1 X20.555 Y38.496 E28.20943
G1 X21.112 Y38.099 E28.24356
G1 X21.726 Y37.711 E28.2798
G0 X21.94 Y38.05
G1 X22.574 Y37.744 E28.31492
G1 X23.168 Y37.534 E28.34635
G1 X23.593 Y37.407 E28.36848
G1 X24.278 Y37.244 E28.40361
G1 X24.995 Y37.158 E28.43964
G1 X49.542 Y35.677 E29.66652
G1 X50.331 Y35.68 E29.70588
G1 X52.251 Y35.809 E29.80189
G1 X53.024 Y35.91 E29.84078
G1 X54.821 Y36.261 E29.93213
G1 X55.453 Y36.419 E29.96463
G1 X56.742 Y36.815 E30.0319
G1 X57.424 Y37.07 E30.06823
G1 X59.398 Y37.941 E30.17587
G1 X60.113 Y38.314 E30.21611
G1 X61.572 Y39.2 E30.30127
G1 X62.217 Y39.649 E30.34047
G1 X63.853 Y40.952 E30.44482
G1 X64.472 Y41.519 E30.4867
G1 X65.828 Y42.938 E30.58462
G1 X66.384 Y43.607 E30.62802
G1 X67.683 Y45.418 E30.73921
G1 X68.1 Y46.084 E30.77841
G1 X68.381 Y46.604 E30.8079
G1 X68.68 Y47.242 E30.84305
G1 X68.904 Y47.909 E30.87815
G1 X69.052 Y48.597 E30.91326
G1 X69.109 Y49.087 E30.93788
G1 X69.162 Y49.792 E30.97315
G1 X69.174 Y50.496 E31.00828
G1 X69.107 Y51.197 E31.04341
G1 X68.961 Y51.886 E31.07855
G1 X68.777 Y52.453 E31.10829
G1 X68.627 Y52.849 E31.12941
G1 X68.341 Y53.492 E31.16452
G1 X67.943 Y54.159 E31.20327
G1 X66.615 Y56.096 E31.32044
G1 X66.071 Y56.78 E31.36404
G1 X64.824 Y58.14 E31.4561
G1 X64.392 Y58.567 E31.4864
G1 X63.562 Y59.311 E31.54201
G1 X63.127 Y59.667 E31.57005
G1 X61.894 Y60.585 E31.64675
G1 X61.233 Y61.015 E31.68609
G1 X59.233 Y62.141 E31.80059
G1 X58.574 Y62.462 E31.83717
G1 X57.481 Y62.917 E31.89623
G1 X56.933 Y63.115 E31.9253
G1 X55.319 Y63.615 E32.0096
G1 X54.697 Y63.773 E32.04162
G1 X53.318 Y64.048 E32.11177
G1 X52.512 Y64.155 E32.15233
G1 X50.022 Y64.319 E32.27683
G1 X49.239 Y64.321 E32.31589
G1 X25.104 Y62.856 E33.52221
G1 X24.405 Y62.773 E33.55733
G1 X23.543 Y62.557 E33.60166
G1 X22.807 Y62.315 E33.64032
G1 X22.152 Y62.057 E33.67544
G1 X21.53 Y61.727 E33.71057
G1 X20.781 Y61.193 E33.75646
G1 X20.42 Y60.893 E33.77988
G1 X19.905 Y60.413 E33.815
G1 X19.244 Y59.594 E33.86751
G1 X18.978 Y59.2 E33.89122
G1 X18.618 Y58.595 E33.92635
G1 X18.329 Y57.953 E33.96147
G1 X18.113 Y57.278 E33.99683
G1 X17.928 Y56.56 E34.03382
G1 X17.791 Y55.869 E34.06897
G1 X17.732 Y55.005 E34.11217
G1 X17.745 Y44.86 E34.61831
G1 X17.786 Y44.157 E34.65344
G1 X17.932 Y43.358 E34.69396
G1 X18.054 Y42.872 E34.71896
G1 X18.263 Y42.2 E34.75407
G1 X18.548 Y41.557 E34.78916
G1 X18.808 Y41.099 E34.81544
G1 X19.127 Y40.588 E34.84549
G1 X19.533 Y40.013 E34.88061
G1 X20.001 Y39.487 E34.91573
G1 X20.787 Y38.822 E34.9671
G1 X21.344 Y38.425 E35.00122
G1 X21.94 Y38.05 E35.03636
G0 X21.577 Y38.751
G1 X22.153 Y38.389 E35.0703
G1 X22.768 Y38.097 E35.10426
G1 X23.282 Y37.917 E35.13143
G1 X23.707 Y37.79 E35.15356
G1 X24.37 Y37.633 E35.18755
G1 X25.019 Y37.558 E35.22015
G1 X49.566 Y36.077 E36.44703
G1 X50.304 Y36.079 E36.48385
G1 X52.224 Y36.208 E36.57985
G1 X52.947 Y36.303 E36.61623
G1 X54.744 Y36.654 E36.70758
G1 X55.335 Y36.802 E36.73798
G1 X56.624 Y37.198 E36.80525
G1 X57.262 Y37.436 E36.83922
G1 X59.236 Y38.307 E36.94687
G1 X59.906 Y38.656 E36.98456
G1 X61.365 Y39.542 E37.06972
G1 X61.967 Y39.962 E37.10634
G1 X63.603 Y41.265 E37.21068
G1 X64.183 Y41.795 E37.24988
G1 X65.539 Y43.214 E37.3478
G1 X66.059 Y43.84 E37.3884
G1 X67.358 Y45.651 E37.49959
G1 X67.748 Y46.275 E37.53631
G1 X68.029 Y46.795 E37.56579
G1 X68.317 Y47.412 E37.59976
G1 X68.53 Y48.058 E37.6337
G1 X68.667 Y48.725 E37.66767
G1 X68.71 Y49.117 E37.68735
G1 X68.763 Y49.822 E37.72262
G1 X68.774 Y50.503 E37.7566
G1 X68.705 Y51.18 E37.79055
G1 X68.557 Y51.845 E37.82454
G1 X68.403 Y52.312 E37.84907
G1 X68.253 Y52.708 E37.8702
G1 X67.975 Y53.329 E37.90414
G1 X67.613 Y53.933 E37.93927
G1 X66.285 Y55.87 E38.05644
G1 X65.776 Y56.51 E38.09724
G1 X64.529 Y57.87 E38.18929
G1 X64.125 Y58.269 E38.21762
G1 X63.295 Y59.013 E38.27323
G1 X62.888 Y59.346 E38.29947
G1 X61.655 Y60.264 E38.37616
G1 X61.036 Y60.666 E38.41298
G1 X59.036 Y61.792 E38.52749
G1 X58.42 Y62.093 E38.56169
G1 X57.327 Y62.548 E38.62076
G1 X56.814 Y62.733 E38.64797
G1 X55.2 Y63.233 E38.73226
G1 X54.618 Y63.381 E38.76222
G1 X53.239 Y63.656 E38.83238
G1 X52.486 Y63.755 E38.87027
G1 X49.996 Y63.919 E38.99476
G1 X49.264 Y63.921 E39.03128
G1 X25.129 Y62.456 E40.2376
G1 X24.453 Y62.375 E40.27157
G1 X23.668 Y62.177 E40.31196
G1 X22.932 Y61.935 E40.35061
G1 X22.299 Y61.685 E40.38457
G1 X21.7 Y61.362 E40.41852
G1 X21.037 Y60.886 E40.45924
G1 X20.676 Y60.586 E40.48265
G1 X20.179 Y60.121 E40.51661
G1 X19.576 Y59.37 E40.56466
G1 X19.31 Y58.976 E40.58838
G1 X18.963 Y58.391 E40.62231
G1 X18.687 Y57.768 E40.65631
G1 X18.5 Y57.178 E40.68719
G1 X18.315 Y56.46 E40.72418
G1 X18.185 Y55.792 E40.75813
G1 X18.132 Y55.006 E40.79743
G1 X18.145 Y44.861 E41.30357
G1 X18.186 Y44.181 E41.33755
G1 X18.32 Y43.456 E41.37434
G1 X18.442 Y42.97 E41.39934
G1 X18.646 Y42.32 E41.43332
G1 X18.925 Y41.699 E41.46729
G1 X19.147 Y41.311 E41.48959
G1 X19.466 Y40.8 E41.51965
G1 X19.86 Y40.244 E41.55364
G1 X20.316 Y39.739 E41.58759
G1 X21.02 Y39.148 E41.63345
G1 X21.577 Y38.751 E41.66757
G0 X21.809 Y39.077
G1 X22.366 Y38.729 E41.70034
G1 X22.961 Y38.451 E41.7331
G1 X23.397 Y38.3 E41.75612
G1 X23.822 Y38.173 E41.77825
G1 X24.462 Y38.024 E41.81104
G1 X25.043 Y37.957 E41.84021
G1 X49.59 Y36.476 E43.0671
G1 X50.277 Y36.478 E43.10137
G1 X52.197 Y36.607 E43.19738
G1 X52.87 Y36.695 E43.23124
G1 X54.667 Y37.046 E43.32259
G1 X55.218 Y37.184 E43.35092
G1 X56.507 Y37.58 E43.4182
G1 X57.101 Y37.802 E43.44984
G1 X59.075 Y38.673 E43.55748
G1 X59.698 Y38.997 E43.59251
G1 X61.157 Y39.883 E43.67767
G1 X61.718 Y40.275 E43.71182
G1 X63.354 Y41.578 E43.81616
G1 X63.894 Y42.071 E43.85264
G1 X65.25 Y43.49 E43.95056
G1 X65.734 Y44.074 E43.9884
G1 X67.033 Y45.885 E44.09959
G1 X67.396 Y46.465 E44.13373
G1 X67.677 Y46.985 E44.16322
G1 X67.953 Y47.581 E44.19599
G1 X68.155 Y48.206 E44.22876
G1 X68.311 Y49.147 E44.27634
G1 X68.364 Y49.852 E44.31162
G1 X68.373 Y50.509 E44.3444
G1 X68.303 Y51.162 E44.37716
