;FLAVOR:RepRap
;TIME:2724
;Filament used: 2.91219m
;Layer height: 0.3
;Generated with Cura_SteamEngine 2.4.0
M106
M104 S205
M109 S205
G28 ;Home
;Prime the extruder
G92 E0
G1 F200 E3
G92 E0

;LAYER_COUNT:160
;LAYER:0
G1 F1500 E-6.5
G0 F1500 X44.859 Y62.519 Z0.3
;TYPE:SKIRT
G1 F1500 E0
G1 X45.416 Y62.122 E0.03412
G1 X46.081 Y61.697 E0.0735
G1 X46.786 Y61.341 E0.1129
G1 X47.71 Y61.001 E0.16202
G1 X48.135 Y60.874 E0.18415
G1 X48.902 Y60.686 E0.22355
G1 X49.898 Y60.561 E0.27363
G1 X74.445 Y59.08 E1.50051
G1 X75.438 Y59.084 E1.55005
G1 X77.358 Y59.213 E1.64606
G1 X78.33 Y59.34 E1.69496
G1 X80.127 Y59.691 E1.78631
G1 X80.923 Y59.89 E1.82725
G1 X82.212 Y60.286 E1.89452
G1 X83.07 Y60.606 E1.94021
G1 X85.044 Y61.477 E2.04785
G1 X85.944 Y61.946 E2.09848
G1 X87.403 Y62.832 E2.18364
G1 X88.213 Y63.398 E2.23294
G1 X89.849 Y64.701 E2.33729
G1 X90.629 Y65.413 E2.38998
G1 X91.985 Y66.832 E2.4879
G1 X92.684 Y67.675 E2.54253
G1 X93.983 Y69.486 E2.65372
G1 X94.507 Y70.324 E2.70303
G1 X94.788 Y70.844 E2.73252
G1 X95.128 Y71.557 E2.77193
G1 X95.394 Y72.3 E2.8113
G1 X95.583 Y73.067 E2.85071
G1 X95.704 Y73.967 E2.89602
G1 X95.757 Y74.672 E2.93129
G1 X95.776 Y75.462 E2.97071
G1 X95.716 Y76.249 E3.01009
G1 X95.576 Y77.026 E3.04948
G1 X95.273 Y78.02 E3.10132
G1 X95.123 Y78.416 E3.12245
G1 X94.806 Y79.139 E3.16183
G1 X94.262 Y80.064 E3.21537
G1 X92.934 Y82.001 E3.33254
G1 X92.25 Y82.861 E3.38736
G1 X91.003 Y84.221 E3.47942
G1 X90.46 Y84.758 E3.51752
G1 X89.63 Y85.502 E3.57313
G1 X89.082 Y85.95 E3.60844
G1 X87.849 Y86.868 E3.68513
G1 X87.018 Y87.409 E3.7346
G1 X85.018 Y88.535 E3.84911
G1 X84.189 Y88.939 E3.89512
G1 X83.096 Y89.394 E3.95419
G1 X82.406 Y89.644 E3.9908
G1 X80.792 Y90.144 E4.0751
G1 X80.009 Y90.342 E4.11539
G1 X78.63 Y90.617 E4.18554
G1 X77.618 Y90.751 E4.23647
G1 X75.128 Y90.915 E4.36097
G1 X74.142 Y90.918 E4.41016
G1 X50.007 Y89.453 E5.61648
G1 X49.223 Y89.365 E5.65584
G1 X48.451 Y89.198 E5.69524
G1 X48.044 Y89.077 E5.71643
G1 X47.308 Y88.835 E5.75508
G1 X46.571 Y88.55 E5.7945
G1 X45.867 Y88.193 E5.83388
G1 X45.202 Y87.766 E5.87331
G1 X44.759 Y87.424 E5.90123
G1 X44.398 Y87.124 E5.92465
G1 X43.817 Y86.589 E5.96405
G1 X43.293 Y85.998 E6.00346
G1 X42.918 Y85.489 E6.035
G1 X42.652 Y85.095 E6.05872
G1 X42.244 Y84.419 E6.09811
G1 X41.906 Y83.706 E6.13748
G1 X41.564 Y82.677 E6.19157
G1 X41.379 Y81.959 E6.22857
G1 X41.221 Y81.185 E6.26798
G1 X41.142 Y80.4 E6.30734
G1 X41.132 Y80.003 E6.32715
G1 X41.145 Y69.858 E6.83329
G1 X41.186 Y69.069 E6.8727
G1 X41.38 Y67.969 E6.92843
G1 X41.502 Y67.483 E6.95343
G1 X41.733 Y66.728 E6.99282
G1 X42.038 Y66 E7.0322
G1 X42.45 Y65.252 E7.0748
G1 X42.769 Y64.741 E7.10486
G1 X43.221 Y64.093 E7.14427
G1 X43.736 Y63.494 E7.18368
G1 X44.308 Y62.95 E7.22307
G1 X44.859 Y62.519 E7.25797
G0 X45.091 Y62.845
G1 X45.648 Y62.448 E7.29209
G1 X46.297 Y62.035 E7.33047
G1 X46.985 Y61.691 E7.36885
G1 X47.824 Y61.384 E7.41342
G1 X48.249 Y61.257 E7.43555
G1 X48.997 Y61.075 E7.47396
G1 X49.922 Y60.96 E7.52046
G1 X74.469 Y59.479 E8.74734
G1 X75.411 Y59.483 E8.79434
G1 X77.331 Y59.612 E8.89034
G1 X78.254 Y59.732 E8.93678
G1 X80.051 Y60.083 E9.02813
G1 X80.805 Y60.272 E9.06691
G1 X82.094 Y60.668 E9.13418
G1 X82.908 Y60.972 E9.17753
G1 X84.882 Y61.843 E9.28518
G1 X85.736 Y62.288 E9.33322
G1 X87.195 Y63.174 E9.41838
G1 X87.964 Y63.711 E9.46517
G1 X89.6 Y65.014 E9.56952
G1 X90.34 Y65.69 E9.61952
G1 X91.696 Y67.109 E9.71744
G1 X92.359 Y67.908 E9.76924
G1 X93.658 Y69.719 E9.88043
G1 X94.155 Y70.514 E9.92721
G1 X94.436 Y71.034 E9.9567
G1 X94.766 Y71.729 E9.99508
G1 X95.022 Y72.454 E10.03344
G1 X95.202 Y73.202 E10.07182
G1 X95.305 Y73.997 E10.11182
G1 X95.358 Y74.702 E10.14709
G1 X95.376 Y75.471 E10.18546
G1 X95.314 Y76.238 E10.22386
G1 X95.172 Y76.994 E10.26223
G1 X94.899 Y77.878 E10.30839
G1 X94.749 Y78.274 E10.32952
G1 X94.44 Y78.978 E10.36787
G1 X93.932 Y79.837 E10.41766
G1 X92.604 Y81.774 E10.53483
G1 X91.955 Y82.591 E10.58689
G1 X90.708 Y83.951 E10.67894
G1 X90.193 Y84.46 E10.71507
G1 X89.363 Y85.204 E10.77068
G1 X88.843 Y85.63 E10.80421
G1 X87.61 Y86.548 E10.88091
G1 X86.821 Y87.06 E10.92783
G1 X84.821 Y88.186 E11.04234
G1 X84.035 Y88.57 E11.08598
G1 X82.942 Y89.025 E11.14505
G1 X82.288 Y89.262 E11.17975
G1 X80.674 Y89.762 E11.26405
G1 X79.931 Y89.95 E11.30229
G1 X78.552 Y90.225 E11.37244
G1 X77.591 Y90.352 E11.4208
G1 X75.101 Y90.516 E11.5453
G1 X74.167 Y90.518 E11.59189
G1 X50.032 Y89.053 E12.79821
G1 X49.267 Y88.967 E12.83662
G1 X48.169 Y88.697 E12.89303
G1 X47.433 Y88.455 E12.93168
G1 X46.715 Y88.177 E12.97009
G1 X46.031 Y87.826 E13.00845
G1 X45.387 Y87.406 E13.04681
G1 X45.014 Y87.116 E13.07038
G1 X44.653 Y86.816 E13.0938
G1 X44.088 Y86.295 E13.13214
G1 X43.58 Y85.717 E13.17053
G1 X43.25 Y85.266 E13.19841
G1 X42.984 Y84.872 E13.22213
G1 X42.587 Y84.213 E13.26051
G1 X42.261 Y83.516 E13.2989
G1 X41.951 Y82.577 E13.34823
G1 X41.766 Y81.859 E13.38523
G1 X41.613 Y81.106 E13.42356
G1 X41.532 Y80.004 E13.47869
G1 X41.545 Y69.859 E13.98482
G1 X41.586 Y69.09 E14.02324
G1 X41.768 Y68.066 E14.07513
G1 X41.89 Y67.58 E14.10013
G1 X42.115 Y66.845 E14.13848
G1 X42.416 Y66.137 E14.17686
G1 X42.79 Y65.463 E14.21532
G1 X43.109 Y64.952 E14.24537
G1 X43.549 Y64.322 E14.28371
G1 X44.053 Y63.741 E14.32208
G1 X44.614 Y63.215 E14.36045
G1 X45.091 Y62.845 E14.39057
G0 X45.323 Y63.171
G1 X45.88 Y62.774 E14.42469
G1 X46.512 Y62.373 E14.46203
G1 X47.182 Y62.041 E14.49934
G1 X47.939 Y61.767 E14.5395
G1 X48.364 Y61.64 E14.56163
G1 X49.091 Y61.464 E14.59895
G1 X49.946 Y61.36 E14.64192
G1 X74.493 Y59.879 E15.8688
G1 X75.384 Y59.882 E15.91326
G1 X77.304 Y60.011 E16.00926
G1 X78.177 Y60.125 E16.05319
G1 X79.974 Y60.476 E16.14453
G1 X80.688 Y60.655 E16.18126
G1 X81.977 Y61.051 E16.24853
G1 X82.747 Y61.338 E16.28953
G1 X84.721 Y62.209 E16.39717
G1 X85.528 Y62.63 E16.44258
G1 X86.987 Y63.516 E16.52774
G1 X87.715 Y64.023 E16.572
G1 X89.351 Y65.326 E16.67635
G1 X90.051 Y65.966 E16.72367
G1 X91.407 Y67.385 E16.82159
G1 X92.034 Y68.141 E16.87059
G1 X93.333 Y69.952 E16.98178
G1 X93.803 Y70.704 E17.02602
G1 X94.084 Y71.224 E17.05551
G1 X94.404 Y71.9 E17.09282
G1 X94.65 Y72.607 E17.13017
G1 X94.819 Y73.335 E17.16746
G1 X94.906 Y74.027 E17.20225
G1 X94.959 Y74.732 E17.23752
G1 X94.975 Y75.48 E17.27485
G1 X94.912 Y76.225 E17.31215
G1 X94.769 Y76.96 E17.34951
G1 X94.525 Y77.737 E17.39014
G1 X94.375 Y78.133 E17.41127
G1 X94.073 Y78.817 E17.44857
G1 X93.602 Y79.611 E17.49463
G1 X92.274 Y81.548 E17.61179
G1 X91.66 Y82.321 E17.66105
G1 X90.413 Y83.681 E17.7531
G1 X89.926 Y84.162 E17.78725
G1 X89.096 Y84.906 E17.84286
G1 X88.604 Y85.309 E17.87459
G1 X87.371 Y86.227 E17.95128
G1 X86.625 Y86.712 E17.99567
G1 X84.625 Y87.838 E18.11018
G1 X83.881 Y88.2 E18.15146
G1 X82.788 Y88.655 E18.21053
G1 X82.169 Y88.879 E18.24337
G1 X80.555 Y89.379 E18.32767
G1 X79.853 Y89.558 E18.36381
G1 X78.474 Y89.833 E18.43396
G1 X77.565 Y89.953 E18.47971
G1 X75.075 Y90.117 E18.6042
G1 X74.191 Y90.119 E18.6483
G1 X50.056 Y88.654 E19.85462
G1 X49.313 Y88.569 E19.89193
G1 X48.294 Y88.317 E19.9443
G1 X47.558 Y88.075 E19.98295
G1 X46.86 Y87.803 E20.02033
G1 X46.196 Y87.459 E20.05764
G1 X45.573 Y87.046 E20.09493
G1 X45.27 Y86.809 E20.11412
G1 X44.909 Y86.509 E20.13754
G1 X44.36 Y86 E20.17489
G1 X43.868 Y85.437 E20.21219
G1 X43.581 Y85.042 E20.23655
G1 X43.315 Y84.648 E20.26027
G1 X42.931 Y84.006 E20.29759
G1 X42.616 Y83.327 E20.33493
G1 X42.338 Y82.478 E20.3795
G1 X42.153 Y81.76 E20.41649
G1 X42.006 Y81.026 E20.45384
G1 X41.932 Y80.004 E20.50496
G1 X41.945 Y69.859 E21.0111
G1 X41.986 Y69.112 E21.04842
G1 X42.156 Y68.164 E21.09647
G1 X42.278 Y67.678 E21.12147
G1 X42.498 Y66.963 E21.15879
G1 X42.794 Y66.276 E21.19611
G1 X43.129 Y65.675 E21.23044
G1 X43.448 Y65.164 E21.26049
G1 X43.878 Y64.552 E21.29781
G1 X44.37 Y63.988 E21.33515
G1 X44.92 Y63.481 E21.37247
G1 X45.323 Y63.171 E21.39783
G0 X45.555 Y63.496
G1 X46.112 Y63.099 E21.43196
G1 X46.726 Y62.711 E21.4682
G1 X47.379 Y62.392 E21.50445
G1 X48.053 Y62.15 E21.54018
G1 X48.478 Y62.023 E21.56231
G1 X49.185 Y61.854 E21.59858
G1 X49.971 Y61.759 E21.63808
G1 X74.518 Y60.278 E22.86496
G1 X75.357 Y60.281 E22.90682
G1 X77.277 Y60.41 E23.00282
G1 X78.1 Y60.517 E23.04423
G1 X79.897 Y60.868 E23.13557
G1 X80.57 Y61.037 E23.17019
G1 X81.859 Y61.433 E23.23747
G1 X82.585 Y61.704 E23.27613
G1 X84.559 Y62.575 E23.38377
G1 X85.321 Y62.972 E23.42664
G1 X86.78 Y63.858 E23.5118
G1 X87.466 Y64.336 E23.55351
G1 X89.102 Y65.639 E23.65786
G1 X89.762 Y66.242 E23.70246
G1 X91.118 Y67.661 E23.80038
G1 X91.709 Y68.374 E23.84658
G1 X93.008 Y70.185 E23.95777
G1 X93.451 Y70.894 E23.99948
G1 X93.732 Y71.414 E24.02897
G1 X94.042 Y72.071 E24.06521
G1 X94.278 Y72.758 E24.10145
G1 X94.436 Y73.467 E24.13769
G1 X94.507 Y74.057 E24.16734
G1 X94.56 Y74.762 E24.20261
G1 X94.575 Y75.488 E24.23884
G1 X94.51 Y76.212 E24.27511
G1 X94.365 Y76.924 E24.31136
G1 X94.151 Y77.595 E24.3465
G1 X94.001 Y77.991 E24.36762
G1 X93.707 Y78.655 E24.40385
G1 X93.273 Y79.385 E24.44622
G1 X91.945 Y81.322 E24.56339
G1 X91.366 Y82.05 E24.6098
G1 X90.119 Y83.41 E24.70185
G1 X89.659 Y83.865 E24.73413
G1 X88.829 Y84.609 E24.78974
G1 X88.365 Y84.988 E24.81963
G1 X87.132 Y85.906 E24.89632
G1 X86.429 Y86.363 E24.93815
G1 X84.429 Y87.489 E25.05266
G1 X83.727 Y87.831 E25.09162
G1 X82.634 Y88.286 E25.15069
G1 X82.051 Y88.497 E25.18162
G1 X80.437 Y88.997 E25.26592
G1 X79.775 Y89.166 E25.3
G1 X78.396 Y89.441 E25.37016
G1 X77.539 Y89.554 E25.41328
G1 X75.049 Y89.718 E25.53778
G1 X74.215 Y89.72 E25.57939
G1 X50.08 Y88.255 E26.7857
G1 X49.359 Y88.171 E26.82192
G1 X48.418 Y87.937 E26.87029
G1 X47.682 Y87.695 E26.90895
G1 X47.006 Y87.43 E26.94517
G1 X46.363 Y87.093 E26.98139
G1 X45.526 Y86.501 E27.03254
G1 X45.165 Y86.201 E27.05595
G1 X44.632 Y85.707 E27.09221
G1 X44.158 Y85.157 E27.12843
G1 X43.913 Y84.818 E27.1493
G1 X43.647 Y84.424 E27.17302
G1 X43.274 Y83.801 E27.20925
G1 X42.972 Y83.14 E27.2455
G1 X42.726 Y82.378 E27.28545
G1 X42.541 Y81.66 E27.32244
G1 X42.398 Y80.947 E27.35872
G1 X42.332 Y80.005 E27.40583
G1 X42.345 Y69.86 E27.91197
G1 X42.386 Y69.134 E27.94825
G1 X42.544 Y68.261 E27.99251
G1 X42.666 Y67.775 E28.01751
G1 X42.881 Y67.081 E28.05376
G1 X43.171 Y66.416 E28.08995
G1 X43.468 Y65.887 E28.12022
G1 X43.787 Y65.376 E28.15027
G1 X44.205 Y64.782 E28.18651
G1 X44.686 Y64.237 E28.22277
G1 X45.224 Y63.749 E28.25901
G1 X45.555 Y63.496 E28.2798
G0 X45.787 Y63.822
G1 X46.344 Y63.425 E28.31392
G1 X46.94 Y63.05 E28.34905
G1 X47.574 Y62.744 E28.38417
G1 X48.168 Y62.534 E28.41561
G1 X48.593 Y62.407 E28.43774
G1 X49.278 Y62.244 E28.47286
G1 X49.995 Y62.158 E28.50889
G1 X74.542 Y60.677 E29.73577
G1 X75.331 Y60.68 E29.77514
G1 X77.251 Y60.809 E29.87114
G1 X78.024 Y60.91 E29.91004
G1 X79.821 Y61.261 E30.00138
G1 X80.453 Y61.419 E30.03388
G1 X81.742 Y61.815 E30.10116
G1 X82.424 Y62.07 E30.13748
G1 X84.398 Y62.941 E30.24513
G1 X85.113 Y63.314 E30.28536
G1 X86.572 Y64.2 E30.37052
G1 X87.217 Y64.649 E30.40973
G1 X88.853 Y65.952 E30.51407
G1 X89.472 Y66.519 E30.55595
G1 X90.828 Y67.938 E30.65387
G1 X91.384 Y68.607 E30.69727
G1 X92.683 Y70.418 E30.80846
G1 X93.1 Y71.084 E30.84767
G1 X93.381 Y71.604 E30.87716
G1 X93.68 Y72.242 E30.91231
G1 X93.904 Y72.909 E30.94741
G1 X94.052 Y73.597 E30.98252
G1 X94.109 Y74.087 E31.00713
G1 X94.162 Y74.792 E31.0424
G1 X94.174 Y75.496 E31.07753
G1 X94.107 Y76.197 E31.11266
G1 X93.961 Y76.886 E31.1478
G1 X93.777 Y77.453 E31.17754
G1 X93.627 Y77.849 E31.19867
G1 X93.341 Y78.492 E31.23378
G1 X92.943 Y79.159 E31.27253
G1 X91.615 Y81.096 E31.3897
G1 X91.071 Y81.78 E31.4333
G1 X89.824 Y83.14 E31.52535
G1 X89.392 Y83.567 E31.55566
G1 X88.562 Y84.311 E31.61127
G1 X88.127 Y84.667 E31.63931
G1 X86.894 Y85.585 E31.716
G1 X86.233 Y86.015 E31.75534
G1 X84.233 Y87.141 E31.86985
G1 X83.574 Y87.462 E31.90642
G1 X82.481 Y87.917 E31.96549
G1 X81.933 Y88.115 E31.99456
G1 X80.319 Y88.615 E32.07885
G1 X79.697 Y88.773 E32.11087
G1 X78.318 Y89.048 E32.18103
G1 X77.512 Y89.155 E32.22159
G1 X75.022 Y89.319 E32.34609
G1 X74.239 Y89.321 E32.38515
G1 X50.104 Y87.856 E33.59147
G1 X49.405 Y87.773 E33.62658
G1 X48.543 Y87.557 E33.67092
G1 X47.807 Y87.315 E33.70957
G1 X47.152 Y87.057 E33.74469
G1 X46.53 Y86.727 E33.77982
G1 X45.781 Y86.193 E33.82571
G1 X45.42 Y85.893 E33.84913
G1 X44.905 Y85.413 E33.88426
G1 X44.244 Y84.594 E33.93676
G1 X43.978 Y84.2 E33.96048
G1 X43.618 Y83.595 E33.9956
G1 X43.329 Y82.953 E34.03073
G1 X43.113 Y82.278 E34.06609
G1 X42.928 Y81.56 E34.10308
G1 X42.791 Y80.869 E34.13822
G1 X42.732 Y80.005 E34.18143
G1 X42.745 Y69.86 E34.68756
G1 X42.786 Y69.157 E34.7227
G1 X42.932 Y68.358 E34.76322
G1 X43.054 Y67.872 E34.78822
G1 X43.263 Y67.2 E34.82333
G1 X43.548 Y66.557 E34.85842
G1 X43.808 Y66.099 E34.88469
G1 X44.127 Y65.588 E34.91475
G1 X44.533 Y65.013 E34.94986
G1 X45.001 Y64.487 E34.98499
G1 X45.787 Y63.822 E35.03636
G0 X46.02 Y64.148
G1 X46.577 Y63.751 E35.07048
G1 X47.153 Y63.389 E35.10442
G1 X47.768 Y63.097 E35.13839
G1 X48.282 Y62.917 E35.16556
G1 X48.707 Y62.79 E35.18769
G1 X49.37 Y62.633 E35.22168
G1 X50.019 Y62.558 E35.25427
G1 X74.566 Y61.077 E36.48115
G1 X75.304 Y61.079 E36.51797
G1 X77.224 Y61.208 E36.61398
G1 X77.947 Y61.303 E36.65036
G1 X79.744 Y61.654 E36.74171
G1 X80.335 Y61.802 E36.7721
G1 X81.624 Y62.198 E36.83938
G1 X82.262 Y62.436 E36.87335
G1 X84.236 Y63.307 E36.98099
G1 X84.906 Y63.656 E37.01868
G1 X86.365 Y64.542 E37.10384
G1 X86.967 Y64.962 E37.14046
G1 X88.603 Y66.265 E37.24481
G1 X89.183 Y66.795 E37.28401
G1 X90.539 Y68.214 E37.38193
G1 X91.059 Y68.84 E37.42253
G1 X92.358 Y70.651 E37.53372
G1 X92.748 Y71.275 E37.57043
G1 X93.029 Y71.795 E37.59992
G1 X93.317 Y72.412 E37.63389
G1 X93.53 Y73.058 E37.66782
G1 X93.667 Y73.725 E37.7018
G1 X93.71 Y74.117 E37.72147
G1 X93.763 Y74.822 E37.75674
G1 X93.774 Y75.503 E37.79072
G1 X93.705 Y76.18 E37.82467
G1 X93.557 Y76.845 E37.85866
G1 X93.403 Y77.312 E37.88319
G1 X93.253 Y77.708 E37.90432
G1 X92.975 Y78.329 E37.93827
G1 X92.613 Y78.933 E37.9734
G1 X91.285 Y80.87 E38.09056
G1 X90.776 Y81.51 E38.13136
G1 X89.529 Y82.87 E38.22342
G1 X89.125 Y83.269 E38.25175
G1 X88.295 Y84.013 E38.30736
G1 X87.888 Y84.346 E38.33359
G1 X86.655 Y85.264 E38.41028
G1 X86.036 Y85.666 E38.44711
G1 X84.036 Y86.792 E38.56161
G1 X83.42 Y87.093 E38.59582
G1 X82.327 Y87.548 E38.65488
G1 X81.814 Y87.733 E38.68209
G1 X80.2 Y88.233 E38.76639
G1 X79.618 Y88.381 E38.79635
G1 X78.239 Y88.656 E38.8665
G1 X77.486 Y88.755 E38.90439
G1 X74.996 Y88.919 E39.02889
G1 X74.264 Y88.921 E39.06541
G1 X50.129 Y87.456 E40.27173
G1 X49.453 Y87.375 E40.30569
G1 X48.668 Y87.177 E40.34608
G1 X47.932 Y86.935 E40.38474
G1 X47.299 Y86.685 E40.41869
G1 X46.7 Y86.362 E40.45264
G1 X46.037 Y85.886 E40.49336
G1 X45.676 Y85.586 E40.51678
G1 X45.179 Y85.121 E40.55074
G1 X44.576 Y84.37 E40.59879
G1 X44.31 Y83.976 E40.6225
G1 X43.963 Y83.391 E40.65644
G1 X43.687 Y82.768 E40.69043
G1 X43.5 Y82.178 E40.72131
G1 X43.315 Y81.46 E40.7583
G1 X43.185 Y80.792 E40.79225
G1 X43.132 Y80.006 E40.83156
G1 X43.145 Y69.861 E41.33769
G1 X43.186 Y69.181 E41.37168
G1 X43.32 Y68.456 E41.40846
G1 X43.442 Y67.97 E41.43346
G1 X43.646 Y67.32 E41.46745
G1 X43.925 Y66.699 E41.50141
G1 X44.147 Y66.311 E41.52372
G1 X44.466 Y65.8 E41.55377
G1 X44.86 Y65.244 E41.58777
G1 X45.316 Y64.739 E41.62171
G1 X46.02 Y64.148 E41.66757
G0 X46.252 Y64.474
G1 X46.809 Y64.077 E41.7017
G1 X47.366 Y63.729 E41.73446
G1 X47.961 Y63.451 E41.76723
G1 X48.397 Y63.3 E41.79025
G1 X48.822 Y63.173 E41.81238
G1 X49.462 Y63.024 E41.84516
G1 X50.043 Y62.957 E41.87434
G1 X74.59 Y61.476 E43.10122
G1 X75.277 Y61.478 E43.1355
G1 X77.197 Y61.607 E43.2315
G1 X77.87 Y61.695 E43.26536
G1 X79.667 Y62.046 E43.35671
G1 X80.218 Y62.184 E43.38505
G1 X81.507 Y62.58 E43.45232
G1 X82.101 Y62.802 E43.48396
G1 X84.075 Y63.673 E43.5916
G1 X84.698 Y63.997 E43.62664
G1 X86.157 Y64.883 E43.7118
G1 X86.718 Y65.275 E43.74594
G1 X88.354 Y66.578 E43.85029
G1 X88.894 Y67.071 E43.88677
G1 X90.25 Y68.49 E43.98469
G1 X90.734 Y69.074 E44.02253
G1 X92.033 Y70.885 E44.13372
G1 X92.396 Y71.465 E44.16786
G1 X92.677 Y71.985 E44.19734
G1 X92.953 Y72.581 E44.23011
G1 X93.155 Y73.206 E44.26288
G1 X93.311 Y74.147 E44.31047
G1 X93.364 Y74.852 E44.34574
G1 X93.373 Y75.509 E44.37852
