;FLAVOR:RepRap
;TIME:39741
;Filament used: 4.09302m
;Layer height: 0.3
;Generated with Cura_SteamEngine 2.4.0
M104 S205
M109 S205
G28 ;Home
G1 Z15.0 F6000 ;Move the platform down 15mm
;Prime the extruder
G92 E0
G1 F200 E3
G92 E0
;LAYER_COUNT:160
;LAYER:-6
M107
G1 F1500 E-6.5
G0 F240 X114.506 Y133.121 Z0.36
G1 F1500 E0
G1 F90 X115.656 Y132.135 E0.18138
G1 X115.734 Y132.076 E0.19309
G1 X116.607 Y131.452 E0.32158
G1 X117.259 Y131.046 E0.41354
G1 X117.41 Y130.957 E0.43453
G1 X118.27 Y130.487 E0.55188
G1 X118.339 Y130.452 E0.56114
G1 X119.347 Y129.989 E0.69396
G1 X119.934 Y129.76 E0.7694
G1 X120.163 Y129.676 E0.79861
G1 X121.151 Y129.355 E0.923
G1 X121.964 Y129.148 E1.02345
G1 X122.144 Y129.107 E1.04555
G1 X123.582 Y128.856 E1.22034
G1 X123.712 Y128.84 E1.23602
G1 X124.654 Y128.753 E1.34929
G1 X147.905 Y127.328 E4.13851
G1 X148.395 Y127.302 E4.19726
G1 X148.829 Y127.285 E4.24927
G1 X149.311 Y127.272 E4.307
G1 X149.76 Y127.267 E4.36077
G1 X150.122 Y127.268 E4.40411
G1 X150.611 Y127.275 E4.46267
G1 X151.14 Y127.293 E4.52605
G1 X151.77 Y127.327 E4.60159
G1 X152.23 Y127.36 E4.65681
G1 X152.704 Y127.403 E4.7138
G1 X153.132 Y127.446 E4.7653
G1 X153.556 Y127.496 E4.81642
G1 X153.964 Y127.55 E4.8657
G1 X153.964 Y127.551 E4.86582
G1 X154.455 Y127.623 E4.92524
G1 X154.989 Y127.712 E4.99006
G1 X154.989 Y127.711 E4.99018
G1 X155.421 Y127.791 E5.04279
G1 X155.84 Y127.874 E5.09393
G1 X156.246 Y127.961 E5.14365
G1 X156.715 Y128.068 E5.20125
G1 X157.065 Y128.154 E5.2444
G1 X157.49 Y128.265 E5.297
G1 X158.036 Y128.414 E5.36477
G1 X158.541 Y128.563 E5.42781
G1 X158.541 Y128.562 E5.42793
G1 X158.831 Y128.654 E5.46436
G1 X159.277 Y128.801 E5.52059
G1 X159.665 Y128.934 E5.5697
G1 X160.034 Y129.067 E5.61666
G1 X160.413 Y129.208 E5.66508
G1 X161.121 Y129.49 E5.75633
G1 X161.884 Y129.816 E5.85568
G1 X162.395 Y130.048 E5.92288
G1 X162.902 Y130.291 E5.9902
G1 X163.261 Y130.47 E6.03823
G1 X163.588 Y130.638 E6.08225
G1 X163.973 Y130.844 E6.13453
G1 X164.353 Y131.054 E6.18651
G1 X164.669 Y131.235 E6.23012
G1 X165.042 Y131.455 E6.28197
G1 X165.413 Y131.679 E6.33386
G1 X165.752 Y131.89 E6.38167
G1 X166.123 Y132.132 E6.43471
G1 X166.471 Y132.364 E6.48479
G1 X166.809 Y132.596 E6.53388
G1 X167.102 Y132.803 E6.57683
G1 X167.206 Y132.878 E6.59218
G1 X167.803 Y133.322 E6.68127
G1 X168.295 Y133.708 E6.75615
G1 X168.982 Y134.272 E6.86257
G1 X169.523 Y134.737 E6.94799
G1 X169.78 Y134.971 E6.98961
G1 X170.033 Y135.205 E7.03087
G1 X170.374 Y135.527 E7.08703
G1 X170.769 Y135.916 E7.15341
G1 X171.163 Y136.318 E7.22081
G1 X171.465 Y136.634 E7.27314
G1 X171.758 Y136.952 E7.32492
G1 X172.094 Y137.33 E7.38548
G1 X172.4 Y137.684 E7.4415
G1 X172.401 Y137.683 E7.44167
G1 X172.71 Y138.054 E7.49948
G1 X173.038 Y138.46 E7.56198
G1 X173.377 Y138.897 E7.6282
G1 X173.66 Y139.274 E7.68465
G1 X173.975 Y139.712 E7.74925
G1 X174.417 Y140.352 E7.84238
G1 X174.416 Y140.352 E7.8425
G1 X174.741 Y140.843 E7.913
G1 X174.963 Y141.194 E7.96273
G1 X175.258 Y141.681 E8.0309
G1 X175.453 Y142.013 E8.077
G1 X176.185 Y143.439 E8.26893
G1 X176.26 Y143.606 E8.29085
G1 X176.656 Y144.587 E8.41752
G1 X176.943 Y145.471 E8.52881
G1 X176.968 Y145.556 E8.53942
G1 X177.25 Y146.677 E8.67782
G1 X177.284 Y146.841 E8.69788
G1 X177.464 Y147.888 E8.82508
G1 X177.581 Y149.21 E8.98399
G1 X177.59 Y149.42 E9.00916
G1 X177.597 Y150.487 E9.13692
G1 X177.498 Y151.807 E9.29542
G1 X177.477 Y151.987 E9.31711
G1 X177.306 Y153.059 E9.44709
G1 X176.981 Y154.39 E9.61115
G1 X176.918 Y154.604 E9.63786
G1 X176.583 Y155.604 E9.76413
G1 X176.084 Y156.777 E9.91676
G1 X176.013 Y156.926 E9.93653
G1 X175.364 Y158.137 E10.10104
G1 X175.114 Y158.557 E10.15956
G1 X174.817 Y159.039 E10.22735
G1 X174.564 Y159.432 E10.28332
G1 X174.158 Y160.027 E10.36956
G1 X173.686 Y160.686 E10.46662
G1 X173.266 Y161.249 E10.55073
G1 X172.99 Y161.601 E10.60428
G1 X172.728 Y161.923 E10.65399
G1 X172.438 Y162.273 E10.70841
G1 X172.071 Y162.698 E10.77565
G1 X171.762 Y163.044 E10.83119
G1 X171.441 Y163.392 E10.88788
G1 X171.162 Y163.683 E10.93615
G1 X170.944 Y163.907 E10.97358
G1 X170.597 Y164.254 E11.03234
G1 X170.305 Y164.54 E11.08128
G1 X170.028 Y164.802 E11.12693
G1 X169.585 Y165.204 E11.19856
G1 X169.017 Y165.699 E11.28877
G1 X168.451 Y166.168 E11.37678
G1 X167.861 Y166.633 E11.46673
G1 X167.267 Y167.077 E11.55553
G1 X167.267 Y167.076 E11.55565
G1 X166.618 Y167.534 E11.65076
G1 X166.102 Y167.883 E11.72535
G1 X165.822 Y168.064 E11.76527
G1 X165.378 Y168.34 E11.82787
G1 X164.718 Y168.736 E11.92003
G1 X164.161 Y169.054 E11.99682
G1 X164.161 Y169.053 E11.99694
G1 X163.774 Y169.263 E12.04966
G1 X163.327 Y169.495 E12.10996
G1 X162.703 Y169.804 E12.19334
G1 X161.952 Y170.154 E12.29255
G1 X161.952 Y170.155 E12.29267
G1 X161.299 Y170.436 E12.37779
G1 X160.799 Y170.64 E12.44245
G1 X160.386 Y170.801 E12.49552
G1 X160.047 Y170.929 E12.53891
G1 X159.595 Y171.092 E12.59644
G1 X159.595 Y171.091 E12.59656
G1 X159.097 Y171.26 E12.65953
G1 X158.667 Y171.397 E12.71357
G1 X158.338 Y171.497 E12.75474
G1 X157.933 Y171.614 E12.80522
G1 X157.933 Y171.613 E12.80534
G1 X157.526 Y171.726 E12.85591
G1 X157.228 Y171.805 E12.89283
G1 X156.749 Y171.923 E12.9519
G1 X156.281 Y172.03 E13.00938
G1 X155.978 Y172.096 E13.04651
G1 X155.466 Y172.201 E13.10909
G1 X155.045 Y172.279 E13.16036
G1 X154.473 Y172.374 E13.22978
G1 X154.473 Y172.375 E13.2299
G1 X154.122 Y172.428 E13.27241
G1 X153.779 Y172.475 E13.31386
G1 X153.43 Y172.52 E13.356
G1 X153.43 Y172.521 E13.35611
G1 X153.053 Y172.563 E13.40153
G1 X152.67 Y172.602 E13.44763
G1 X152.04 Y172.654 E13.52332
G1 X151.763 Y172.674 E13.55657
G1 X151.308 Y172.701 E13.61115
G1 X151.308 Y172.7 E13.61127
G1 X150.779 Y172.721 E13.67466
G1 X150.368 Y172.73 E13.72388
G1 X149.974 Y172.734 E13.77106
G1 X149.559 Y172.732 E13.82075
G1 X149.123 Y172.724 E13.87297
G1 X148.821 Y172.714 E13.90915
G1 X148.344 Y172.693 E13.96632
G1 X148.344 Y172.694 E13.96644
G1 X124.612 Y171.242 E16.81334
G1 X123.169 Y171.082 E16.98718
G1 X122.987 Y171.054 E17.00922
G1 X121.417 Y170.715 E17.20154
G1 X121.258 Y170.672 E17.22127
G1 X120.222 Y170.348 E17.35124
G1 X119.311 Y169.992 E17.46835
G1 X119.311 Y169.993 E17.46847
G1 X119.123 Y169.913 E17.49293
G1 X117.931 Y169.337 E17.65145
G1 X117.829 Y169.283 E17.66527
G1 X116.916 Y168.748 E17.79197
G1 X116.239 Y168.292 E17.88971
G1 X116.07 Y168.171 E17.9146
G1 X115.223 Y167.519 E18.04258
G1 X114.417 Y166.797 E18.17215
G1 X114.254 Y166.64 E18.19924
G1 X113.511 Y165.868 E18.32754
G1 X112.94 Y165.192 E18.43349
G1 X112.803 Y165.019 E18.45991
G1 X112.17 Y164.158 E18.58787
G1 X111.556 Y163.176 E18.72654
G1 X111.447 Y162.985 E18.75287
G1 X110.799 Y161.715 E18.92359
G1 X110.759 Y161.623 E18.9356
G1 X110.355 Y160.631 E19.06385
G1 X110.156 Y160.05 E19.13739
G1 X110.075 Y159.795 E19.16942
G1 X110.076 Y159.795 E19.16954
G1 X109.784 Y158.741 E19.3005
G1 X109.605 Y157.881 E19.40568
G1 X109.563 Y157.647 E19.43415
G1 X109.424 Y156.645 E19.55527
G1 X109.411 Y156.52 E19.57032
G1 X109.332 Y155.013 E19.75101
G1 X109.327 Y145.129 E20.93449
G1 X109.362 Y144.116 E21.05585
G1 X109.38 Y143.851 E21.08765
G1 X109.574 Y142.289 E21.27612
G1 X109.615 Y142.056 E21.30445
G1 X109.846 Y140.997 E21.43423
G1 X110.137 Y140.004 E21.55813
G1 X110.136 Y140.004 E21.55825
G1 X110.207 Y139.793 E21.5849
G1 X110.576 Y138.8 E21.71175
G1 X110.858 Y138.164 E21.79505
G1 X110.92 Y138.033 E21.8124
G1 X111.551 Y136.833 E21.97474
G1 X111.649 Y136.666 E21.99792
G1 X112.236 Y135.744 E22.1288
G1 X112.87 Y134.896 E22.25557
G1 X113.023 Y134.707 E22.28469
G1 X113.712 Y133.911 E22.41074
G1 X114.359 Y133.259 E22.52073
G1 X114.506 Y133.121 E22.54487
G0 F240 X115.2 Y132.525
G1 F90 X115.2 Y167.498 E26.73241
G0 F240 X116.8 Y168.669
G1 F90 X116.8 Y131.331 E31.20313
G0 F240 X118.4 Y130.423
G1 F90 X118.4 Y169.563 E35.88962
G0 F240 X120 Y170.261
G1 F90 X120 Y129.735 E40.74206
G0 F240 X121.6 Y129.24
G1 F90 X121.6 Y170.754 E45.7128
G0 F240 X123.2 Y171.085
G1 F90 X123.2 Y128.922 E50.76125
G0 F240 X124.8 Y128.744
G1 F90 X124.8 Y171.253 E55.85113
G0 F240 X126.4 Y171.351
G1 F90 X126.4 Y128.645 E60.9646
G0 F240 X128 Y128.547
G1 F90 X128 Y171.449 E66.10153
G0 F240 X129.6 Y171.547
G1 F90 X129.6 Y128.449 E71.26193
G0 F240 X131.2 Y128.351
G1 F90 X131.2 Y171.645 E76.44581
G0 F240 X132.8 Y171.742
G1 F90 X132.8 Y128.253 E81.65303
G0 F240 X134.4 Y128.155
G1 F90 X134.4 Y171.84 E86.88371
G0 F240 X136 Y171.938
G1 F90 X136 Y128.057 E92.13787
G0 F240 X137.6 Y127.959
G1 F90 X137.6 Y172.036 E97.4155
G0 F240 X139.2 Y172.134
G1 F90 X139.2 Y127.861 E102.71659
G0 F240 X140.8 Y127.763
G1 F90 X140.8 Y172.232 E108.04115
G0 F240 X142.4 Y172.33
G1 F90 X142.4 Y127.665 E113.38918
G0 F240 X144 Y127.567
G1 F90 X144 Y172.428 E118.76068
G0 F240 X145.6 Y172.526
G1 F90 X145.6 Y127.469 E124.15565
G0 F240 X147.2 Y127.371
G1 F90 X147.2 Y172.624 E129.57408
G0 F240 X148.8 Y172.713
G1 F90 X148.8 Y127.286 E135.01335
G0 F240 X150.4 Y127.272
G1 F90 X150.4 Y172.73 E140.45633
G0 F240 X152 Y172.657
G1 F90 X152 Y127.344 E145.88195
G0 F240 X153.6 Y127.502
G1 F90 X153.6 Y172.499 E151.26973
G0 F240 X155.2 Y172.251
G1 F90 X155.2 Y127.751 E156.59801
G0 F240 X156.8 Y128.089
G1 F90 X156.8 Y171.911 E161.8451
G0 F240 X158.4 Y171.479
G1 F90 X158.4 Y128.522 E166.98862
G0 F240 X160 Y129.055
G1 F90 X160 Y170.946 E172.0045
G0 F240 X161.6 Y170.307
G1 F90 X161.6 Y129.695 E176.86724
G0 F240 X163.2 Y130.44
G1 F90 X163.2 Y169.558 E181.55109
G0 F240 X164.8 Y168.687
G1 F90 X164.8 Y131.313 E186.02612
G0 F240 X166.4 Y132.317
G1 F90 X166.4 Y167.682 E190.2606
G0 F240 X168 Y166.524
G1 F90 X168 Y133.477 E194.21754
G0 F240 X169.6 Y134.808
G1 F90 X169.6 Y165.191 E197.85549
G0 F240 X171.2 Y163.644
G1 F90 X171.2 Y136.357 E201.12274
G0 F240 X172.8 Y138.166
G1 F90 X172.8 Y161.835 E203.95678
G0 F240 X174.4 Y159.673
G1 F90 X174.4 Y140.328 E206.27308
G0 F240 X176 Y143.079
G1 F90 X176 Y156.951 E207.93407
G0 F240 X113.6 Y165.96
G1 F90 X113.6 Y134.04 E211.75606
G0 F240 X112 Y136.114
G1 F90 X112 Y163.886 E215.08138
G0 F240 X110.4 Y160.741
M104 S200
G1 F90 X110.4 Y139.273 E217.65188
;TIME_ELAPSED:1294.808499
;LAYER:-5
M140 S60
G0 F240 X110.558 Y138.843 Z0.809
;TYPE:SUPPORT
G1 F90 X144.152 Y172.437 E224.74679
G1 X142.646 Y172.344 E224.97213
G1 X110.177 Y139.876 E231.82934
G1 X110.136 Y140.002 E231.84913
G0 F240 X110.136 Y140.003
G1 F90 X109.853 Y140.966 E231.99902
G1 X141.139 Y172.252 E238.60649
G1 X139.633 Y172.16 E238.83181
G1 X109.601 Y142.128 E245.17445
G1 X109.574 Y142.288 E245.19868
G1 X109.438 Y143.379 E245.36287
G1 X138.126 Y172.068 E251.42176
G1 X136.62 Y171.976 E251.64708
G1 X109.342 Y144.697 E257.40819
G1 X109.327 Y145.128 E257.47259
G1 X109.327 Y146.096 E257.61715
G1 X135.114 Y171.884 E263.06336
G1 X133.607 Y171.791 E263.28884
G1 X109.327 Y147.511 E268.41668
G1 X109.328 Y148.926 E268.62799
G1 X132.101 Y171.699 E273.43755
G1 X130.594 Y171.607 E273.66303
G1 X109.329 Y150.341 E278.15421
G1 X109.33 Y151.756 E278.36552
G1 X129.088 Y171.515 E282.53844
G1 X127.582 Y171.423 E282.76376
G1 X109.33 Y153.171 E286.61851
G1 X109.331 Y154.586 E286.82982
G1 X126.075 Y171.33 E290.36608
G1 X124.612 Y171.241 E290.58497
G1 X124.566 Y171.235 E290.5919
G1 X109.385 Y156.054 E293.79806
G1 X109.41 Y156.519 E293.8676
G1 X109.424 Y156.644 E293.88639
G1 X109.563 Y157.646 E294.03746
G1 X122.965 Y171.048 E296.8679
G1 X121.417 Y170.713 E297.10443
G1 X121.258 Y170.67 E297.12903
G1 X121.134 Y170.631 E297.14844
G1 X109.991 Y159.488 E299.50179
G1 X110.076 Y159.794 E299.54922
G1 X110.074 Y159.794 E299.54952
G1 X110.155 Y160.049 E299.58948
G1 X110.355 Y160.63 E299.68124
G1 X110.759 Y161.622 E299.8412
G1 X110.795 Y161.706 E299.85484
G1 X118.885 Y169.796 E301.56342
G1 X117.931 Y169.336 E301.72158
G1 X117.828 Y169.282 E301.73895
G1 X116.915 Y168.746 E301.89706
G1 X116.238 Y168.291 E302.01887
G1 X116.07 Y168.169 E302.04988
G1 X115.223 Y167.517 E302.2095
G1 X114.927 Y167.253 E302.26873
G1 X113.348 Y165.674 E302.60221
G0 F240 X110.136 Y140.003
G1 F90 X110.136 Y140.002 E302.60236
G0 F240 X110.558 Y138.843
G1 F90 X110.575 Y138.799 E302.60941
G1 X110.858 Y138.163 E302.71336
G1 X110.92 Y138.032 E302.73501
G1 X111.003 Y137.873 E302.76179
G1 X145.659 Y172.529 E310.08099
G1 X147.165 Y172.621 E310.30632
G1 X111.49 Y136.946 E317.84073
G1 X111.551 Y136.832 E317.86004
G1 X111.649 Y136.665 E317.88895
G1 X112.027 Y136.069 E317.99435
G1 X148.664 Y172.705 E325.73183
G1 X148.821 Y172.712 E325.7553
G1 X149.123 Y172.723 E325.80043
G1 X149.559 Y172.731 E325.86555
G1 X149.974 Y172.733 E325.92752
G1 X150.104 Y172.732 E325.94694
G1 X112.612 Y135.239 E333.8652
G1 X112.87 Y134.895 E333.92941
G1 X113.023 Y134.705 E333.96584
G1 X113.24 Y134.453 E334.01551
G1 X151.476 Y172.689 E342.09079
G1 X151.762 Y172.673 E342.13357
G1 X152.039 Y172.653 E342.17504
G1 X152.67 Y172.601 E342.26959
G1 X152.79 Y172.589 E342.2876
G1 X113.91 Y133.709 E350.4989
G1 X114.358 Y133.258 E350.59383
G1 X114.506 Y133.119 E350.62415
G1 X114.629 Y133.014 E350.6483
G1 X154.051 Y172.436 E358.97407
G1 X154.121 Y172.427 E358.98461
G1 X154.473 Y172.374 E359.03777
G0 F240 X154.473 Y172.372
G1 F90 X155.045 Y172.278 E359.12433
G1 X155.266 Y172.237 E359.1579
G1 X115.391 Y132.361 E367.57944
G1 X115.655 Y132.134 E367.63143
G1 X115.734 Y132.075 E367.64616
G1 X116.192 Y131.748 E367.7302
G1 X156.436 Y171.993 E376.22967
G1 X156.749 Y171.922 E376.2776
G1 X157.228 Y171.804 E376.35127
G1 X157.526 Y171.725 E376.39731
G1 X157.57 Y171.712 E376.40416
G1 X117.04 Y131.182 E384.96393
G1 X117.259 Y131.045 E385.00251
G1 X117.409 Y130.956 E385.02856
G1 X117.939 Y130.666 E385.11878
G1 X158.667 Y171.395 E393.72047
G1 X159.096 Y171.259 E393.78768
G1 X159.595 Y171.09 E393.86635
G1 X159.595 Y171.091 E393.8665
G1 X159.729 Y171.042 E393.88781
G1 X118.886 Y130.2 E402.51358
G1 X119.346 Y129.988 E402.58922
G1 X119.881 Y129.78 E402.67494
G1 X160.755 Y170.655 E411.30746
G1 X160.798 Y170.639 E411.31431
G1 X161.299 Y170.435 E411.3951
G1 X161.754 Y170.239 E411.46908
G1 X120.938 Y129.423 E420.08925
G1 X121.15 Y129.354 E420.12255
G1 X121.963 Y129.146 E420.24787
G1 X122.055 Y129.126 E420.26193
G1 X162.722 Y169.793 E428.85063
G1 X163.326 Y169.494 E428.95128
G1 X163.662 Y169.319 E429.00785
G1 X123.255 Y128.912 E437.54164
G1 X123.581 Y128.855 E437.59106
G1 X123.711 Y128.839 E437.61062
G1 X124.522 Y128.764 E437.73225
G1 X164.574 Y168.816 E446.19107
G1 X164.717 Y168.735 E446.21561
G1 X165.378 Y168.339 E446.33068
G1 X165.459 Y168.287 E446.34506
G1 X125.85 Y128.679 E454.71021
G1 X127.183 Y128.597 E454.90965
G1 X166.32 Y167.734 E463.17522
G1 X166.618 Y167.533 E463.2289
G1 X167.154 Y167.154 E463.32694
G1 X128.515 Y128.515 E471.48733
G1 X129.848 Y128.434 E471.68677
G1 X167.964 Y166.549 E479.7366
G1 X168.45 Y166.167 E479.82892
G1 X168.748 Y165.919 E479.88682
G1 X131.181 Y128.352 E487.82081
G1 X132.513 Y128.271 E488.0201
G1 X169.51 Y165.267 E495.8336
G1 X169.584 Y165.204 E495.84812
G1 X170.027 Y164.801 E495.93755
G1 X170.248 Y164.591 E495.98308
G1 X133.846 Y128.189 E503.67103
G1 X135.179 Y128.107 E503.87047
G1 X170.96 Y163.889 E511.42738
G1 X171.161 Y163.683 E511.47036
G1 X171.44 Y163.391 E511.53067
G1 X171.65 Y163.164 E511.57685
G1 X136.511 Y128.025 E518.99806
G1 X137.844 Y127.944 E519.1975
G1 X172.314 Y162.415 E526.47752
G1 X172.437 Y162.273 E526.50558
G1 X172.727 Y161.922 E526.57357
G1 X172.956 Y161.642 E526.62759
G1 X139.176 Y127.863 E533.76168
G1 X140.509 Y127.781 E533.96112
G1 X173.569 Y160.841 E540.94326
G1 X173.685 Y160.685 E540.97229
G1 X174.157 Y160.026 E541.09334
G1 X174.162 Y160.02 E541.09451
G1 X141.842 Y127.699 E547.92046
G1 X143.174 Y127.617 E548.11976
G1 X174.729 Y159.173 E554.78415
G1 X174.815 Y159.038 E554.80805
G1 X175.113 Y158.557 E554.89255
G1 X175.268 Y158.297 E554.93776
G1 X144.507 Y127.536 E561.43435
G1 X145.839 Y127.454 E561.63365
G1 X175.767 Y157.382 E567.95432
G1 X176.012 Y156.926 E568.03162
G1 X176.083 Y156.776 E568.0564
G1 X176.23 Y156.431 E568.11241
G1 X147.172 Y127.373 E574.24934
G1 X147.904 Y127.328 E574.35886
G1 X148.394 Y127.301 E574.43214
G1 X148.51 Y127.297 E574.44948
G1 X176.641 Y155.428 E580.39063
G1 X176.917 Y154.603 E580.52054
G1 X176.98 Y154.389 E580.55386
G1 X176.988 Y154.36 E580.55835
G1 X149.895 Y127.267 E586.28028
G1 X150.121 Y127.267 E586.31403
