;FLAVOR:RepRap
;TIME:39644
;Filament used: 4.07687m
;Layer height: 0.3
;Generated with Cura_SteamEngine 2.4.0
M106
M104 S200
M109 S200
G28 ;Home
G1 Z15.0 F6000 ;Move the platform down 15mm
;Prime the extruder
G92 E0
G1 F200 E3
G92 E0
;LAYER_COUNT:160
;LAYER:-6
G1 F1500 E-6.5
G0 F240 X20.883 Y16.299 Z0.36
G1 F1500 E0
G1 F90 X21.582 Y15.489 E0.12811
G1 X22.207 Y14.854 E0.23479
G1 X22.396 Y14.673 E0.26612
G1 X23.185 Y13.976 E0.39218
G1 X24.052 Y13.314 E0.52279
G1 X24.214 Y13.2 E0.54651
G1 X25.539 Y12.367 E0.73391
G1 X25.643 Y12.309 E0.74817
G1 X27.087 Y11.603 E0.94063
G1 X27.292 Y11.517 E0.96724
G1 X28.658 Y11.017 E1.14142
G1 X28.763 Y10.985 E1.15456
G1 X29.698 Y10.728 E1.27067
G1 X29.835 Y10.695 E1.28754
G1 X30.861 Y10.488 E1.41286
G1 X31.441 Y10.406 E1.483
G1 X31.705 Y10.374 E1.51484
G1 X32.601 Y10.292 E1.62258
G1 X55.838 Y8.872 E4.41008
G1 X56.333 Y8.845 E4.46944
G1 X56.818 Y8.826 E4.52756
G1 X57.369 Y8.812 E4.59355
G1 X57.844 Y8.809 E4.65043
G1 X58.314 Y8.814 E4.70671
G1 X58.778 Y8.827 E4.76229
G1 X59.231 Y8.845 E4.81657
G1 X59.231 Y8.844 E4.81669
G1 X59.684 Y8.87 E4.87102
G1 X60.194 Y8.908 E4.93226
G1 X60.734 Y8.957 E4.99718
G1 X60.734 Y8.958 E4.9973
G1 X61.233 Y9.012 E5.0574
G1 X61.689 Y9.069 E5.11242
G1 X62.167 Y9.137 E5.17023
G1 X62.591 Y9.204 E5.22163
G1 X62.999 Y9.275 E5.27122
G1 X63.483 Y9.366 E5.33018
G1 X63.983 Y9.469 E5.39131
G1 X64.407 Y9.563 E5.44331
G1 X64.407 Y9.562 E5.44343
G1 X64.837 Y9.665 E5.49637
G1 X65.249 Y9.769 E5.54725
G1 X65.691 Y9.889 E5.60209
G1 X66.215 Y10.04 E5.66739
G1 X66.793 Y10.218 E5.7398
G1 X67.182 Y10.345 E5.7888
G1 X67.638 Y10.502 E5.84654
G1 X68.063 Y10.656 E5.90067
G1 X68.385 Y10.778 E5.9419
G1 X68.781 Y10.933 E5.99282
G1 X69.164 Y11.089 E6.04234
G1 X69.553 Y11.254 E6.09293
G1 X70.069 Y11.485 E6.16062
G1 X70.447 Y11.66 E6.2105
G1 X70.8 Y11.831 E6.25746
G1 X71.125 Y11.994 E6.301
G1 X71.376 Y12.122 E6.33473
G1 X71.906 Y12.402 E6.40651
G1 X71.906 Y12.403 E6.40663
G1 X72.352 Y12.651 E6.46773
G1 X72.695 Y12.849 E6.51515
G1 X73.004 Y13.033 E6.55821
G1 X73.386 Y13.265 E6.61173
G1 X73.739 Y13.489 E6.66178
G1 X74.059 Y13.697 E6.70748
G1 X74.432 Y13.946 E6.76118
G1 X74.787 Y14.192 E6.8129
G1 X75.196 Y14.485 E6.87314
G1 X75.545 Y14.744 E6.92518
G1 X75.861 Y14.985 E6.97276
G1 X76.2 Y15.251 E7.02436
G1 X76.548 Y15.533 E7.07799
G1 X76.86 Y15.793 E7.12662
G1 X77.192 Y16.077 E7.17893
G1 X77.493 Y16.342 E7.22695
G1 X77.815 Y16.636 E7.27916
G1 X78.183 Y16.982 E7.33964
G1 X78.469 Y17.259 E7.38731
G1 X78.866 Y17.655 E7.45445
G1 X78.865 Y17.655 E7.45457
G1 X79.262 Y18.066 E7.52299
G1 X79.604 Y18.434 E7.58314
G1 X79.94 Y18.809 E7.64343
G1 X80.267 Y19.187 E7.70328
G1 X80.268 Y19.186 E7.70345
G1 X80.568 Y19.547 E7.75965
G1 X80.892 Y19.944 E7.82101
G1 X81.203 Y20.341 E7.88139
G1 X81.49 Y20.72 E7.93831
G1 X81.772 Y21.105 E7.99546
G1 X82.072 Y21.529 E8.05765
G1 X82.35 Y21.938 E8.11686
G1 X82.639 Y22.377 E8.17979
G1 X82.993 Y22.944 E8.25983
G1 X83.319 Y23.493 E8.33628
G1 X83.815 Y24.403 E8.46037
G1 X84.111 Y25.033 E8.54372
G1 X84.191 Y25.215 E8.56752
G1 X84.587 Y26.211 E8.69586
G1 X84.792 Y26.835 E8.77451
G1 X84.828 Y26.953 E8.78928
G1 X85.1 Y27.977 E8.91614
G1 X85.215 Y28.535 E8.98436
G1 X85.261 Y28.779 E9.01409
G1 X85.414 Y29.825 E9.14067
G1 X85.501 Y31.17 E9.30205
G1 X85.505 Y31.332 E9.32145
G1 X85.453 Y32.859 E9.50439
G1 X85.442 Y32.986 E9.51966
G1 X85.311 Y34.039 E9.64671
G1 X85.185 Y34.716 E9.72917
G1 X85.184 Y34.716 E9.72929
G1 X85.141 Y34.922 E9.75448
G1 X84.888 Y35.938 E9.87985
G1 X84.546 Y36.979 E10.01105
G1 X84.49 Y37.131 E10.03045
G1 X84.074 Y38.142 E10.16135
G1 X83.544 Y39.19 E10.30196
G1 X83.386 Y39.475 E10.34098
G1 X83.154 Y39.877 E10.39656
G1 X82.995 Y40.143 E10.43366
G1 X82.703 Y40.612 E10.49981
G1 X82.702 Y40.612 E10.49993
G1 X82.446 Y41.007 E10.55629
G1 X82.136 Y41.466 E10.62261
G1 X81.866 Y41.853 E10.67912
G1 X81.512 Y42.337 E10.75091
G1 X80.996 Y43.013 E10.85274
G1 X80.457 Y43.676 E10.95505
G1 X79.929 Y44.29 E11.05201
G1 X79.497 Y44.771 E11.12943
G1 X79.155 Y45.135 E11.18923
G1 X79.156 Y45.136 E11.1894
G1 X78.732 Y45.566 E11.26171
G1 X78.167 Y46.118 E11.35628
G1 X77.773 Y46.49 E11.42117
G1 X77.471 Y46.764 E11.46999
G1 X77.183 Y47.019 E11.51605
G1 X76.921 Y47.244 E11.5574
G1 X76.52 Y47.576 E11.61974
G1 X75.897 Y48.075 E11.71531
G1 X75.426 Y48.434 E11.78622
G1 X75.166 Y48.626 E11.82492
G1 X74.824 Y48.871 E11.87529
G1 X74.46 Y49.124 E11.92837
G1 X74.124 Y49.35 E11.97686
G1 X73.818 Y49.551 E12.02069
G1 X73.457 Y49.779 E12.07182
G1 X73.155 Y49.965 E12.11429
G1 X72.679 Y50.245 E12.18041
G1 X71.985 Y50.637 E12.27585
G1 X71.549 Y50.875 E12.33532
G1 X71.263 Y51.025 E12.37399
G1 X70.854 Y51.231 E12.42883
G1 X70.475 Y51.414 E12.47922
G1 X69.896 Y51.68 E12.55551
G1 X69.195 Y51.984 E12.647
G1 X68.707 Y52.183 E12.7101
G1 X68.325 Y52.333 E12.75924
G1 X68.325 Y52.332 E12.75936
G1 X67.929 Y52.48 E12.80998
G1 X67.505 Y52.632 E12.86391
G1 X67.505 Y52.633 E12.86403
G1 X66.862 Y52.847 E12.94518
G1 X66.192 Y53.054 E13.02914
G1 X65.726 Y53.19 E13.08727
G1 X65.295 Y53.307 E13.14074
G1 X64.788 Y53.435 E13.20335
G1 X64.299 Y53.549 E13.26347
G1 X64.299 Y53.55 E13.26359
G1 X63.991 Y53.619 E13.30138
G1 X63.539 Y53.711 E13.35662
G1 X63.183 Y53.778 E13.39999
G1 X62.707 Y53.864 E13.45791
G1 X62.242 Y53.94 E13.51432
G1 X61.846 Y53.998 E13.56224
G1 X61.454 Y54.049 E13.60958
G1 X61.082 Y54.094 E13.65444
G1 X60.475 Y54.154 E13.72748
G1 X59.624 Y54.22 E13.82968
G1 X59.624 Y54.221 E13.8298
G1 X59.051 Y54.253 E13.89852
G1 X59.051 Y54.252 E13.89864
G1 X58.641 Y54.267 E13.94776
G1 X58.159 Y54.277 E14.00549
G1 X57.756 Y54.279 E14.05374
G1 X57.329 Y54.274 E14.10487
G1 X56.831 Y54.261 E14.16452
G1 X56.294 Y54.239 E14.22887
G1 X56.294 Y54.24 E14.22899
G1 X32.591 Y52.795 E17.07237
G1 X32.591 Y52.794 E17.07249
G1 X31.892 Y52.734 E17.1565
G1 X31.728 Y52.716 E17.17625
G1 X30.324 Y52.494 E17.34645
G1 X30.084 Y52.443 E17.37583
G1 X29.039 Y52.185 E17.50471
G1 X28.41 Y51.991 E17.58353
G1 X28.307 Y51.956 E17.59655
G1 X27.058 Y51.471 E17.75698
G1 X26.873 Y51.39 E17.78116
G1 X25.926 Y50.931 E17.90717
G1 X25.838 Y50.884 E17.91912
G1 X24.901 Y50.344 E18.04861
G1 X24.28 Y49.931 E18.13791
G1 X24.095 Y49.802 E18.16491
G1 X22.89 Y48.862 E18.3479
G1 X22.81 Y48.792 E18.36063
G1 X21.981 Y48.014 E18.49676
G1 X21.919 Y47.951 E18.50734
G1 X21.168 Y47.133 E18.6403
G1 X20.847 Y46.742 E18.70088
G1 X20.7 Y46.556 E18.72926
G1 X20.074 Y45.705 E18.85576
G1 X19.545 Y44.868 E18.97432
G1 X19.446 Y44.698 E18.99787
G1 X18.93 Y43.742 E19.12795
G1 X18.499 Y42.783 E19.25384
G1 X18.399 Y42.535 E19.28586
G1 X18.038 Y41.547 E19.41181
G1 X17.778 Y40.644 E19.52432
G1 X17.716 Y40.399 E19.55458
G1 X17.493 Y39.37 E19.68065
G1 X17.378 Y38.612 E19.77245
G1 X17.347 Y38.356 E19.80333
G1 X17.254 Y37.318 E19.92811
G1 X17.234 Y36.537 E20.02166
G1 X17.235 Y26.54 E21.21866
G1 X17.275 Y25.482 E21.34543
G1 X17.363 Y24.619 E21.4493
G1 X17.399 Y24.346 E21.48227
G1 X17.666 Y22.89 E21.65952
G1 X17.698 Y22.757 E21.6759
G1 X18.068 Y21.463 E21.83704
G1 X18.138 Y21.254 E21.86343
G1 X18.517 Y20.252 E21.99171
G1 X18.861 Y19.496 E22.09116
G1 X18.981 Y19.252 E22.12372
G1 X19.484 Y18.316 E22.25095
G1 X19.803 Y17.795 E22.32409
G1 X19.86 Y17.707 E22.33665
G1 X20.754 Y16.461 E22.52027
G1 X20.883 Y16.299 E22.54507
G0 F240 X20.8 Y16.403
G1 F90 X20.8 Y46.682 E26.17057
G0 F240 X22.4 Y48.407
G1 F90 X22.4 Y14.669 E30.21024
G0 F240 X24 Y13.353
G1 F90 X24 Y49.727 E34.56553
G0 F240 X25.6 Y50.746
G1 F90 X25.6 Y12.332 E39.16509
G0 F240 X27.2 Y11.555
G1 F90 X27.2 Y51.526 E43.95108
G0 F240 X28.8 Y52.111
G1 F90 X28.8 Y10.974 E48.87667
G0 F240 X30.4 Y10.581
G1 F90 X30.4 Y52.506 E53.89663
G0 F240 X32 Y52.743
G1 F90 X32 Y10.347 E58.97298
G0 F240 X33.6 Y10.23
G1 F90 X33.6 Y52.856 E64.07686
G0 F240 X35.2 Y52.954
G1 F90 X35.2 Y10.133 E69.2041
G0 F240 X36.8 Y10.035
G1 F90 X36.8 Y53.051 E74.35468
G0 F240 X38.4 Y53.149
G1 F90 X38.4 Y9.937 E79.52874
G0 F240 X40 Y9.839
G1 F90 X40 Y53.246 E84.72614
G0 F240 X41.6 Y53.344
G1 F90 X41.6 Y9.742 E89.94689
G0 F240 X43.2 Y9.644
G1 F90 X43.2 Y53.441 E95.19099
G0 F240 X44.8 Y53.539
G1 F90 X44.8 Y9.546 E100.45855
G0 F240 X46.4 Y9.448
G1 F90 X46.4 Y53.636 E105.74947
G0 F240 X48 Y53.734
G1 F90 X48 Y9.35 E111.06385
G0 F240 X49.6 Y9.253
G1 F90 X49.6 Y53.831 E116.40147
G0 F240 X51.2 Y53.929
G1 F90 X51.2 Y9.155 E121.76255
G0 F240 X52.8 Y9.057
G1 F90 X52.8 Y54.026 E127.14698
G0 F240 X54.4 Y54.124
G1 F90 X54.4 Y8.959 E132.55488
G0 F240 X56 Y8.863
G1 F90 X56 Y54.222 E137.986
G0 F240 X57.6 Y54.277
G1 F90 X57.6 Y8.81 E143.43006
G0 F240 X59.2 Y8.844
G1 F90 X59.2 Y54.245 E148.86622
G0 F240 X60.8 Y54.122
G1 F90 X60.8 Y8.966 E154.27304
G0 F240 X62.4 Y9.174
G1 F90 X62.4 Y53.915 E159.63017
G0 F240 X64 Y53.617
G1 F90 X64 Y9.473 E164.91582
G0 F240 X65.6 Y9.865
G1 F90 X65.6 Y53.225 E170.10759
G0 F240 X67.2 Y52.735
G1 F90 X67.2 Y10.352 E175.18238
G0 F240 X68.8 Y10.941
G1 F90 X68.8 Y52.146 E180.11613
G0 F240 X70.4 Y51.449
G1 F90 X70.4 Y11.639 E184.88284
G0 F240 X72 Y12.456
G1 F90 X72 Y50.629 E189.45354
G0 F240 X73.6 Y49.689
G1 F90 X73.6 Y13.401 E193.79853
G0 F240 X75.2 Y14.488
G1 F90 X75.2 Y48.601 E197.8831
G0 F240 X76.8 Y47.345
G1 F90 X76.8 Y15.743 E201.66702
G0 F240 X78.4 Y17.193
G1 F90 X78.4 Y45.891 E205.10321
G0 F240 X80 Y44.208
G1 F90 X80 Y18.879 E208.13602
G0 F240 X81.6 Y20.871
G1 F90 X81.6 Y42.217 E210.69191
G0 F240 X83.2 Y39.798
G1 F90 X83.2 Y23.293 E212.66817
G0 F240 X84.8 Y26.862
G1 F90 X84.8 Y36.206 E213.78698
G0 F240 X19.2 Y44.242
G1 F90 X19.2 Y18.844 E216.82805
G0 F240 X17.6 Y23.249
M104 S200
G1 F90 X17.6 Y39.863 E218.81735
;TIME_ELAPSED:1266.995577
;LAYER:-5
M140 S60
G0 F240 X17.7 Y40.327 Z0.809
;TYPE:SUPPORT
G1 F90 X17.493 Y39.369 E218.96372
G1 X17.377 Y38.61 E219.07838
G1 X17.375 Y38.588 E219.08168
G1 X31.459 Y52.672 E222.05616
G1 X31.727 Y52.714 E222.09668
G1 X31.891 Y52.733 E222.12133
G1 X32.591 Y52.793 E222.22625
G1 X32.591 Y52.794 E222.2264
G1 X33.021 Y52.82 E222.29073
G1 X17.246 Y37.045 E225.62235
G1 X17.233 Y36.536 E225.69839
G1 X17.233 Y35.618 E225.83548
G1 X34.528 Y52.912 E229.488
G1 X36.033 Y53.004 E229.71318
G1 X17.233 Y34.204 E233.68366
G1 X17.233 Y32.789 E233.89497
G1 X37.539 Y53.095 E238.18351
G1 X39.045 Y53.187 E238.40884
G1 X17.234 Y31.376 E243.01523
G1 X17.234 Y29.962 E243.22639
G1 X40.551 Y53.279 E248.15085
G1 X42.058 Y53.371 E248.37632
G1 X17.234 Y28.548 E253.61894
G1 X17.234 Y27.133 E253.83025
G1 X43.564 Y53.463 E259.39104
G1 X45.07 Y53.555 E259.61636
G1 X17.264 Y25.749 E265.48887
G1 X17.274 Y25.481 E265.52892
G1 X17.363 Y24.617 E265.65863
G1 X17.384 Y24.455 E265.68303
G1 X46.576 Y53.647 E271.84826
G1 X48.081 Y53.738 E272.07342
G1 X17.598 Y23.255 E278.5113
G1 X17.666 Y22.889 E278.5669
G1 X17.698 Y22.756 E278.58732
G1 X17.879 Y22.121 E278.68593
G1 X49.587 Y53.83 E285.38263
G1 X51.094 Y53.922 E285.60811
G1 X18.216 Y21.044 E292.5518
G1 X18.517 Y20.25 E292.67861
G1 X18.616 Y20.03 E292.71464
G1 X52.6 Y54.014 E299.89192
G1 X54.106 Y54.106 E300.11724
G1 X19.074 Y19.074 E307.51585
G1 X19.482 Y18.316 E307.64441
G1 X19.576 Y18.162 E307.67135
G1 X55.612 Y54.198 E315.282
G1 X56.293 Y54.24 E315.3839
G0 F240 X56.293 Y54.238
G1 F90 X56.83 Y54.26 E315.46416
G1 X57.096 Y54.267 E315.5039
G1 X20.141 Y17.312 E323.30864
G1 X20.731 Y16.489 E323.45986
G1 X58.512 Y54.269 E331.43895
G1 X58.64 Y54.267 E331.45806
G1 X59.05 Y54.252 E331.51933
G1 X59.05 Y54.253 E331.51948
G1 X59.623 Y54.22 E331.6052
G0 F240 X59.623 Y54.219
G1 F90 X59.858 Y54.201 E331.64039
G1 X21.379 Y15.722 E339.767
G1 X21.581 Y15.489 E339.81305
G1 X22.066 Y14.995 E339.91643
G1 X61.155 Y54.084 E348.17187
G1 X61.453 Y54.048 E348.21669
G1 X61.845 Y53.998 E348.27571
G1 X62.241 Y53.94 E348.33548
G1 X62.399 Y53.914 E348.35939
G1 X22.8 Y14.315 E356.72253
G1 X23.183 Y13.975 E356.79902
G1 X23.576 Y13.676 E356.87276
G1 X63.597 Y53.698 E365.32514
G1 X63.99 Y53.618 E365.38503
G1 X64.297 Y53.549 E365.43202
G1 X64.298 Y53.549 E365.43217
G1 X64.756 Y53.442 E365.50241
G1 X24.398 Y13.084 E374.02585
G1 X25.266 Y12.538 E374.17899
G1 X65.874 Y53.146 E382.75523
G1 X66.19 Y53.054 E382.80438
G1 X66.861 Y52.847 E382.90924
G1 X66.957 Y52.815 E382.92436
G1 X26.186 Y12.044 E391.53502
G1 X27.085 Y11.602 E391.68462
G1 X27.138 Y11.581 E391.69314
G1 X68.006 Y52.45 E400.3244
G1 X68.324 Y52.332 E400.37505
G1 X68.706 Y52.183 E400.43628
G1 X69.023 Y52.052 E400.48751
G1 X28.167 Y11.197 E409.11602
G1 X28.657 Y11.016 E409.19402
G1 X28.762 Y10.985 E409.21037
G1 X29.239 Y10.854 E409.28425
G1 X70.011 Y51.626 E417.89512
G1 X70.474 Y51.413 E417.97123
G1 X70.853 Y51.231 E418.03402
G1 X70.97 Y51.171 E418.05366
G1 X30.383 Y10.584 E426.62546
G1 X30.86 Y10.488 E426.69812
G1 X31.44 Y10.406 E426.7856
G1 X31.6 Y10.387 E426.80966
G1 X71.897 Y50.683 E435.32012
G1 X71.984 Y50.636 E435.33488
G1 X72.678 Y50.244 E435.45391
G1 X72.8 Y50.172 E435.47507
G1 X32.9 Y10.273 E443.90168
G1 X34.233 Y10.192 E444.10111
G1 X73.679 Y49.638 E452.43194
G1 X73.817 Y49.551 E452.4563
G1 X74.123 Y49.35 E452.51098
G1 X74.459 Y49.124 E452.57145
G1 X74.53 Y49.074 E452.58442
G1 X35.566 Y10.11 E460.81345
G1 X36.899 Y10.029 E461.01289
G1 X75.355 Y48.485 E469.13464
G1 X75.425 Y48.433 E469.14766
G1 X75.896 Y48.074 E469.2361
G1 X76.153 Y47.869 E469.28519
G1 X38.232 Y9.948 E477.29395
G1 X39.565 Y9.866 E477.49339
G1 X76.931 Y47.233 E485.38504
G1 X77.182 Y47.019 E485.4343
G1 X77.47 Y46.763 E485.49185
G1 X77.683 Y46.57 E485.53477
G1 X40.897 Y9.784 E493.30382
G1 X42.23 Y9.703 E493.50326
G1 X78.407 Y45.88 E501.14369
G1 X78.73 Y45.565 E501.21106
G1 X79.116 Y45.175 E501.29301
G1 X43.563 Y9.622 E508.80165
G1 X44.896 Y9.54 E509.0011
G1 X79.794 Y44.439 E516.37152
G1 X79.928 Y44.29 E516.40144
G1 X80.451 Y43.682 E516.52121
G1 X46.229 Y9.459 E523.74886
G1 X47.562 Y9.378 E523.94829
G1 X81.082 Y42.898 E531.02758
G1 X81.511 Y42.337 E531.13305
G1 X81.69 Y42.092 E531.17836
G1 X48.894 Y9.296 E538.10474
G1 X50.227 Y9.215 E538.30417
G1 X82.273 Y41.261 E545.07215
G1 X82.445 Y41.007 E545.11796
G1 X82.701 Y40.611 E545.18838
G1 X82.831 Y40.404 E545.22489
G1 X51.56 Y9.133 E551.82919
G1 X52.893 Y9.052 E552.02863
G1 X83.36 Y39.519 E558.46313
G1 X83.384 Y39.474 E558.47075
G1 X83.543 Y39.189 E558.51948
G1 X83.846 Y38.591 E558.6196
G1 X54.225 Y8.971 E564.87532
G1 X55.558 Y8.889 E565.07477
G1 X84.288 Y37.619 E571.14242
G1 X84.489 Y37.131 E571.22124
G1 X84.545 Y36.979 E571.24543
G1 X84.673 Y36.589 E571.30673
G1 X56.907 Y8.823 E577.17079
G0 F240 X57.842 Y8.809
G1 F90 X58.311 Y8.814 E577.24084
G1 X84.997 Y35.499 E582.8767
G1 X85.14 Y34.921 E582.96562
G1 X85.183 Y34.716 E582.9969
G1 X85.253 Y34.342 E583.05373
G1 X59.79 Y8.878 E588.43151
G1 X60.193 Y8.908 E588.49186
G1 X60.732 Y8.956 E588.57267
G0 F240 X60.733 Y8.957
G1 F90 X61.231 Y9.012 E588.64749
G1 X61.353 Y9.027 E588.66585
G1 X85.426 Y33.101 E593.75007
G1 X85.441 Y32.986 E593.76739
G1 X85.452 Y32.859 E593.78643
G1 X85.49 Y31.75 E593.95214
G1 X63.019 Y9.279 E598.69792
G1 X63.482 Y9.366 E598.76828
G1 X63.982 Y9.468 E598.84449
G1 X64.406 Y9.562 E598.90934
G1 X64.406 Y9.561 E598.90949
G1 X64.814 Y9.659 E598.97215
G1 X85.443 Y30.289 E603.32902
G1 X85.413 Y29.825 E603.39846
G1 X85.26 Y28.779 E603.55633
G1 X85.24 Y28.671 E603.57273
G1 X66.784 Y10.216 E607.47045
G1 X66.792 Y10.218 E607.47168
G1 X67.18 Y10.344 E607.53261
G1 X67.637 Y10.501 E607.60477
G1 X68.061 Y10.656 E607.67219
G1 X68.384 Y10.777 E607.7237
G1 X68.78 Y10.933 E607.78726
G1 X69.009 Y11.026 E607.82417
G1 X84.778 Y26.795 E611.15452
G1 X84.586 Y26.211 E611.24632
G1 X84.19 Y25.214 E611.40653
G1 X84.11 Y25.032 E611.43622
G1 X83.826 Y24.429 E611.53575
G1 X71.68 Y12.283 E614.10094
G1 X71.904 Y12.401 E614.13875
G0 F240 X71.904 Y12.403
G1 F90 X72.351 Y12.651 E614.21509
G1 X72.694 Y12.848 E614.27416
G1 X73.003 Y13.033 E614.32794
G1 X73.384 Y13.265 E614.39456
G1 X73.738 Y13.488 E614.45704
G1 X74.058 Y13.696 E614.51403
G1 X74.431 Y13.945 E614.58101
G1 X74.786 Y14.191 E614.64551
G1 X75.195 Y14.485 E614.72073
G1 X75.543 Y14.743 E614.78543
G1 X75.591 Y14.78 E614.79448
G1 X81.356 Y20.545 E616.01202
G0 F240 X71.904 Y12.403
G1 F90 X71.904 Y12.401 E616.01232
G0 F240 X60.733 Y8.957
G1 F90 X60.732 Y8.956 E616.01253
G0 F240 X85.183 Y34.716
G0 X82.701 Y40.611
G0 X68.324 Y52.332
G0 X59.623 Y54.219
G1 F90 X59.623 Y54.22 E616.01268
